; generated by Slic3r 1.3.1-dev on 2020-12-27 at 02:27:58

; external perimeters extrusion width = 0.55mm (3.45mm^3/s)
; perimeters extrusion width = 0.70mm (8.98mm^3/s)
; infill extrusion width = 0.63mm (10.59mm^3/s)
; solid infill extrusion width = 0.70mm (2.99mm^3/s)
; top infill extrusion width = 0.70mm (2.24mm^3/s)

M107
M190 S60 ; set bed temperature and wait for it to be reached
M104 S200 ; set temperature
G28 ; home all axes
G1 Z5 F5000 ; lift nozzle

; Filament gcode

M109 S200 ; set temperature and wait for it to be reached
G21 ; set units to millimeters
G90 ; use absolute coordinates
M82 ; use absolute distances for extrusion
G92 E0
G92 E0
G1 Z0.300 F7800.000
G1 E-2.00000 F2400.00000
G92 E0
G1 X74.364 Y103.212 F7800.000
G1 E2.00000 F2400.00000
G1 F1800
G1 X76.017 Y102.010 E2.13652
G1 X79.501 Y100.234 E2.39777
G1 X81.022 Y99.684 E2.50581
G1 X112.908 Y92.442 E4.69022
G1 X113.694 Y92.313 E4.74344
G1 X115.090 Y92.171 E4.83718
G1 X115.751 Y92.138 E4.88142
G1 X119.520 Y92.138 E5.13321
G1 X120.182 Y92.171 E5.17748
G1 X121.577 Y92.313 E5.27116
G1 X122.894 Y92.586 E5.36098
G1 X124.229 Y93.010 E5.45455
G1 X125.303 Y93.382 E5.53049
G1 X125.987 Y93.665 E5.57992
G1 X126.593 Y93.972 E5.62534
G1 X129.070 Y95.385 E5.81585
G1 X129.887 Y95.967 E5.88283
G1 X130.763 Y96.696 E5.95897
G1 X131.806 Y97.612 E6.05171
G1 X132.735 Y98.619 E6.14328
G1 X133.560 Y99.727 E6.23556
G1 X133.943 Y100.303 E6.28176
G1 X135.827 Y103.488 E6.52898
G1 X136.150 Y104.105 E6.57551
G1 X136.720 Y105.356 E6.66735
G1 X137.157 Y106.669 E6.75979
G1 X137.450 Y108.008 E6.85135
G1 X137.661 Y109.123 E6.92717
G1 X137.774 Y110.124 E6.99448
G1 X137.790 Y110.574 E7.02453
G1 X137.790 Y112.971 E7.18466
G1 X137.757 Y113.671 E7.23148
G1 X137.661 Y114.421 E7.28202
G1 X137.450 Y115.536 E7.35783
G1 X137.157 Y116.875 E7.44940
G1 X136.720 Y118.186 E7.54170
G1 X136.150 Y119.438 E7.63360
G1 X135.828 Y120.057 E7.68021
G1 X133.943 Y123.243 E7.92754
G1 X133.559 Y123.821 E7.97387
G1 X132.734 Y124.928 E8.06610
G1 X131.806 Y125.933 E8.15749
G1 X130.616 Y126.974 E8.26309
G1 X129.887 Y127.578 E8.32636
G1 X129.288 Y128.018 E8.37598
G1 X128.719 Y128.373 E8.42085
G1 X126.593 Y129.573 E8.58389
G1 X125.991 Y129.878 E8.62902
G1 X125.306 Y130.162 E8.67850
G1 X124.229 Y130.535 E8.75470
G1 X122.894 Y130.959 E8.84827
G1 X121.987 Y131.177 E8.91059
G1 X91.267 Y136.282 E10.99100
G1 X87.356 Y136.902 E11.25550
G1 X85.311 Y136.902 E11.39214
G1 X81.447 Y136.290 E11.65349
G1 X79.501 Y135.658 E11.79017
G1 X76.017 Y133.882 E12.05142
G1 X74.364 Y132.681 E12.18794
G1 X71.598 Y129.915 E12.44927
G1 X70.397 Y128.261 E12.58579
G1 X68.621 Y124.777 E12.84704
G1 X67.988 Y122.828 E12.98394
G1 X67.378 Y118.964 E13.24527
G1 X67.378 Y116.926 E13.38147
G1 X67.988 Y113.064 E13.64267
G1 X68.621 Y111.115 E13.77954
G1 X70.397 Y107.631 E14.04078
G1 X71.598 Y105.978 E14.17731
G1 X74.311 Y103.265 E14.43362
G1 E12.43362 F2400.00000
G92 E0
G1 X124.795 Y121.508 F7800.000
G1 E2.00000 F2400.00000
G1 F1800
G1 X122.625 Y122.723 E2.16609
G1 X121.817 Y123.005 E2.22333
G1 X120.635 Y123.381 E2.30616
G1 X119.450 Y123.502 E2.38572
G1 X115.821 Y123.502 E2.62814
G1 X114.636 Y123.381 E2.70777
G1 X113.454 Y123.005 E2.79059
G1 X112.645 Y122.723 E2.84785
G1 X110.476 Y121.509 E3.01391
G1 X110.364 Y121.436 E3.02281
G1 X109.710 Y120.895 E3.07953
G1 X108.791 Y120.087 E3.16128
G1 X108.095 Y119.154 E3.23901
G1 X106.286 Y116.095 E3.47643
G1 X105.807 Y115.043 E3.55370
G1 X105.549 Y113.867 E3.63412
G1 X105.396 Y113.048 E3.68977
G1 X105.396 Y110.497 E3.86021
G1 X105.549 Y109.678 E3.91586
G1 X105.807 Y108.502 E3.99627
G1 X106.286 Y107.450 E4.07347
G1 X108.095 Y104.391 E4.31094
G1 X108.791 Y103.457 E4.38871
G1 X109.710 Y102.650 E4.47044
G1 X110.364 Y102.109 E4.52713
G1 X112.644 Y100.823 E4.70203
G1 X113.454 Y100.540 E4.75931
G1 X114.635 Y100.165 E4.84212
G1 X115.821 Y100.045 E4.92174
G1 X119.451 Y100.045 E5.16423
G1 X120.635 Y100.165 E5.24379
G1 X121.817 Y100.540 E5.32661
G1 X122.626 Y100.823 E5.38386
G1 X122.746 Y100.880 E5.39277
G1 X124.907 Y102.109 E5.55883
G1 X125.561 Y102.650 E5.61550
G1 X126.480 Y103.457 E5.69722
G1 X127.175 Y104.391 E5.77499
G1 X128.985 Y107.450 E6.01246
G1 X129.464 Y108.502 E6.08966
G1 X129.721 Y109.678 E6.17007
G1 X129.874 Y110.497 E6.22577
G1 X129.874 Y113.047 E6.39612
G1 X129.721 Y113.867 E6.45181
G1 X129.464 Y115.043 E6.53224
G1 X128.985 Y116.095 E6.60950
G1 X127.175 Y119.154 E6.84693
G1 X126.480 Y120.087 E6.92465
G1 X125.561 Y120.895 E7.00640
G1 X124.858 Y121.468 E7.06698
G1 X125.087 Y121.957 F7800.000
G1 F1800
G1 X122.831 Y123.218 E7.23968
G1 X121.986 Y123.513 E7.29945
G1 X120.744 Y123.908 E7.38648
G1 X119.478 Y124.038 E7.47155
G1 X115.794 Y124.038 E7.71764
G1 X114.526 Y123.908 E7.80278
G1 X113.285 Y123.513 E7.88980
G1 X112.440 Y123.218 E7.94959
G1 X110.197 Y121.967 E8.12114
G1 X110.046 Y121.868 E8.13321
G1 X109.362 Y121.302 E8.19249
G1 X108.395 Y120.452 E8.27853
G1 X107.649 Y119.452 E8.36192
G1 X105.810 Y116.343 E8.60317
G1 X105.296 Y115.213 E8.68615
G1 X105.024 Y113.973 E8.77093
G1 X104.864 Y113.116 E8.82922
G1 X104.864 Y110.429 E9.00869
G1 X105.024 Y109.571 E9.06698
G1 X105.296 Y108.332 E9.15175
G1 X105.810 Y107.202 E9.23467
G1 X107.649 Y104.094 E9.47595
G1 X108.395 Y103.092 E9.55939
G1 X109.362 Y102.242 E9.64541
G1 X110.046 Y101.677 E9.70467
G1 X112.439 Y100.327 E9.88824
G1 X113.284 Y100.032 E9.94803
G1 X114.526 Y99.638 E10.03505
G1 X115.794 Y99.509 E10.12019
G1 X119.478 Y99.509 E10.36631
G1 X120.745 Y99.638 E10.45138
G1 X121.986 Y100.032 E10.53840
G1 X122.831 Y100.327 E10.59819
G1 X122.994 Y100.405 E10.61028
G1 X125.225 Y101.677 E10.78181
G1 X125.908 Y102.242 E10.84105
G1 X126.876 Y103.092 E10.92708
G1 X127.622 Y104.094 E11.01052
G1 X129.460 Y107.202 E11.25179
G1 X129.975 Y108.332 E11.33471
G1 X130.246 Y109.571 E11.41948
G1 X130.407 Y110.429 E11.47780
G1 X130.407 Y113.115 E11.65721
G1 X130.246 Y113.973 E11.71553
G1 X129.975 Y115.213 E11.80031
G1 X129.460 Y116.343 E11.88329
G1 X127.622 Y119.452 E12.12454
G1 X126.876 Y120.452 E12.20793
G1 X125.908 Y121.302 E12.29397
G1 X125.150 Y121.916 E12.35914
G1 X125.380 Y122.406 F7800.000
G1 F1800
G1 X123.242 Y123.615 E12.52317
G1 X123.036 Y123.714 E12.53847
G1 X122.155 Y124.022 E12.60079
G1 X120.854 Y124.435 E12.69201
G1 X119.505 Y124.573 E12.78261
G1 X115.767 Y124.573 E13.03235
G1 X114.417 Y124.435 E13.12301
G1 X113.115 Y124.022 E13.21423
G1 X112.234 Y123.714 E13.27655
G1 X112.028 Y123.615 E13.29186
G1 X109.919 Y122.425 E13.45361
G1 X109.728 Y122.300 E13.46886
G1 X109.015 Y121.710 E13.53070
G1 X107.999 Y120.818 E13.62103
G1 X107.202 Y119.749 E13.71009
G1 X105.335 Y116.591 E13.95516
G1 X104.784 Y115.383 E14.04386
G1 X104.499 Y114.080 E14.13299
G1 X104.332 Y113.183 E14.19392
G1 X104.317 Y112.961 E14.20881
G1 X104.317 Y110.584 E14.36758
G1 X104.332 Y110.361 E14.38249
G1 X104.499 Y109.465 E14.44342
G1 X104.784 Y108.162 E14.53255
G1 X105.335 Y106.954 E14.62118
G1 X107.202 Y103.797 E14.86627
G1 X107.999 Y102.727 E14.95538
G1 X109.015 Y101.835 E15.04570
G1 X109.728 Y101.245 E15.10753
G1 X109.919 Y101.120 E15.12277
G1 X112.028 Y99.930 E15.28452
G1 X112.234 Y99.831 E15.29982
G1 X113.115 Y99.524 E15.36214
G1 X114.416 Y99.111 E15.45336
G1 X115.766 Y98.973 E15.54401
G1 X119.505 Y98.973 E15.79377
G1 X120.854 Y99.111 E15.88435
G1 X122.155 Y99.524 E15.97558
G1 X123.036 Y99.831 E16.03789
G1 X123.242 Y99.930 E16.05318
G1 X125.351 Y101.120 E16.21494
G1 X125.543 Y101.245 E16.23019
G1 X126.256 Y101.835 E16.29201
G1 X127.272 Y102.727 E16.38234
G1 X128.068 Y103.797 E16.47145
G1 X129.936 Y106.954 E16.71653
G1 X130.486 Y108.162 E16.80517
G1 X130.771 Y109.465 E16.89430
G1 X130.939 Y110.362 E16.95524
G1 X130.954 Y110.584 E16.97015
G1 X130.954 Y112.961 E17.12889
G1 X130.939 Y113.183 E17.14379
G1 X130.771 Y114.080 E17.20473
G1 X130.486 Y115.383 E17.29386
G1 X129.936 Y116.591 E17.38256
G1 X128.068 Y119.749 E17.62763
G1 X127.272 Y120.818 E17.71669
G1 X126.256 Y121.710 E17.80702
G1 X125.442 Y122.365 E17.87678
G1 X125.349 Y122.392 F7800.000
G1 X124.599 Y121.289 F7800.000
G1 F1800
G1 X124.599 Y118.736 E18.04730
G1 X127.095 Y118.736 E18.21401
G1 X127.412 Y118.201 F7800.000
G1 F1800
G1 X124.064 Y118.201 E18.43768
G1 X124.064 Y121.594 E18.66434
G1 X123.528 Y121.898 F7800.000
G1 F1800
G1 X123.528 Y117.665 E18.94713
G1 X127.729 Y117.665 E19.22775
G1 X128.045 Y117.129 F7800.000
G1 F1800
G1 X122.992 Y117.129 E19.56533
G1 X122.992 Y122.203 E19.90425
G1 X122.457 Y122.504 F7800.000
G1 F1800
G1 X122.457 Y116.594 E20.29908
G1 X128.362 Y116.594 E20.69359
G1 X128.723 Y116.043 F7800.000
G1 F1800
G1 X124.454 Y111.773 E21.09698
G1 X128.724 Y107.503 E21.50039
G1 X128.961 Y108.024 F7800.000
G1 F1800
G1 X125.211 Y111.773 E21.85464
G1 X128.960 Y115.522 E22.20884
G1 X129.182 Y114.987 F7800.000
G1 F1800
G1 X125.969 Y111.773 E22.51242
G1 X129.182 Y108.560 E22.81603
G1 X129.318 Y109.181 F7800.000
G1 F1800
G1 X126.726 Y111.773 E23.06093
G1 X129.318 Y114.365 E23.30579
G1 X129.444 Y113.734 F7800.000
G1 F1800
G1 X127.483 Y111.773 E23.49106
G1 X129.448 Y109.809 E23.67667
G1 X129.556 Y110.459 F7800.000
G1 F1800
G1 X128.241 Y111.773 E23.80087
G1 X129.555 Y113.088 E23.92505
G1 X129.556 Y112.330 F7800.000
G1 F1800
G1 X128.998 Y111.773 E23.97768
G1 X129.556 Y111.216 E24.03032
G1 E22.03032 F2400.00000
G92 E0
G1 X128.363 Y106.953 F7800.000
G1 E2.00000 F2400.00000
G1 F1800
G1 X122.457 Y106.953 E2.39454
G1 X122.457 Y101.047 E2.78908
G1 X122.992 Y101.347 F7800.000
G1 F1800
G1 X122.992 Y106.417 E3.12780
G1 X128.046 Y106.417 E3.46540
G1 X127.729 Y105.881 F7800.000
G1 F1800
G1 X123.528 Y105.881 E3.74604
G1 X123.528 Y101.647 E4.02896
G1 X124.064 Y101.946 F7800.000
G1 F1800
G1 X124.064 Y105.346 E4.25607
G1 X127.412 Y105.346 E4.47977
G1 X127.095 Y104.810 F7800.000
G1 F1800
G1 X124.599 Y104.810 E4.64652
G1 X124.599 Y102.255 E4.81721
G1 X125.135 Y102.698 F7800.000
G1 F1800
G1 X125.135 Y104.275 E4.92251
G1 X126.715 Y104.275 E5.02809
G1 X126.284 Y103.739 F7800.000
G1 F1800
G1 X125.671 Y103.739 E5.06904
G1 X125.671 Y103.165 E5.10741
G1 E3.10741 F2400.00000
G92 E0
G1 X121.777 Y100.815 F7800.000
G1 E2.00000 F2400.00000
G1 F1800
G1 X117.636 Y104.956 E2.39121
G1 X113.495 Y100.815 E2.78246
G1 X114.070 Y100.632 F7800.000
G1 F1800
G1 X117.636 Y104.198 E3.11940
G1 X121.202 Y100.633 E3.45629
G1 X120.606 Y100.471 F7800.000
G1 F1800
G1 X117.636 Y103.441 E3.73689
G1 X114.666 Y100.471 E4.01750
G1 X115.354 Y100.401 F7800.000
G1 F1800
G1 X117.636 Y102.684 E4.23316
G1 X119.919 Y100.401 E4.44880
G1 X119.190 Y100.372 F7800.000
G1 F1800
G1 X117.636 Y101.926 E4.59564
G1 X116.082 Y100.372 E4.74248
G1 X116.839 Y100.372 F7800.000
G1 F1800
G1 X117.636 Y101.169 E4.81776
G1 X118.433 Y100.372 E4.89303
G1 E2.89303 F2400.00000
G92 E0
G1 X112.816 Y101.040 F7800.000
G1 E2.00000 F2400.00000
G1 F1800
G1 X112.816 Y106.953 E2.39501
G1 X106.908 Y106.953 E2.78969
G1 X107.225 Y106.417 F7800.000
G1 F1800
G1 X112.280 Y106.417 E3.12742
G1 X112.280 Y101.341 E3.46655
G1 X111.744 Y101.645 F7800.000
G1 F1800
G1 X111.744 Y105.881 E3.74955
G1 X107.541 Y105.881 E4.03033
G1 X107.858 Y105.346 F7800.000
G1 F1800
G1 X111.209 Y105.346 E4.25416
G1 X111.209 Y101.950 E4.48102
G1 X110.673 Y102.255 F7800.000
G1 F1800
G1 X110.673 Y104.810 E4.65176
G1 X108.175 Y104.810 E4.81864
G1 X108.555 Y104.275 F7800.000
G1 F1800
G1 X110.138 Y104.275 E4.92435
G1 X110.138 Y102.697 E5.02976
G1 X109.602 Y103.163 F7800.000
G1 F1800
G1 X109.602 Y103.739 E5.06825
G1 X108.987 Y103.739 E5.10933
G1 E3.10933 F2400.00000
G92 E0
G1 X106.548 Y107.502 F7800.000
G1 E2.00000 F2400.00000
G1 F1800
G1 X110.819 Y111.773 E2.40354
G1 X106.548 Y116.044 E2.80706
G1 X106.311 Y115.524 F7800.000
G1 F1800
G1 X110.061 Y111.773 E3.16139
G1 X106.310 Y108.022 E3.51577
G1 X106.089 Y108.558 F7800.000
G1 F1800
G1 X109.304 Y111.773 E3.81954
G1 X106.089 Y114.988 E4.12327
G1 X105.953 Y114.367 F7800.000
G1 F1800
G1 X108.546 Y111.773 E4.36829
G1 X105.953 Y109.180 E4.61335
G1 X105.823 Y109.807 F7800.000
G1 F1800
G1 X107.789 Y111.773 E4.79911
G1 X105.823 Y113.739 E4.98484
G1 X105.715 Y113.090 F7800.000
G1 F1800
G1 X107.032 Y111.773 E5.10921
G1 X105.715 Y110.457 E5.23358
G1 X105.715 Y111.214 F7800.000
G1 F1800
G1 X106.274 Y111.773 E5.28638
G1 X105.715 Y112.332 E5.33918
G1 E3.33918 F2400.00000
G92 E0
G1 X106.908 Y116.594 F7800.000
G1 E2.00000 F2400.00000
G1 F1800
G1 X112.816 Y116.594 E2.39464
G1 X112.816 Y122.499 E2.78914
G1 X112.932 Y122.537 F7800.000
G1 F1800
G1 X117.636 Y117.833 E3.23354
G1 X121.921 Y122.118 E3.63837
G1 X121.921 Y116.058 E4.04320
G1 X127.981 Y116.058 E4.44803
G1 X123.696 Y111.773 E4.85286
G1 X127.981 Y107.488 E5.25769
G1 X121.921 Y107.488 E5.66252
G1 X121.921 Y101.428 E6.06735
G1 X117.636 Y105.713 E6.47218
G1 X113.351 Y101.428 E6.87701
G1 X113.351 Y107.488 E7.28184
G1 X107.291 Y107.488 E7.68667
G1 X111.576 Y111.773 E8.09150
G1 X107.291 Y116.058 E8.49633
G1 X113.351 Y116.058 E8.90116
G1 X113.351 Y121.361 E9.25538
G1 X117.636 Y117.076 E9.66021
G1 X121.386 Y120.825 E10.01444
G1 X121.386 Y115.523 E10.36866
G1 X126.688 Y115.523 E10.72289
G1 X122.939 Y111.773 E11.07712
G1 X126.688 Y108.024 E11.43134
G1 X121.386 Y108.024 E11.78557
G1 X121.386 Y102.722 E12.13980
G1 X117.636 Y106.471 E12.49402
G1 X113.887 Y102.722 E12.84825
G1 X113.887 Y108.024 E13.20247
G1 X108.585 Y108.024 E13.55670
G1 X112.334 Y111.773 E13.91093
G1 X108.585 Y115.523 E14.26515
G1 X113.887 Y115.523 E14.61938
G1 X113.887 Y120.067 E14.92300
G1 X117.636 Y116.318 E15.27723
G1 X120.850 Y119.532 E15.58085
G1 X120.850 Y114.987 E15.88447
G1 X125.395 Y114.987 E16.18809
G1 X122.181 Y111.773 E16.49172
G1 X125.395 Y108.560 E16.79534
G1 X120.850 Y108.560 E17.09896
G1 X120.850 Y104.015 E17.40258
G1 X117.636 Y107.228 E17.70621
G1 X114.423 Y104.015 E18.00983
G1 X114.423 Y108.560 E18.31345
G1 X109.878 Y108.560 E18.61707
G1 X113.091 Y111.773 E18.92070
G1 X109.878 Y114.987 E19.22432
G1 X114.423 Y114.987 E19.52794
G1 X114.423 Y118.774 E19.78096
G1 X117.636 Y115.561 E20.08458
G1 X120.314 Y118.239 E20.33760
G1 X120.314 Y114.451 E20.59062
G1 X124.102 Y114.451 E20.84364
G1 X121.424 Y111.773 E21.09666
G1 X124.102 Y109.095 E21.34968
G1 X120.314 Y109.095 E21.60269
G1 X120.314 Y105.308 E21.85571
G1 X117.636 Y107.986 E22.10873
G1 X114.958 Y105.308 E22.36175
G1 X114.958 Y109.095 E22.61477
G1 X111.171 Y109.095 E22.86779
G1 X113.849 Y111.773 E23.12081
G1 X111.171 Y114.451 E23.37383
G1 X114.958 Y114.451 E23.62684
G1 X114.958 Y117.481 E23.82926
G1 X117.636 Y114.803 E24.08228
G1 X119.779 Y116.946 E24.28469
G1 X119.779 Y113.916 E24.48711
G1 X122.809 Y113.916 E24.68952
G1 X120.666 Y111.773 E24.89194
G1 X122.809 Y109.631 E25.09435
G1 X119.779 Y109.631 E25.29677
G1 X119.779 Y106.601 E25.49918
G1 X117.636 Y108.743 E25.70160
G1 X115.494 Y106.601 E25.90401
G1 X115.494 Y109.631 E26.10643
G1 X112.464 Y109.631 E26.30884
G1 X114.606 Y111.773 E26.51126
G1 X112.464 Y113.916 E26.71367
G1 X115.494 Y113.916 E26.91609
G1 X115.494 Y116.188 E27.06790
G1 X117.636 Y114.046 E27.27031
G1 X119.243 Y115.653 E27.42212
G1 X119.243 Y113.380 E27.57394
G1 X121.516 Y113.380 E27.72575
G1 X119.909 Y111.773 E27.87756
G1 X121.516 Y110.166 E28.02937
G1 X119.243 Y110.166 E28.18118
G1 X119.243 Y107.894 E28.33299
G1 X117.636 Y109.501 E28.48480
G1 X116.029 Y107.894 E28.63661
G1 X116.029 Y110.166 E28.78843
G1 X113.757 Y110.166 E28.94024
G1 X115.364 Y111.773 E29.09205
G1 X113.757 Y113.380 E29.24386
G1 X116.029 Y113.380 E29.39567
G1 X116.029 Y114.895 E29.49688
G1 X117.636 Y113.288 E29.64869
G1 X118.707 Y114.359 E29.74990
G1 X118.707 Y112.845 E29.85110
G1 X120.222 Y112.845 E29.95231
G1 X119.151 Y111.773 E30.05352
G1 X120.222 Y110.702 E30.15473
G1 X118.707 Y110.702 E30.25593
G1 X118.707 Y109.187 E30.35714
