; generated by Slic3r 1.3.1-dev on 2021-01-16 at 13:59:48

; external perimeters extrusion width = 0.55mm (3.45mm^3/s)
; perimeters extrusion width = 0.70mm (8.98mm^3/s)
; infill extrusion width = 0.63mm (10.59mm^3/s)
; solid infill extrusion width = 0.70mm (2.99mm^3/s)
; top infill extrusion width = 0.70mm (2.24mm^3/s)

M107
M190 S60 ; set bed temperature and wait for it to be reached
M104 S200 ; set temperature
G28 ; home all axes
G1 Z5 F5000 ; lift nozzle

; Filament gcode

M109 S200 ; set temperature and wait for it to be reached
G21 ; set units to millimeters
G90 ; use absolute coordinates
M82 ; use absolute distances for extrusion
G92 E0
G92 E0
G1 Z0.300 F7800.000
G1 E-2.00000 F2400.00000
G92 E0
G1 X89.754 Y96.287 F7800.000
G1 E2.00000 F2400.00000
G1 F1800
G1 X91.503 Y94.828 E2.15217
G1 X94.750 Y93.964 E2.37660
G1 X125.250 Y93.964 E4.41417
G1 X127.493 Y94.361 E4.56634
G1 X129.463 Y95.504 E4.71851
G1 X130.922 Y97.253 E4.87068
G1 X131.786 Y100.500 E5.09511
G1 X131.786 Y115.000 E6.06379
G1 X131.389 Y117.243 E6.21596
G1 X130.246 Y119.213 E6.36813
G1 X128.497 Y120.672 E6.52030
G1 X127.019 Y121.292 E6.62730
G1 X111.019 Y125.792 E7.73766
G1 X109.250 Y126.036 E7.85699
G1 X94.750 Y126.036 E8.82567
G1 X92.507 Y125.639 E8.97784
G1 X90.537 Y124.496 E9.13001
G1 X89.078 Y122.747 E9.28218
G1 X88.214 Y119.500 E9.50661
G1 X88.214 Y100.500 E10.77591
G1 X88.611 Y98.257 E10.92809
G1 X89.716 Y96.351 E11.07525
G1 E9.07525 F2400.00000
G92 E0
G1 X122.588 Y113.838 F7800.000
G1 E2.00000 F2400.00000
G1 F1800
G1 X122.588 Y112.836 E2.06694
G1 X124.414 Y112.836 E2.18898
G1 X124.414 Y114.164 E2.27775
G1 X108.414 Y114.164 E3.34663
G1 X108.414 Y118.664 E3.64726
G1 X107.086 Y118.664 E3.73602
G1 X107.086 Y116.838 E3.85806
G1 X107.589 Y116.838 E3.89167
G1 X107.589 Y102.162 E4.87205
G1 X107.086 Y102.162 E4.90565
G1 X107.086 Y101.664 E4.93892
G1 X96.914 Y101.664 E5.61842
G1 X96.914 Y102.162 E5.65169
G1 X95.912 Y102.162 E5.71862
G1 X95.912 Y116.838 E6.69901
G1 X96.914 Y116.838 E6.76595
G1 X96.914 Y118.664 E6.88799
G1 X95.586 Y118.664 E6.97675
G1 X95.586 Y101.336 E8.13441
G1 X124.414 Y101.336 E10.06033
G1 X124.414 Y102.664 E10.14910
G1 X122.588 Y102.664 E10.27113
G1 X122.588 Y102.161 E10.30474
G1 X107.912 Y102.161 E11.28512
G1 X107.912 Y113.838 E12.06516
G1 X122.513 Y113.838 E13.04053
G1 X122.052 Y113.302 F7800.000
G1 F1800
G1 X122.052 Y112.300 E13.10747
G1 X124.950 Y112.300 E13.30107
G1 X124.950 Y114.700 E13.46141
G1 X108.950 Y114.700 E14.53029
G1 X108.950 Y119.200 E14.83092
G1 X106.550 Y119.200 E14.99125
G1 X106.550 Y116.302 E15.18485
G1 X107.053 Y116.302 E15.21845
G1 X107.053 Y102.698 E16.12728
G1 X106.550 Y102.698 E16.16088
G1 X106.550 Y102.200 E16.19415
G1 X97.450 Y102.200 E16.80208
G1 X97.450 Y102.698 E16.83535
G1 X96.448 Y102.698 E16.90228
G1 X96.448 Y116.302 E17.81111
G1 X97.450 Y116.302 E17.87804
G1 X97.450 Y119.200 E18.07165
G1 X95.050 Y119.200 E18.23198
G1 X95.050 Y100.800 E19.46120
G1 X124.950 Y100.800 E21.45868
G1 X124.950 Y103.200 E21.61901
G1 X122.052 Y103.200 E21.81262
G1 X122.052 Y102.697 E21.84622
G1 X108.448 Y102.697 E22.75504
G1 X108.448 Y113.302 E23.46351
G1 X121.977 Y113.302 E24.36732
G1 X122.540 Y113.411 F7800.000
G1 X123.010 Y113.163 F7800.000
G1 F1800
G1 X123.684 Y113.837 E24.43102
G1 E22.43102 F2400.00000
G92 E0
G1 X123.414 Y101.966 F7800.000
G1 E2.00000 F2400.00000
G1 F1800
G1 X124.173 Y101.966 E2.05075
G1 X123.146 Y101.894 F7800.000
G1 F1800
G1 X123.097 Y101.869 E2.05423
G1 F1800
G1 X123.000 Y101.821 E2.05988
G1 F1800
G1 X122.904 Y101.773 E2.06423
G1 F1800
G1 X122.855 Y101.749 E2.06577
G1 X107.645 Y101.749 E2.49978
G1 X107.514 Y101.895 E2.50536
G1 E0.50536 F2400.00000
G92 E0
G1 X96.647 Y101.749 F7800.000
G1 E2.00000 F2400.00000
G1 F1800
G1 X95.853 Y101.749 E2.02243
G1 E0.02243 F2400.00000
G92 E0
G1 X95.827 Y117.499 F7800.000
G1 E2.00000 F2400.00000
G1 F1800
G1 X96.673 Y117.499 E2.05657
G1 X96.673 Y118.034 F7800.000
G1 F1800
G1 X95.827 Y118.034 E2.11313
G1 E0.11313 F2400.00000
G92 E0
G1 X107.856 Y117.396 F7800.000
G1 E2.00000 F2400.00000
G1 F1800
G1 X107.905 Y117.299 E2.00696
G1 F1800
G1 X107.953 Y117.202 E2.01261
G1 F1800
G1 X108.001 Y117.105 E2.01696
G1 F1800
G1 X108.001 Y114.105 E2.10144
G1 Z0.530 F7800.000
G1 X107.604 Y116.853 F7800.000
G1 F900
G1 X107.604 Y113.853 E2.28809
G1 X108.399 Y113.853 E2.33759
G1 X108.399 Y118.649 E2.63603
G1 X107.101 Y118.649 E2.71683
G1 X107.101 Y116.853 E2.82861
G1 X107.529 Y116.853 E2.85524
G1 E0.85524 F2400.00000
G92 E0
G1 X96.899 Y116.853 F7800.000
G1 E2.00000 F2400.00000
G1 F900
G1 X96.899 Y118.649 E2.11179
G1 X95.601 Y118.649 E2.19259
G1 X95.601 Y116.853 E2.30437
G1 X96.824 Y116.853 E2.38051
G1 E0.38051 F2400.00000
G92 E0
G1 X96.899 Y102.147 F7800.000
G1 E2.00000 F2400.00000
G1 F900
G1 X95.601 Y102.147 E2.08080
G1 X95.601 Y101.351 E2.13037
G1 X96.899 Y101.351 E2.21117
G1 X96.899 Y102.072 E2.25607
G1 X122.603 Y102.146 F7800.000
G1 F900
G1 X107.101 Y102.147 E3.22055
G1 X107.101 Y101.351 E3.27012
G1 X124.399 Y101.351 E4.34638
G1 X124.399 Y102.649 E4.42718
G1 X122.603 Y102.649 E4.53897
G1 X122.603 Y102.221 E4.56559
G1 E2.56559 F2400.00000
G92 E0
G1 X122.603 Y112.851 F7800.000
G1 E2.00000 F2400.00000
G1 F900
G1 X124.399 Y112.851 E2.11179
G1 X124.399 Y114.149 E2.19259
G1 X122.603 Y114.149 E2.30437
G1 X122.603 Y112.926 E2.38051
G1 X122.027 Y113.277 F7800.000
G1 F1800
G1 X122.027 Y112.275 E2.42848
G1 X124.975 Y112.275 E2.56960
G1 X124.975 Y114.725 E2.68689
G1 X108.975 Y114.725 E3.45286
G1 X108.975 Y119.225 E3.66829
G1 X106.525 Y119.225 E3.78557
G1 X106.525 Y116.277 E3.92670
G1 X107.028 Y116.277 E3.95078
G1 X107.028 Y102.723 E4.59965
G1 X106.525 Y102.723 E4.62373
G1 X106.525 Y102.225 E4.64757
G1 X97.475 Y102.225 E5.08082
G1 X97.475 Y102.723 E5.10466
G1 X96.473 Y102.723 E5.15263
G1 X96.473 Y116.277 E5.80150
G1 X97.475 Y116.277 E5.84947
G1 X97.475 Y119.225 E5.99059
G1 X95.025 Y119.225 E6.10788
G1 X95.025 Y100.775 E6.99114
G1 X124.975 Y100.775 E8.42493
G1 X124.975 Y103.225 E8.54221
G1 X122.027 Y103.225 E8.68334
G1 X122.027 Y102.722 E8.70742
G1 X108.473 Y102.722 E9.35629
G1 X108.473 Y113.277 E9.86159
G1 X121.952 Y113.277 E10.50687
G1 X122.515 Y113.386 F7800.000
G1 X122.315 Y114.001 F7800.000
G1 F1200
G1 X108.687 Y114.001 E11.57933
G1 X108.001 Y114.178 F7800.000
G1 F1200
G1 X108.001 Y117.178 E11.62066
G1 X107.810 Y117.560 E11.62655
G1 F1200
G1 X107.428 Y118.324 E11.64622
G1 X107.750 Y113.565 F7800.000
G1 F1200
G1 X107.750 Y102.435 E12.51890
G1 X107.509 Y101.822 F7800.000
G1 F1200
G1 X107.572 Y101.749 E12.51981
G1 X122.928 Y101.749 E12.66477
G1 X123.310 Y101.940 E12.66880
G1 F1200
G1 X124.074 Y102.322 E12.68452
G1 X106.813 Y101.500 F7800.000
G1 F1200
G1 X97.187 Y101.500 E13.44388
G1 X96.574 Y101.749 F7800.000
G1 F1200
G1 X95.926 Y101.749 E13.44987
G1 X95.749 Y102.435 F7800.000
G1 F1200
G1 X95.749 Y116.565 E14.56184
G1 Z0.760 F7800.000
G1 E12.56184 F2400.00000
G92 E0
G1 X107.604 Y116.853 F7800.000
G1 E2.00000 F2400.00000
G1 F900
G1 X107.604 Y113.853 E2.18665
G1 X108.399 Y113.853 E2.23616
G1 X108.399 Y118.649 E2.53459
G1 X107.101 Y118.649 E2.61539
G1 X107.101 Y116.853 E2.72718
G1 X107.529 Y116.853 E2.75380
G1 E0.75380 F2400.00000
G92 E0
G1 X96.899 Y116.853 F7800.000
G1 E2.00000 F2400.00000
G1 F900
G1 X96.899 Y118.649 E2.11179
G1 X95.601 Y118.649 E2.19259
G1 X95.601 Y116.853 E2.30437
G1 X96.824 Y116.853 E2.38051
G1 E0.38051 F2400.00000
G92 E0
G1 X96.899 Y102.147 F7800.000
G1 E2.00000 F2400.00000
G1 F900
G1 X95.601 Y102.147 E2.08080
G1 X95.601 Y101.351 E2.13037
G1 X96.899 Y101.351 E2.21117
G1 X96.899 Y102.072 E2.25607
G1 X122.603 Y102.146 F7800.000
G1 F900
G1 X107.101 Y102.147 E3.22055
G1 X107.101 Y101.351 E3.27012
G1 X124.399 Y101.351 E4.34638
G1 X124.399 Y102.649 E4.42718
G1 X122.603 Y102.649 E4.53897
G1 X122.603 Y102.221 E4.56559
G1 E2.56559 F2400.00000
G92 E0
G1 X122.603 Y112.851 F7800.000
G1 E2.00000 F2400.00000
G1 F900
G1 X124.399 Y112.851 E2.11179
G1 X124.399 Y114.149 E2.19259
G1 X122.603 Y114.149 E2.30437
G1 X122.603 Y112.926 E2.38051
G1 X122.027 Y113.277 F7800.000
G1 F1800
G1 X122.027 Y112.275 E2.42848
G1 X124.975 Y112.275 E2.56960
G1 X124.975 Y114.725 E2.68689
G1 X108.975 Y114.725 E3.45286
G1 X108.975 Y119.225 E3.66829
G1 X106.525 Y119.225 E3.78557
G1 X106.525 Y116.277 E3.92670
G1 X107.028 Y116.277 E3.95078
G1 X107.028 Y102.723 E4.59965
G1 X106.525 Y102.723 E4.62373
G1 X106.525 Y102.225 E4.64757
G1 X97.475 Y102.225 E5.08082
G1 X97.475 Y102.723 E5.10466
G1 X96.473 Y102.723 E5.15263
G1 X96.473 Y116.277 E5.80150
G1 X97.475 Y116.277 E5.84947
G1 X97.475 Y119.225 E5.99059
G1 X95.025 Y119.225 E6.10788
G1 X95.025 Y100.775 E6.99114
G1 X124.975 Y100.775 E8.42493
G1 X124.975 Y103.225 E8.54221
G1 X122.027 Y103.225 E8.68334
G1 X122.027 Y102.722 E8.70742
G1 X108.473 Y102.722 E9.35629
G1 X108.473 Y113.277 E9.86159
G1 X121.952 Y113.277 E10.50687
G1 X122.515 Y113.386 F7800.000
G1 X122.315 Y114.001 F7800.000
G1 F1200
G1 X108.687 Y114.001 E11.57933
G1 X108.001 Y114.178 F7800.000
G1 F1200
G1 X108.001 Y117.178 E11.62066
G1 X107.810 Y117.560 E11.62655
G1 F1200
G1 X107.428 Y118.324 E11.64622
G1 X107.750 Y113.565 F7800.000
G1 F1200
G1 X107.750 Y102.435 E12.51890
G1 X107.509 Y101.822 F7800.000
G1 F1200
G1 X107.572 Y101.749 E12.51981
G1 X122.928 Y101.749 E12.66477
G1 X123.310 Y101.940 E12.66880
G1 F1200
G1 X124.074 Y102.322 E12.68452
G1 X106.813 Y101.500 F7800.000
G1 F1200
G1 X97.187 Y101.500 E13.44388
G1 X96.574 Y101.749 F7800.000
G1 F1200
G1 X95.926 Y101.749 E13.44987
G1 X95.749 Y102.435 F7800.000
G1 F1200
G1 X95.749 Y116.565 E14.56184
M106 S226.95
G1 Z0.990 F7800.000
G1 E12.56184 F2400.00000
G92 E0
G1 X107.604 Y116.853 F7800.000
G1 E2.00000 F2400.00000
G1 F900
G1 X107.604 Y113.853 E2.18665
G1 X108.399 Y113.853 E2.23616
G1 X108.399 Y118.649 E2.53459
G1 X107.101 Y118.649 E2.61539
G1 X107.101 Y116.853 E2.72718
G1 X107.529 Y116.853 E2.75380
G1 E0.75380 F2400.00000
G92 E0
G1 X96.899 Y116.853 F7800.000
G1 E2.00000 F2400.00000
G1 F900
G1 X96.899 Y118.649 E2.11179
G1 X95.601 Y118.649 E2.19259
G1 X95.601 Y116.853 E2.30437
G1 X96.824 Y116.853 E2.38051
G1 E0.38051 F2400.00000
G92 E0
G1 X96.899 Y102.147 F7800.000
G1 E2.00000 F2400.00000
G1 F900
G1 X95.601 Y102.147 E2.08080
G1 X95.601 Y101.351 E2.13037
G1 X96.899 Y101.351 E2.21117
G1 X96.899 Y102.072 E2.25607
G1 X122.603 Y102.146 F7800.000
G1 F900
G1 X107.101 Y102.147 E3.22055
G1 X107.101 Y101.351 E3.27012
G1 X124.399 Y101.351 E4.34638
G1 X124.399 Y102.649 E4.42718
G1 X122.603 Y102.649 E4.53897
G1 X122.603 Y102.221 E4.56559
G1 E2.56559 F2400.00000
G92 E0
G1 X122.603 Y112.851 F7800.000
G1 E2.00000 F2400.00000
G1 F900
G1 X124.399 Y112.851 E2.11179
G1 X124.399 Y114.149 E2.19259
G1 X122.603 Y114.149 E2.30437
G1 X122.603 Y112.926 E2.38051
G1 X122.027 Y113.277 F7800.000
G1 F1800
G1 X122.027 Y112.275 E2.42848
G1 X124.975 Y112.275 E2.56960
G1 X124.975 Y114.725 E2.68689
G1 X108.975 Y114.725 E3.45286
G1 X108.975 Y119.225 E3.66829
G1 X106.525 Y119.225 E3.78557
G1 X106.525 Y116.277 E3.92670
G1 X107.028 Y116.277 E3.95078
G1 X107.028 Y102.723 E4.59965
G1 X106.525 Y102.723 E4.62373
G1 X106.525 Y102.225 E4.64757
G1 X97.475 Y102.225 E5.08082
G1 X97.475 Y102.723 E5.10466
G1 X96.473 Y102.723 E5.15263
G1 X96.473 Y116.277 E5.80150
G1 X97.475 Y116.277 E5.84947
G1 X97.475 Y119.225 E5.99059
G1 X95.025 Y119.225 E6.10788
G1 X95.025 Y100.775 E6.99114
G1 X124.975 Y100.775 E8.42493
G1 X124.975 Y103.225 E8.54221
G1 X122.027 Y103.225 E8.68334
G1 X122.027 Y102.722 E8.70742
G1 X108.473 Y102.722 E9.35629
G1 X108.473 Y113.277 E9.86159
G1 X121.952 Y113.277 E10.50687
G1 X122.515 Y113.386 F7800.000
G1 X122.315 Y114.001 F7800.000
G1 F1200
G1 X108.687 Y114.001 E11.57933
G1 X108.001 Y114.178 F7800.000
G1 F1200
G1 X108.001 Y117.178 E11.62066
G1 X107.810 Y117.560 E11.62655
G1 F1200
G1 X107.428 Y118.324 E11.64622
G1 X107.750 Y113.565 F7800.000
G1 F1200
G1 X107.750 Y102.435 E12.51890
G1 X107.509 Y101.822 F7800.000
G1 F1200
G1 X107.572 Y101.749 E12.51981
G1 X122.928 Y101.749 E12.66477
G1 X123.310 Y101.940 E12.66880
G1 F1200
G1 X124.074 Y102.322 E12.68452
G1 X106.813 Y101.500 F7800.000
G1 F1200
G1 X97.187 Y101.500 E13.44388
G1 X96.574 Y101.749 F7800.000
G1 F1200
G1 X95.926 Y101.749 E13.44987
G1 X95.749 Y102.435 F7800.000
G1 F1200
G1 X95.749 Y116.565 E14.56184
G1 Z1.220 F7800.000
G1 E12.56184 F2400.00000
G92 E0
G1 X107.604 Y116.853 F7800.000
G1 E2.00000 F2400.00000
G1 F900
G1 X107.604 Y113.853 E2.18665
G1 X108.399 Y113.853 E2.23616
G1 X108.399 Y118.649 E2.53459
G1 X107.101 Y118.649 E2.61539
G1 X107.101 Y116.853 E2.72718
G1 X107.529 Y116.853 E2.75380
G1 E0.75380 F2400.00000
G92 E0
G1 X96.899 Y116.853 F7800.000
G1 E2.00000 F2400.00000
G1 F900
G1 X96.899 Y118.649 E2.11179
G1 X95.601 Y118.649 E2.19259
G1 X95.601 Y116.853 E2.30437
G1 X96.824 Y116.853 E2.38051
G1 E0.38051 F2400.00000
G92 E0
G1 X96.899 Y102.147 F7800.000
G1 E2.00000 F2400.00000
G1 F900
G1 X95.601 Y102.147 E2.08080
G1 X95.601 Y101.351 E2.13037
G1 X96.899 Y101.351 E2.21117
G1 X96.899 Y102.072 E2.25607
G1 X122.603 Y102.146 F7800.000
G1 F900
G1 X107.101 Y102.147 E3.22055
G1 X107.101 Y101.351 E3.27012
G1 X124.399 Y101.351 E4.34638
G1 X124.399 Y102.649 E4.42718
G1 X122.603 Y102.649 E4.53897
G1 X122.603 Y102.221 E4.56559
G1 E2.56559 F2400.00000
G92 E0
G1 X122.603 Y112.851 F7800.000
G1 E2.00000 F2400.00000
G1 F900
G1 X124.399 Y112.851 E2.11179
G1 X124.399 Y114.149 E2.19259
G1 X122.603 Y114.149 E2.30437
G1 X122.603 Y112.926 E2.38051
G1 X122.027 Y113.277 F7800.000
G1 F1800
G1 X122.027 Y112.275 E2.42848
G1 X124.975 Y112.275 E2.56960
G1 X124.975 Y114.725 E2.68689
G1 X108.975 Y114.725 E3.45286
G1 X108.975 Y119.225 E3.66829
G1 X106.525 Y119.225 E3.78557
G1 X106.525 Y116.277 E3.92670
G1 X107.028 Y116.277 E3.95078
G1 X107.028 Y102.723 E4.59965
G1 X106.525 Y102.723 E4.62373
G1 X106.525 Y102.225 E4.64757
G1 X97.475 Y102.225 E5.08082
G1 X97.475 Y102.723 E5.10466
G1 X96.473 Y102.723 E5.15263
G1 X96.473 Y116.277 E5.80150
G1 X97.475 Y116.277 E5.84947
G1 X97.475 Y119.225 E5.99059
G1 X95.025 Y119.225 E6.10788
G1 X95.025 Y100.775 E6.99114
G1 X124.975 Y100.775 E8.42493
G1 X124.975 Y103.225 E8.54221
G1 X122.027 Y103.225 E8.68334
G1 X122.027 Y102.722 E8.70742
G1 X108.473 Y102.722 E9.35629
G1 X108.473 Y113.277 E9.86159
G1 X121.952 Y113.277 E10.50687
G1 X122.515 Y113.386 F7800.000
G1 X122.315 Y114.001 F7800.000
G1 F1200
G1 X108.687 Y114.001 E11.57933
G1 X108.001 Y114.178 F7800.000
G1 F1200
G1 X108.001 Y117.178 E11.62066
G1 X107.810 Y117.560 E11.62655
G1 F1200
G1 X107.428 Y118.324 E11.64622
G1 X107.750 Y113.565 F7800.000
G1 F1200
G1 X107.750 Y102.435 E12.51890
G1 X107.509 Y101.822 F7800.000
G1 F1200
G1 X107.572 Y101.749 E12.51981
G1 X122.928 Y101.749 E12.66477
G1 X123.310 Y101.940 E12.66880
G1 F1200
G1 X124.074 Y102.322 E12.68452
G1 X106.813 Y101.500 F7800.000
G1 F1200
G1 X97.187 Y101.500 E13.44388
G1 X96.574 Y101.749 F7800.000
G1 F1200
G1 X95.926 Y101.749 E13.44987
G1 X95.749 Y102.435 F7800.000
G1 F1200
G1 X95.749 Y116.565 E14.56184
G1 Z1.450 F7800.000
G1 E12.56184 F2400.00000
G92 E0
G1 X107.604 Y116.853 F7800.000
G1 E2.00000 F2400.00000
G1 F900
G1 X107.604 Y113.853 E2.18665
G1 X108.399 Y113.853 E2.23616
G1 X108.399 Y118.649 E2.53459
G1 X107.101 Y118.649 E2.61539
G1 X107.101 Y116.853 E2.72718
G1 X107.529 Y116.853 E2.75380
G1 E0.75380 F2400.00000
G92 E0
G1 X96.899 Y116.853 F7800.000
G1 E2.00000 F2400.00000
G1 F900
G1 X96.899 Y118.649 E2.11179
G1 X95.601 Y118.649 E2.19259
G1 X95.601 Y116.853 E2.30437
G1 X96.824 Y116.853 E2.38051
G1 E0.38051 F2400.00000
G92 E0
G1 X96.899 Y102.147 F7800.000
G1 E2.00000 F2400.00000
G1 F900
G1 X95.601 Y102.147 E2.08080
G1 X95.601 Y101.351 E2.13037
