; generated by Slic3r 1.3.1-dev on 2020-12-19 at 14:27:21

; external perimeters extrusion width = 0.55mm (3.45mm^3/s)
; perimeters extrusion width = 0.70mm (8.98mm^3/s)
; infill extrusion width = 0.63mm (10.59mm^3/s)
; solid infill extrusion width = 0.70mm (2.99mm^3/s)
; top infill extrusion width = 0.70mm (2.24mm^3/s)

M107
M190 S60 ; set bed temperature and wait for it to be reached
M104 S200 ; set temperature
G28 ; home all axes
G1 Z5 F5000 ; lift nozzle

; Filament gcode

M109 S200 ; set temperature and wait for it to be reached
G21 ; set units to millimeters
G90 ; use absolute coordinates
M82 ; use absolute distances for extrusion
G92 E0
G92 E0
G1 Z0.300 F7800.000
G1 E-2.00000 F2400.00000
G92 E0
G1 X89.396 Y101.218 F7800.000
G1 E2.00000 F2400.00000
G1 F1800
G1 X93.090 Y98.755 E2.29656
G1 X93.571 Y98.459 E2.33428
G1 X94.438 Y98.011 E2.39951
G1 X95.282 Y97.664 E2.46047
G1 X96.180 Y97.380 E2.52340
G1 X97.088 Y97.176 E2.58557
G1 X97.974 Y97.054 E2.64526
G1 X98.976 Y97.003 E2.71228
G1 X117.697 Y97.003 E3.96295
G1 X118.673 Y97.052 E4.02825
G1 X119.561 Y97.173 E4.08816
G1 X120.467 Y97.373 E4.15012
G1 X121.439 Y97.682 E4.21828
G1 X122.433 Y98.105 E4.29043
G1 X123.367 Y98.619 E4.36165
G1 X127.275 Y101.218 E4.67516
G1 X128.920 Y102.793 E4.82733
G1 X130.120 Y105.757 E5.04095
G1 X130.856 Y111.077 E5.39973
G1 X130.923 Y111.749 E5.44486
G1 X130.934 Y112.706 E5.50880
G1 X130.889 Y113.359 E5.55253
G1 X130.747 Y114.263 E5.61364
G1 X130.468 Y115.437 E5.69430
G1 X130.041 Y116.588 E5.77626
G1 X128.790 Y119.188 E5.96904
G1 X128.461 Y119.788 E6.01471
G1 X127.962 Y120.577 E6.07709
G1 X127.588 Y121.102 E6.12017
G1 X125.659 Y123.539 E6.32784
G1 X125.146 Y124.114 E6.37931
G1 X124.292 Y124.923 E6.45786
G1 X123.384 Y125.675 E6.53664
G1 X122.824 Y126.085 E6.58296
G1 X121.615 Y126.856 E6.67878
G1 X120.988 Y127.198 E6.72649
G1 X120.390 Y127.485 E6.77084
G1 X119.862 Y127.709 E6.80911
G1 X118.991 Y128.035 E6.87125
G1 X118.360 Y128.235 E6.91546
G1 X117.812 Y128.379 E6.95337
G1 X116.957 Y128.544 E7.01149
G1 X115.098 Y128.766 E7.13660
G1 X114.414 Y128.802 E7.18236
G1 X101.927 Y128.786 E8.01653
G1 X101.197 Y128.736 E8.06543
G1 X99.787 Y128.560 E8.16034
G1 X98.832 Y128.368 E8.22544
G1 X98.039 Y128.146 E8.28047
G1 X97.325 Y127.901 E8.33085
G1 X96.084 Y127.390 E8.42051
G1 X95.589 Y127.155 E8.45715
G1 X94.376 Y126.435 E8.55136
G1 X93.790 Y126.032 E8.59891
G1 X92.714 Y125.202 E8.68965
G1 X92.265 Y124.822 E8.72894
G1 X91.501 Y124.088 E8.79972
G1 X91.004 Y123.526 E8.84986
G1 X89.048 Y121.047 E9.06084
G1 X88.686 Y120.540 E9.10241
G1 X88.204 Y119.778 E9.16269
G1 X87.946 Y119.325 E9.19746
G1 X86.960 Y117.419 E9.34082
G1 X86.595 Y116.570 E9.40259
G1 X86.256 Y115.599 E9.47133
G1 X85.996 Y114.617 E9.53918
G1 X85.821 Y113.630 E9.60615
G1 X85.742 Y112.247 E9.69869
G1 X85.795 Y111.332 E9.75991
G1 X85.839 Y110.929 E9.78700
G1 X86.550 Y105.762 E10.13542
G1 X87.250 Y103.594 E10.28759
G1 X89.346 Y101.273 E10.49653
G1 E8.49653 F2400.00000
G92 E0
G1 X115.721 Y121.807 F7800.000
G1 E2.00000 F2400.00000
G1 F1800
G1 X114.401 Y121.966 E2.08881
G1 X113.058 Y121.926 E2.17858
G1 X113.396 Y121.418 E2.21936
G1 X113.601 Y121.161 E2.24129
G1 X113.818 Y120.942 E2.26192
G1 X114.011 Y120.787 E2.27843
G1 X114.183 Y120.697 E2.29141
G1 X114.330 Y120.654 E2.30163
G1 X114.443 Y120.655 E2.30916
G1 X114.572 Y120.693 E2.31815
G1 X114.715 Y120.778 E2.32927
G1 X114.937 Y120.951 E2.34807
G1 X115.186 Y121.183 E2.37077
G1 X115.672 Y121.750 E2.42071
G1 X115.231 Y121.709 F7800.000
G1 E0.42071 F2400.00000
G92 E0
G1 X114.095 Y119.301 F7800.000
G1 E2.00000 F2400.00000
G1 F1800
G1 X113.169 Y119.821 E2.07093
G1 X112.856 Y119.966 E2.09396
G1 X112.699 Y119.993 E2.10463
G1 X112.623 Y119.970 E2.10996
G1 X112.504 Y119.857 E2.12089
G1 X112.394 Y119.686 E2.13450
G1 X112.273 Y119.415 E2.15430
G1 X112.171 Y119.094 E2.17678
G1 X112.087 Y118.653 E2.20684
G1 X113.621 Y119.017 E2.31219
G1 X114.051 Y119.074 E2.34116
G1 X114.081 Y119.228 E2.35164
G1 X113.601 Y119.382 F7800.000
G1 E0.35164 F2400.00000
G92 E0
G1 X111.922 Y120.978 F7800.000
G1 E2.00000 F2400.00000
G1 F1800
G1 X112.305 Y121.880 E2.06550
G1 X111.030 Y121.787 E2.15091
G1 X111.566 Y121.250 E2.20158
G1 X111.862 Y121.023 E2.22652
G1 X111.917 Y121.478 F7800.000
G1 X110.199 Y121.726 F7800.000
G1 F1800
G1 X108.661 Y121.655 E2.32938
G1 X108.765 Y121.329 E2.35229
G1 X108.860 Y121.125 E2.36731
G1 X108.972 Y120.955 E2.38091
G1 X109.153 Y120.767 E2.39835
G1 X109.400 Y120.591 E2.41858
G1 X109.471 Y120.820 E2.43457
G1 X109.609 Y121.022 E2.45096
G1 X109.830 Y121.108 E2.46679
G1 X110.059 Y121.118 E2.48212
G1 X110.160 Y121.448 E2.50515
G1 X110.188 Y121.652 E2.51892
G1 X109.849 Y121.537 F7800.000
G1 E0.51892 F2400.00000
G92 E0
G1 X107.799 Y121.659 F7800.000
G1 E2.00000 F2400.00000
G1 F1800
G1 X107.198 Y121.676 E2.04020
G1 X106.194 Y121.746 E2.10744
G1 X106.382 Y121.414 E2.13297
G1 X106.661 Y121.063 E2.16290
G1 X106.871 Y120.895 E2.18090
G1 X106.983 Y120.858 E2.18874
G1 X107.079 Y120.878 E2.19534
G1 X107.257 Y120.999 E2.20972
G1 X107.591 Y121.358 E2.24246
G1 X107.756 Y121.597 E2.26187
G1 X107.318 Y121.523 F7800.000
G1 E0.26187 F2400.00000
G92 E0
G1 X105.396 Y121.802 F7800.000
G1 E2.00000 F2400.00000
G1 F1800
G1 X103.673 Y121.924 E2.11536
G1 X103.915 Y121.008 E2.17864
G1 X104.061 Y120.625 E2.20601
G1 X104.234 Y120.318 E2.22956
G1 X104.515 Y120.718 E2.26222
G1 X104.996 Y121.206 E2.30801
G1 X105.141 Y121.378 E2.32301
G1 X105.357 Y121.738 E2.35108
G1 X104.915 Y121.664 F7800.000
G1 E0.35108 F2400.00000
G92 E0
G1 X104.139 Y118.981 F7800.000
G1 E2.00000 F2400.00000
G1 F1800
G1 X103.852 Y119.316 E2.02942
G1 X103.639 Y119.529 E2.04954
G1 X103.159 Y119.944 E2.09195
G1 X102.887 Y120.145 E2.11454
G1 X102.632 Y120.307 E2.13471
G1 X102.445 Y120.398 E2.14864
G1 X102.254 Y120.116 E2.17141
G1 X102.072 Y119.899 E2.19034
G1 X101.730 Y119.613 E2.22013
G1 X101.183 Y119.232 E2.26463
G1 X102.708 Y119.078 E2.36700
G1 X104.019 Y118.783 E2.45679
G1 X104.100 Y118.917 E2.46727
G1 X103.775 Y119.229 F7800.000
G1 E0.46727 F2400.00000
G92 E0
G1 X102.476 Y121.132 F7800.000
G1 E2.00000 F2400.00000
G1 F1800
G1 X102.664 Y121.959 E2.05663
G1 X102.028 Y121.951 E2.09909
G1 X101.243 Y121.843 E2.15205
G1 X101.704 Y121.499 E2.19051
G1 X102.062 Y121.105 E2.22604
G1 X102.168 Y121.036 E2.23448
G1 X102.363 Y120.973 E2.24817
G1 X102.432 Y121.071 E2.25620
G1 X102.409 Y121.279 F7800.000
G1 E0.25620 F2400.00000
G92 E0
G1 X100.323 Y121.687 F7800.000
G1 E2.00000 F2400.00000
G1 F1800
G1 X99.901 Y121.569 E2.02927
G1 X99.260 Y121.304 E2.07558
G1 X99.883 Y120.841 E2.12743
G1 X100.288 Y121.620 E2.18611
G1 X99.904 Y121.558 F7800.000
G1 X99.084 Y120.276 F7800.000
G1 F1800
G1 X98.601 Y119.346 E2.25613
G1 X98.405 Y118.858 E2.29122
G1 X99.256 Y119.138 E2.35102
G1 X100.506 Y119.227 E2.43477
G1 X99.145 Y120.231 E2.54779
G1 X98.951 Y119.794 F7800.000
G1 E0.54779 F2400.00000
G92 E0
G1 X97.722 Y118.568 F7800.000
G1 E2.00000 F2400.00000
G1 F1800
G1 X97.609 Y118.844 E2.01991
G1 X97.534 Y118.968 E2.02962
G1 X97.412 Y119.084 E2.04087
G1 X97.219 Y119.182 E2.05528
G1 X96.459 Y119.431 E2.10872
G1 X96.205 Y117.874 E2.21410
G1 X96.192 Y117.411 E2.24506
G1 X96.974 Y118.110 E2.31515
G1 X97.658 Y118.529 E2.36871
G1 X97.471 Y118.730 F7800.000
G1 E0.36871 F2400.00000
G92 E0
G1 X105.938 Y118.814 F7800.000
G1 E2.00000 F2400.00000
G1 F1800
G1 X106.811 Y118.532 E2.06127
G1 X107.170 Y118.383 E2.08726
G1 X106.875 Y119.083 E2.13800
G1 X106.679 Y119.405 E2.16317
G1 X106.558 Y119.532 E2.17489
G1 X106.378 Y119.396 E2.18997
G1 X106.207 Y119.211 E2.20677
G1 X105.980 Y118.876 E2.23383
G1 X105.204 Y118.487 F7800.000
G1 F1800
G1 X106.626 Y118.029 E2.33365
G1 X107.924 Y117.492 E2.42751
G1 X107.693 Y118.419 E2.49137
G1 X107.536 Y118.894 E2.52480
G1 X107.359 Y119.314 E2.55521
G1 X107.244 Y119.528 E2.57144
G1 X107.096 Y119.744 E2.58893
G1 X106.940 Y119.907 E2.60400
G1 X106.834 Y119.979 E2.61261
G1 X106.651 Y120.046 E2.62560
G1 X106.466 Y120.048 E2.63799
G1 X106.240 Y119.963 E2.65410
G1 X106.017 Y119.795 E2.67271
G1 X105.786 Y119.545 E2.69545
G1 X105.538 Y119.178 E2.72504
G1 X105.348 Y118.823 E2.75199
G1 X105.234 Y118.556 E2.77134
G1 X105.697 Y118.570 F7800.000
G1 E0.77134 F2400.00000
G92 E0
G1 X109.705 Y118.478 F7800.000
G1 E2.00000 F2400.00000
G1 F1800
G1 X110.349 Y118.689 E2.04531
G1 X109.913 Y119.050 E2.08313
G1 X109.730 Y118.548 E2.11885
G1 X109.566 Y119.835 F7800.000
G1 F1800
G1 X109.430 Y119.289 E2.15644
G1 X109.344 Y119.053 E2.17322
G1 X109.221 Y118.914 E2.18567
G1 X109.021 Y118.778 E2.20181
G1 X108.940 Y118.636 E2.21272
G1 X108.802 Y118.149 E2.24651
G1 X108.701 Y117.474 E2.29213
G1 X109.964 Y117.999 E2.38352
G1 X111.293 Y118.435 E2.47695
G1 X110.950 Y118.847 E2.51277
G1 X110.699 Y119.094 E2.53626
G1 X110.330 Y119.401 E2.56833
G1 X110.014 Y119.614 E2.59382
G1 X109.634 Y119.802 E2.62213
G1 X109.660 Y119.344 F7800.000
G1 E0.62213 F2400.00000
G92 E0
G1 X115.800 Y119.225 F7800.000
G1 E2.00000 F2400.00000
G1 F1800
G1 X116.985 Y119.204 E2.07917
G1 X117.435 Y119.099 E2.11002
G1 X117.165 Y119.466 E2.14045
G1 X116.897 Y119.913 E2.17531
G1 X116.666 Y120.365 E2.20923
G1 X116.364 Y120.046 E2.23861
G1 X116.187 Y119.820 E2.25772
G1 X115.839 Y119.290 E2.30014
G1 X116.275 Y119.382 F7800.000
G1 X116.862 Y120.724 F7800.000
G1 F1800
G1 X117.476 Y121.004 E2.34521
G1 X117.699 Y121.194 E2.36483
G1 X117.454 Y121.311 E2.38299
G1 X116.866 Y121.531 E2.42495
G1 X116.804 Y121.215 E2.44649
G1 X116.853 Y120.798 E2.47451
G1 X117.208 Y121.085 F7800.000
G1 E0.47451 F2400.00000
G92 E0
G1 X118.600 Y118.719 F7800.000
G1 E2.00000 F2400.00000
G1 F1800
G1 X119.580 Y118.195 E2.07425
G1 X120.492 Y117.451 E2.15288
G1 X120.466 Y118.150 E2.19958
G1 X120.221 Y119.368 E2.28262
G1 X119.979 Y119.602 E2.30513
G1 X119.677 Y119.511 E2.32621
G1 X119.323 Y119.356 E2.35199
G1 X118.773 Y118.962 E2.39719
G1 X118.643 Y118.780 E2.41215
G1 X119.098 Y118.676 F7800.000
G1 E0.41215 F2400.00000
G92 E0
G1 X121.179 Y116.685 F7800.000
G1 E2.00000 F2400.00000
G1 F1800
G1 X121.799 Y115.944 E2.06459
G1 X122.389 Y115.110 E2.13281
G1 X122.575 Y115.767 E2.17844
G1 X122.567 Y116.319 E2.21532
G1 X122.281 Y116.772 E2.25107
G1 X122.092 Y116.884 E2.26575
G1 X121.893 Y116.964 E2.28012
G1 X121.787 Y116.980 E2.28727
G1 X121.679 Y116.971 E2.29448
G1 X121.533 Y116.921 E2.30482
G1 X121.410 Y116.856 E2.31410
G1 X121.239 Y116.730 E2.32828
G1 X121.642 Y116.496 F7800.000
G1 X121.604 Y116.656 F7800.000
G1 F1800
G1 X121.774 Y116.585 E2.33278
G1 X122.253 Y116.316 E2.34618
G1 X122.305 Y115.953 F7800.000
G1 F1800
G1 X121.962 Y116.444 E2.36496
G1 X121.676 Y116.687 E2.37671
G1 E0.37671 F2400.00000
G92 E0
G1 X120.199 Y118.108 F7800.000
G1 E2.00000 F2400.00000
G1 F1800
G1 X119.504 Y119.143 E2.06630
G1 E0.06630 F2400.00000
G92 E0
G1 X116.561 Y119.479 F7800.000
G1 E2.00000 F2400.00000
G1 F1800
G1 X116.595 Y119.907 E2.00675
G1 E0.00675 F2400.00000
G92 E0
G1 X112.867 Y119.113 F7800.000
G1 E2.00000 F2400.00000
G1 F1800
G1 X112.744 Y119.718 E2.00237
G1 E0.00237 F2400.00000
G92 E0
G1 X109.498 Y118.778 F7800.000
G1 E2.00000 F2400.00000
G1 F1800
G1 X109.083 Y118.159 E2.00354
G1 X109.131 Y117.943 F7800.000
G1 F1800
G1 X109.298 Y118.486 E2.01557
G1 X109.405 Y118.718 E2.02099
G1 E0.02099 F2400.00000
G92 E0
G1 X109.119 Y121.218 F7800.000
G1 E2.00000 F2400.00000
G1 F1800
G1 X109.403 Y121.325 E2.00432
G1 X109.520 Y121.349 E2.00602
G1 F1800
G1 X109.753 Y121.397 E2.00731
G1 E0.00731 F2400.00000
G92 E0
G1 X104.394 Y121.604 F7800.000
G1 E2.00000 F2400.00000
G1 F1800
G1 X104.266 Y120.840 E2.00163
G1 X103.561 Y119.228 F7800.000
G1 F1800
G1 X102.322 Y119.780 E2.07168
G1 E0.07168 F2400.00000
G92 E0
G1 X97.376 Y118.706 F7800.000
G1 E2.00000 F2400.00000
G1 F1800
G1 X96.629 Y118.785 E2.02053
G1 X97.041 Y118.958 F7800.000
G1 F1800
G1 X96.509 Y118.107 E2.05238
G1 E0.05238 F2400.00000
G92 E0
G1 X112.758 Y116.058 F7800.000
G1 E2.00000 F2400.00000
G1 F1800
G1 X112.804 Y116.075 E2.00534
G1 F1800
G1 X112.850 Y116.093 E2.01012
G1 F1800
G1 X112.896 Y116.110 E2.01434
G1 F1800
G1 X112.942 Y116.127 E2.01799
G1 F1800
G1 X112.988 Y116.145 E2.02108
G1 F1800
G1 X114.507 Y116.398 E2.10405
G1 X115.064 Y116.584 E2.13568
G1 X115.612 Y116.807 E2.16753
G1 X116.698 Y117.484 E2.23646
G1 E0.23646 F2400.00000
G92 E0
G1 X115.370 Y115.255 F7800.000
G1 E2.00000 F2400.00000
G1 F1800
G1 X115.412 Y115.279 E2.00528
G1 F1800
G1 X115.454 Y115.303 E2.01000
G1 F1800
G1 X115.496 Y115.327 E2.01415
G1 F1800
G1 X115.538 Y115.351 E2.01775
G1 F1800
G1 X115.580 Y115.374 E2.02078
G1 F1800
G1 X116.727 Y115.519 E2.08268
G1 X117.289 Y115.679 E2.11397
G1 X117.858 Y115.930 E2.14727
G1 X119.199 Y116.668 E2.22923
G1 E0.22923 F2400.00000
G92 E0
G1 X123.293 Y114.147 F7800.000
G1 E2.00000 F2400.00000
G1 F1800
G1 X123.104 Y113.976 E2.01699
G1 X123.711 Y112.880 E2.10071
G1 X123.796 Y112.689 E2.11468
G1 X124.073 Y112.782 E2.13420
G1 X123.894 Y113.544 E2.18646
G1 X123.526 Y113.955 E2.22333
G1 X123.355 Y114.105 E2.23854
G1 X123.227 Y113.902 F7800.000
G1 E0.23854 F2400.00000
G92 E0
G1 X120.479 Y108.458 F7800.000
G1 E2.00000 F2400.00000
G1 F1800
G1 X120.221 Y108.396 E2.01772
G1 X120.233 Y108.116 E2.03644
G1 X120.724 Y107.914 E2.07193
G1 X120.510 Y108.389 E2.10673
G1 X119.721 Y107.532 F7800.000
G1 F1800
G1 X120.165 Y107.565 E2.13648
G1 X121.038 Y107.204 E2.19959
G1 X121.213 Y107.002 E2.21743
G1 X122.139 Y107.455 E2.28630
G1 X121.819 Y107.801 E2.31776
G1 X121.049 Y108.497 E2.38710
G1 X120.749 Y109.162 E2.43585
G1 X120.472 Y109.581 E2.46939
G1 X120.120 Y109.988 E2.50535
G1 X119.724 Y110.367 E2.54202
G1 X119.320 Y110.687 E2.57639
G1 X119.520 Y109.787 E2.63794
G1 X119.676 Y108.622 E2.71645
G1 X119.718 Y107.607 E2.78436
G1 X119.135 Y106.816 F7800.000
G1 F1800
G1 X119.392 Y106.970 E2.80435
G1 X120.078 Y107.021 E2.85034
G1 X120.715 Y106.758 E2.89639
G1 X121.245 Y106.144 E2.95056
G1 X121.401 Y106.475 E2.97499
G1 X121.528 Y106.560 E2.98520
G1 X122.208 Y106.893 E3.03575
G1 X123.108 Y107.085 E3.09725
G1 X122.736 Y107.598 E3.13959
G1 X122.196 Y108.182 E3.19273
G1 X121.491 Y108.819 E3.25620
G1 X121.220 Y109.421 E3.30035
G1 X120.900 Y109.905 E3.33907
G1 X120.509 Y110.357 E3.37902
G1 X120.076 Y110.772 E3.41907
G1 X119.651 Y111.108 E3.45526
G1 X119.161 Y111.405 E3.49355
G1 X118.488 Y111.667 E3.54176
G1 X118.729 Y110.877 E3.59690
G1 X118.993 Y109.694 E3.67791
G1 X119.141 Y108.576 E3.75325
G1 X119.180 Y107.647 E3.81536
G1 X119.139 Y106.891 E3.86593
G1 X119.325 Y107.047 F7800.000
G1 X120.884 Y106.117 F7800.000
G1 F1800
G1 X121.152 Y105.593 E3.88042
G1 X121.087 Y105.432 E3.88469
G1 F1800
G1 X121.039 Y105.324 E3.88665
G1 X120.085 Y104.358 F7800.000
G1 F1800
G1 X119.803 Y104.245 E3.89186
G1 F1800
G1 X119.777 Y104.241 E3.89252
G1 X119.517 Y104.377 E3.89980
G1 X118.870 Y104.881 F7800.000
G1 F1800
G1 X118.534 Y105.368 E3.91074
G1 X118.650 Y104.675 F7800.000
G1 F1800
G1 X118.216 Y103.871 E3.97179
G1 X118.696 Y103.976 E4.00458
G1 X119.228 Y104.154 E4.04208
G1 X118.705 Y104.625 E4.08912
G1 X118.498 Y104.199 F7800.000
G1 E2.08912 F2400.00000
G92 E0
G1 X122.365 Y107.232 F7800.000
G1 E2.00000 F2400.00000
G1 F1800
G1 X122.609 Y107.317 E2.00153
G1 E0.00153 F2400.00000
G92 E0
G1 X114.674 Y107.364 F7800.000
G1 E2.00000 F2400.00000
G1 F1800
G1 X114.639 Y108.228 E2.05777
G1 X114.796 Y109.847 E2.16640
G1 X114.221 Y109.590 E2.20847
G1 X114.126 Y109.522 E2.21634
G1 X114.053 Y109.374 E2.22736
G1 X114.002 Y109.042 E2.24975
G1 X114.007 Y108.775 E2.26762
G1 X114.052 Y108.431 E2.29076
G1 X114.140 Y108.053 E2.31671
G1 X114.354 Y107.439 E2.36017
G1 X114.416 Y107.303 E2.37014
G1 X114.601 Y107.347 E2.38280
G1 E0.38280 F2400.00000
G92 E0
G1 X115.477 Y105.359 F7800.000
G1 E2.00000 F2400.00000
