; generated by Slic3r 1.3.1-dev on 2020-12-19 at 11:41:49

; external perimeters extrusion width = 0.55mm (3.45mm^3/s)
; perimeters extrusion width = 0.70mm (8.98mm^3/s)
; infill extrusion width = 0.63mm (10.59mm^3/s)
; solid infill extrusion width = 0.70mm (2.99mm^3/s)
; top infill extrusion width = 0.70mm (2.24mm^3/s)

M107
M190 S60 ; set bed temperature and wait for it to be reached
M104 S200 ; set temperature
G28 ; home all axes
G1 Z5 F5000 ; lift nozzle

; Filament gcode

M109 S200 ; set temperature and wait for it to be reached
G21 ; set units to millimeters
G90 ; use absolute coordinates
M82 ; use absolute distances for extrusion
G92 E0
G92 E0
G1 Z0.300 F7800.000
G1 E-2.00000 F2400.00000
G92 E0
G1 X97.506 Y86.341 F7800.000
G1 E2.00000 F2400.00000
G1 F1800
G1 X98.713 Y85.134 E2.11403
G1 X101.916 Y82.677 E2.38371
G1 X102.627 Y82.203 E2.44079
G1 X103.009 Y81.982 E2.47028
G1 X103.775 Y81.604 E2.52734
G1 X107.504 Y80.060 E2.79700
G1 X109.152 Y79.618 E2.91097
G1 X113.155 Y79.091 E3.18068
G1 X114.008 Y79.035 E3.23782
G1 X114.450 Y79.035 E3.26731
G1 X115.303 Y79.091 E3.32446
G1 X119.305 Y79.618 E3.59411
G1 X120.952 Y80.059 E3.70803
G1 X124.683 Y81.604 E3.97775
G1 X125.449 Y81.982 E4.03487
G1 X125.832 Y82.203 E4.06436
G1 X126.543 Y82.678 E4.12148
G1 X129.745 Y85.135 E4.39111
G1 X130.951 Y86.341 E4.50508
G1 X133.409 Y89.544 E4.77479
G1 X133.884 Y90.255 E4.83192
G1 X134.105 Y90.638 E4.86141
G1 X134.483 Y91.404 E4.91854
G1 X136.028 Y95.135 E5.18826
G1 X136.469 Y96.782 E5.30218
G1 X136.996 Y100.783 E5.57183
G1 X137.052 Y101.637 E5.62898
G1 X137.052 Y102.079 E5.65847
G1 X136.996 Y102.932 E5.71562
G1 X136.469 Y106.934 E5.98527
G1 X136.028 Y108.581 E6.09919
G1 X134.483 Y112.311 E6.36891
G1 X134.105 Y113.078 E6.42604
G1 X133.884 Y113.461 E6.45553
G1 X133.408 Y114.172 E6.51272
G1 X130.950 Y117.374 E6.78238
G1 X129.746 Y118.579 E6.89621
G1 X126.544 Y121.037 E7.16588
G1 X125.832 Y121.512 E7.22302
G1 X125.450 Y121.733 E7.25251
G1 X124.683 Y122.112 E7.30969
G1 X120.952 Y123.657 E7.57941
G1 X119.304 Y124.098 E7.69343
G1 X115.302 Y124.624 E7.96307
G1 X114.450 Y124.680 E8.02012
G1 X114.008 Y124.680 E8.04961
G1 X113.156 Y124.624 E8.10665
G1 X109.154 Y124.098 E8.37635
G1 X107.504 Y123.656 E8.49042
G1 X103.775 Y122.111 E8.76008
G1 X103.009 Y121.733 E8.81719
G1 X102.626 Y121.513 E8.84668
G1 X101.915 Y121.038 E8.90380
G1 X98.712 Y118.580 E9.17351
G1 X97.507 Y117.374 E9.28740
G1 X95.049 Y114.172 E9.55706
G1 X94.573 Y113.461 E9.61425
G1 X94.353 Y113.078 E9.64374
G1 X93.974 Y112.311 E9.70087
G1 X92.430 Y108.581 E9.97059
G1 X91.988 Y106.933 E10.08461
G1 X91.462 Y102.931 E10.35425
G1 X91.406 Y102.079 E10.41130
G1 X91.406 Y101.637 E10.44080
G1 X91.462 Y100.785 E10.49785
G1 X91.988 Y96.783 E10.76749
G1 X92.430 Y95.135 E10.88151
G1 X93.974 Y91.404 E11.15123
G1 X94.353 Y90.637 E11.20836
G1 X94.573 Y90.255 E11.23785
G1 X95.048 Y89.544 E11.29498
G1 X97.461 Y86.401 E11.55968
G1 E9.55968 F2400.00000
G92 E0
G1 X121.023 Y115.649 F7800.000
G1 E2.00000 F2400.00000
G1 F1800
G1 X118.234 Y116.804 E2.20168
G1 X114.644 Y117.276 E2.44357
G1 X114.229 Y117.010 E2.47647
G1 X113.814 Y117.276 E2.50937
G1 X110.224 Y116.804 E2.75131
G1 X109.208 Y116.383 E2.82479
G1 X109.223 Y116.153 E2.84018
G1 X111.079 Y115.659 E2.96848
G1 X111.152 Y115.612 E2.97431
G1 X114.229 Y116.016 E3.18164
G1 X117.894 Y115.534 E3.42855
G1 X120.366 Y114.511 E3.60729
G1 X120.985 Y115.584 E3.69008
G1 X121.792 Y115.910 F7800.000
G1 F1800
G1 X118.373 Y117.326 E3.93728
G1 X114.519 Y117.833 E4.19696
G1 X114.229 Y117.647 E4.22000
G1 X113.939 Y117.833 E4.24304
G1 X110.084 Y117.326 E4.50278
G1 X107.542 Y116.273 E4.68662
G1 X107.557 Y116.043 E4.70202
G1 X110.860 Y115.163 E4.93038
G1 X111.028 Y115.055 E4.94370
G1 X114.229 Y115.476 E5.15940
G1 X117.754 Y115.013 E5.39690
G1 X120.595 Y113.836 E5.60231
G1 X121.754 Y115.845 E5.75728
G1 X121.294 Y115.867 F7800.000
G1 X120.445 Y115.183 F7800.000
G1 F1800
G1 X118.063 Y116.168 E5.98329
G1 X114.795 Y116.599 E6.27241
G1 X113.663 Y116.599 F7800.000
G1 F1800
G1 X111.264 Y116.284 E6.48461
G1 X110.919 Y116.306 E6.51494
G1 F1800
G1 X110.574 Y116.329 E6.54142
G1 F1800
G1 X110.229 Y116.351 E6.56406
G1 F1800
G1 X109.884 Y116.373 E6.58284
G1 E4.58284 F2400.00000
G92 E0
G1 X107.671 Y114.572 F7800.000
G1 E2.00000 F2400.00000
G1 F1800
G1 X106.746 Y114.819 E2.06393
G1 X106.497 Y113.894 E2.12787
G1 X106.688 Y113.766 E2.14326
G1 X107.149 Y114.120 E2.18210
G1 X107.686 Y114.342 E2.22089
G1 X107.676 Y114.497 E2.23127
G1 X106.368 Y115.474 F7800.000
G1 F1800
G1 X105.568 Y112.507 E2.43657
G1 X105.759 Y112.378 E2.45197
G1 X107.420 Y113.652 E2.59178
G1 X109.352 Y114.453 E2.73152
G1 X109.337 Y114.683 E2.74692
G1 X106.440 Y115.454 E2.94716
G1 X106.486 Y114.988 F7800.000
G1 E0.94716 F2400.00000
G92 E0
G1 X100.894 Y108.803 F7800.000
G1 E2.00000 F2400.00000
G1 F1800
G1 X100.489 Y108.776 E2.02709
G1 X99.282 Y105.862 E2.23781
G1 X98.777 Y102.024 E2.49644
G1 X98.777 Y101.692 E2.51862
G1 X99.282 Y97.853 E2.77726
G1 X100.498 Y94.918 E2.98951
G1 X100.717 Y94.947 E3.00428
G1 X100.998 Y93.900 E3.07671
G1 X103.287 Y90.916 E3.32796
G1 X104.160 Y90.247 E3.40142
G1 X104.351 Y90.375 E3.41682
G1 X103.851 Y92.230 E3.54517
G1 X103.855 Y92.317 E3.55100
G1 X101.967 Y94.778 E3.75822
G1 X100.552 Y98.193 E4.00518
G1 X100.070 Y101.858 E4.25211
G1 X100.552 Y105.523 E4.49904
G1 X101.967 Y108.937 E4.74594
G1 X103.855 Y111.399 E4.95320
G1 X103.851 Y111.486 E4.95904
G1 X104.351 Y113.340 E5.08732
G1 X104.159 Y113.468 E5.10272
G1 X103.287 Y112.799 E5.17617
G1 X101.033 Y109.862 E5.42352
G1 X100.903 Y108.877 E5.48985
G1 E3.48985 F2400.00000
G92 E0
G1 X105.089 Y114.856 F7800.000
G1 E2.00000 F2400.00000
G1 F1800
G1 X102.905 Y113.181 E2.18386
G1 X100.520 Y110.074 E2.44551
G1 X100.420 Y109.309 E2.49708
G1 X100.121 Y109.289 E2.51705
G1 X98.760 Y106.002 E2.75473
G1 X98.242 Y102.059 E3.02042
G1 X98.242 Y101.657 E3.04729
G1 X98.760 Y97.714 E3.31298
G1 X100.160 Y94.333 E3.55740
G1 X100.321 Y94.355 E3.56825
G1 X100.508 Y93.658 E3.61641
G1 X102.905 Y90.534 E3.87950
G1 X105.089 Y88.859 E4.06334
G1 X105.280 Y88.987 E4.07874
G1 X104.390 Y92.289 E4.30716
G1 X104.399 Y92.488 E4.32049
G1 X102.435 Y95.048 E4.53608
G1 X101.074 Y98.333 E4.77362
G1 X100.610 Y101.858 E5.01113
G1 X101.073 Y105.383 E5.24863
G1 X102.435 Y108.667 E5.48611
G1 X104.399 Y111.228 E5.70176
G1 X104.390 Y111.427 E5.71508
G1 X105.280 Y114.728 E5.94347
G1 X105.151 Y114.815 E5.95386
G1 X104.775 Y114.467 F7800.000
G1 E3.95386 F2400.00000
G92 E0
G1 X103.830 Y112.878 F7800.000
G1 E2.00000 F2400.00000
G1 F1800
G1 X103.677 Y112.568 E2.01684
G1 F1800
G1 X103.523 Y112.258 E2.03754
G1 F1800
G1 X103.370 Y111.947 E2.06209
G1 F1800
G1 X103.217 Y111.637 E2.09050
G1 X101.189 Y108.994 E2.36409
G1 X101.144 Y108.655 F7800.000
G1 F1800
G1 X99.918 Y105.692 E2.64558
G1 X99.424 Y101.907 E2.98068
G1 X99.429 Y101.735 E2.99586
G1 X99.918 Y98.024 E3.32447
G1 X100.910 Y95.627 E3.55218
G1 X101.014 Y95.501 E3.56656
G1 F1800
G1 X101.118 Y95.375 E3.57897
G1 F1800
G1 X101.170 Y95.312 E3.58419
G1 X101.349 Y94.785 E3.61973
G1 F1800
G1 X101.471 Y94.442 E3.64572
G1 F1800
G1 X101.553 Y94.277 E3.66028
G1 F1800
G1 X101.594 Y94.194 E3.66838
G1 X103.217 Y92.078 E3.90244
G1 X103.370 Y91.768 E3.93283
G1 F1800
G1 X103.523 Y91.458 E3.95934
G1 F1800
G1 X103.677 Y91.147 E3.98199
G1 F1800
G1 X103.830 Y90.837 E4.00077
G1 E2.00077 F2400.00000
G92 E0
G1 X106.497 Y89.820 F7800.000
G1 E2.00000 F2400.00000
G1 F1800
G1 X106.746 Y88.897 E2.06387
G1 X107.669 Y89.143 E2.12771
G1 X107.685 Y89.373 E2.14311
G1 X107.149 Y89.595 E2.18181
G1 X106.689 Y89.948 E2.22062
G1 X106.559 Y89.862 E2.23101
G1 X106.368 Y88.242 F7800.000
G1 F1800
G1 X109.336 Y89.033 E2.43623
G1 X109.351 Y89.263 E2.45163
G1 X107.420 Y90.063 E2.59131
G1 X105.759 Y91.337 E2.73113
G1 X105.568 Y91.209 E2.74653
G1 X106.348 Y88.315 E2.94678
G1 X106.730 Y88.587 F7800.000
G1 E0.94678 F2400.00000
G92 E0
G1 X114.229 Y86.704 F7800.000
G1 E2.00000 F2400.00000
G1 F1800
G1 X114.644 Y86.439 E2.03288
G1 X118.233 Y86.912 E2.27478
G1 X121.023 Y88.067 E2.47646
G1 X120.366 Y89.204 E2.56422
G1 X117.894 Y88.181 E2.74294
G1 X114.229 Y87.698 E2.98987
G1 X111.152 Y88.104 E3.19721
G1 X111.079 Y88.057 E3.20303
G1 X109.223 Y87.563 E3.33133
G1 X109.208 Y87.333 E3.34672
G1 X110.224 Y86.912 E3.42020
G1 X113.815 Y86.439 E3.66216
G1 X114.166 Y86.664 E3.69003
G1 E1.69003 F2400.00000
G92 E0
G1 X107.557 Y87.673 F7800.000
G1 E2.00000 F2400.00000
G1 F1800
G1 X107.542 Y87.443 E2.01540
G1 X110.084 Y86.390 E2.19924
G1 X113.939 Y85.882 E2.45899
G1 X114.229 Y86.068 E2.48202
G1 X114.519 Y85.882 E2.50505
G1 X118.373 Y86.390 E2.76474
G1 X121.792 Y87.806 E3.01194
G1 X120.595 Y89.879 E3.17187
G1 X117.754 Y88.703 E3.37726
G1 X114.229 Y88.239 E3.61476
G1 X111.028 Y88.660 E3.83048
G1 X110.860 Y88.553 E3.84379
G1 X107.629 Y87.692 E4.06715
G1 X107.682 Y87.479 F7800.000
G1 E2.06715 F2400.00000
G92 E0
G1 X109.884 Y87.342 F7800.000
G1 E2.00000 F2400.00000
G1 F1800
G1 X110.229 Y87.365 E2.01878
G1 F1800
G1 X110.574 Y87.387 E2.04141
G1 F1800
G1 X110.919 Y87.410 E2.06788
G1 F1800
G1 X111.264 Y87.432 E2.09821
G1 X113.664 Y87.116 E2.31050
G1 X114.795 Y87.116 F7800.000
G1 F1800
G1 X118.063 Y87.548 E2.59966
G1 X120.444 Y88.532 E2.82568
G1 E0.82568 F2400.00000
G92 E0
G1 X122.154 Y90.244 F7800.000
G1 E2.00000 F2400.00000
G1 F1800
G1 X122.811 Y89.106 E2.08777
G1 X125.170 Y90.916 E2.28640
G1 X126.981 Y93.276 E2.48511
G1 X125.843 Y93.933 E2.57291
G1 X124.241 Y91.846 E2.74865
G1 X122.214 Y90.289 E2.91942
G1 X121.455 Y90.382 F7800.000
G1 F1800
G1 X122.653 Y88.309 E3.07935
G1 X125.552 Y90.534 E3.32349
G1 X127.778 Y93.434 E3.56771
G1 X125.704 Y94.632 E3.72770
G1 X123.859 Y92.228 E3.93010
G1 X121.515 Y90.428 E4.12755
G1 X121.909 Y90.171 F7800.000
G1 X122.697 Y89.839 F7800.000
G1 F1800
G1 X124.704 Y91.382 E4.34961
G1 X126.247 Y93.390 E4.57175
G1 E2.57175 F2400.00000
G92 E0
G1 X126.882 Y95.721 F7800.000
G1 E2.00000 F2400.00000
G1 F1800
G1 X127.290 Y95.486 E2.03146
G1 X127.243 Y95.958 E2.06316
G1 X126.995 Y95.995 E2.07992
G1 X126.911 Y95.791 E2.09470
G1 X126.207 Y95.492 F7800.000
G1 F1800
G1 X127.924 Y94.501 E2.22715
G1 X127.568 Y98.141 E2.47152
G1 X127.320 Y98.178 E2.48828
G1 X126.236 Y95.562 E2.67748
G1 X126.707 Y95.501 F7800.000
G1 E0.67748 F2400.00000
G92 E0
G1 X127.464 Y98.157 F7800.000
G1 E2.00000 F2400.00000
G1 F1800
G1 X127.473 Y98.732 E2.04272
G1 F1800
G1 X127.483 Y99.308 E2.07836
G1 F1800
G1 X127.492 Y99.883 E2.10693
G1 F1800
G1 X127.502 Y100.459 E2.12842
G1 F1800
G1 X127.512 Y101.034 E2.14284
G1 E0.14284 F2400.00000
G92 E0
G1 X128.893 Y97.894 F7800.000
G1 E2.00000 F2400.00000
G1 F1800
G1 X129.180 Y97.889 E2.01915
G1 X129.681 Y101.692 E2.27539
G1 X129.681 Y102.024 E2.29756
G1 X129.205 Y105.638 E2.54112
G1 X128.918 Y105.634 E2.56026
G1 X128.527 Y101.637 E2.82852
G1 X128.886 Y97.969 E3.07478
G1 E1.07478 F2400.00000
G92 E0
G1 X128.576 Y95.642 F7800.000
G1 E2.00000 F2400.00000
G1 F1800
G1 X128.824 Y95.605 E2.01676
G1 X129.697 Y97.714 E2.16920
G1 X130.217 Y101.657 E2.43490
G1 X130.217 Y102.059 E2.46177
G1 X129.697 Y106.002 E2.72747
G1 X128.859 Y108.026 E2.87380
G1 X128.611 Y107.989 E2.89056
G1 X127.989 Y101.637 E3.31694
G1 X128.569 Y95.717 E3.71433
G1 X128.804 Y95.746 F7800.000
G1 E1.71433 F2400.00000
G92 E0
G1 X129.060 Y99.271 F7800.000
G1 E2.00000 F2400.00000
G1 F1800
G1 X129.063 Y99.486 E2.00150
G1 F1800
G1 X129.071 Y99.916 E2.00969
G1 F1800
G1 X129.078 Y100.346 E2.02307
G1 F1800
G1 X129.085 Y100.777 E2.04164
G1 F1800
G1 X129.092 Y101.207 E2.06540
G1 F1800
G1 X129.119 Y102.194 E2.12907
G1 F1800
G1 X129.112 Y102.606 E2.15093
G1 F1800
G1 X129.105 Y103.019 E2.16801
G1 F1800
G1 X129.098 Y103.431 E2.18033
G1 F1800
G1 X129.091 Y103.844 E2.18787
G1 F1800
G1 X129.085 Y104.257 E2.19065
G1 E0.19065 F2400.00000
G92 E0
G1 X127.243 Y107.757 F7800.000
G1 E2.00000 F2400.00000
G1 F1800
G1 X127.290 Y108.229 E2.03170
G1 X126.882 Y107.994 E2.06316
G1 X126.995 Y107.720 E2.08294
G1 X127.169 Y107.746 E2.09469
G1 X126.207 Y108.223 F7800.000
G1 F1800
G1 X127.320 Y105.537 E2.28885
G1 X127.568 Y105.574 E2.30561
G1 X127.924 Y109.215 E2.54996
G1 X126.272 Y108.260 E2.67742
G1 X126.411 Y107.766 F7800.000
G1 E0.67742 F2400.00000
G92 E0
G1 X127.464 Y105.559 F7800.000
G1 E2.00000 F2400.00000
G1 F1800
G1 X127.473 Y104.983 E2.04272
G1 F1800
G1 X127.483 Y104.408 E2.07836
G1 F1800
G1 X127.492 Y103.832 E2.10693
G1 F1800
G1 X127.502 Y103.257 E2.12842
G1 F1800
G1 X127.512 Y102.681 E2.14284
G1 E0.14284 F2400.00000
G92 E0
G1 X125.843 Y109.782 F7800.000
G1 E2.00000 F2400.00000
G1 F1800
G1 X126.981 Y110.440 E2.08782
G1 X125.170 Y112.799 E2.28650
G1 X122.811 Y114.610 E2.48515
G1 X122.154 Y113.471 E2.57295
G1 X124.241 Y111.870 E2.74869
G1 X125.797 Y109.842 E2.91946
G1 X125.704 Y109.083 F7800.000
G1 F1800
G1 X127.778 Y110.281 E3.07947
G1 X125.552 Y113.181 E3.32365
G1 X122.653 Y115.406 E3.56782
G1 X121.455 Y113.332 E3.72780
G1 X123.859 Y111.488 E3.93021
G1 X125.658 Y109.143 E4.12766
G1 X125.915 Y109.536 F7800.000
G1 X126.247 Y110.325 F7800.000
G1 F1800
G1 X124.704 Y112.333 E4.34976
G1 X122.697 Y113.876 E4.57181
G1 Z0.530 F7800.000
G1 X126.282 Y109.527 F7800.000
G1 F3600
G1 X124.378 Y112.007 E4.76634
G1 X121.406 Y114.288 E4.99945
G1 X117.944 Y115.722 E5.23259
G1 X114.229 Y116.211 E5.46570
G1 X110.513 Y115.722 E5.69888
G1 X107.052 Y114.288 E5.93196
G1 X104.079 Y112.007 E6.16513
G1 X101.799 Y109.034 E6.39825
G1 X100.364 Y105.573 E6.63135
G1 X99.875 Y101.858 E6.86447
G1 X100.364 Y98.143 E7.09759
G1 X101.799 Y94.681 E7.33075
G1 X104.079 Y91.709 E7.56382
G1 X107.052 Y89.426 E7.79703
G1 X110.513 Y87.994 E8.03009
G1 X114.229 Y87.504 E8.26327
G1 X117.944 Y87.994 E8.49639
G1 X121.406 Y89.426 E8.72950
G1 X124.378 Y91.709 E8.96266
G1 X126.660 Y94.681 E9.19577
G1 X128.093 Y98.143 E9.42890
G1 X128.583 Y101.858 E9.66203
G1 X128.093 Y105.573 E9.89517
G1 X126.660 Y109.034 E10.12824
G1 X126.327 Y109.467 E10.16221
G1 X125.825 Y109.176 F7800.000
G1 F1800
G1 X123.968 Y111.597 E10.30826
G1 X121.116 Y113.786 E10.48038
G1 X117.794 Y115.161 E10.65251
G1 X114.229 Y115.630 E10.82463
G1 X110.664 Y115.161 E10.99679
G1 X107.342 Y113.786 E11.16888
G1 X104.489 Y111.597 E11.34103
G1 X102.301 Y108.744 E11.51316
G1 X100.925 Y105.423 E11.68526
G1 X100.456 Y101.858 E11.85738
G1 X100.925 Y98.293 E12.02950
G1 X102.301 Y94.971 E12.20165
G1 X104.489 Y92.119 E12.37374
G1 X107.342 Y89.929 E12.54592
G1 X110.664 Y88.555 E12.71799
G1 X114.229 Y88.085 E12.89016
G1 X117.794 Y88.555 E13.06228
G1 X121.116 Y89.929 E13.23440
G1 X123.968 Y92.119 E13.40654
G1 X126.157 Y94.971 E13.57866
G1 X127.533 Y98.293 E13.75079
G1 X128.002 Y101.858 E13.92292
G1 X127.533 Y105.423 E14.09505
G1 X126.157 Y108.744 E14.26713
G1 X125.871 Y109.117 E14.28965
G1 X126.051 Y109.622 F7800.000
G1 X127.292 Y110.302 F7800.000
G1 F3600
G1 X125.286 Y112.915 E14.49457
G1 X122.048 Y115.400 E14.74854
G1 X118.276 Y116.963 E15.00255
G1 X114.229 Y117.495 E15.25650
G1 X110.181 Y116.963 E15.51051
G1 X106.410 Y115.400 E15.76447
G1 X103.171 Y112.915 E16.01848
G1 X100.686 Y109.677 E16.27245
G1 X99.123 Y105.905 E16.52646
G1 X98.591 Y101.858 E16.78041
G1 X99.123 Y97.811 E17.03436
G1 X100.686 Y94.039 E17.28838
G1 X103.171 Y90.800 E17.54238
G1 X106.410 Y88.315 E17.79636
G1 X110.181 Y86.753 E18.05033
G1 X114.229 Y86.220 E18.30434
G1 X118.276 Y86.753 E18.55829
G1 X122.048 Y88.315 E18.81231
G1 X125.286 Y90.800 E19.06624
G1 X127.772 Y94.039 E19.32025
G1 X129.334 Y97.811 E19.57427
G1 X129.867 Y101.858 E19.82823
G1 X129.334 Y105.905 E20.08218
G1 X127.772 Y109.677 E20.33619
G1 X127.337 Y110.243 E20.38057
G1 X127.748 Y110.653 F7800.000
G1 F1800
G1 X125.697 Y113.325 E20.54188
