; generated by Slic3r 1.3.1-dev on 2020-12-16 at 14:06:54

; external perimeters extrusion width = 0.55mm (3.45mm^3/s)
; perimeters extrusion width = 0.70mm (8.98mm^3/s)
; infill extrusion width = 0.63mm (10.59mm^3/s)
; solid infill extrusion width = 0.70mm (2.99mm^3/s)
; top infill extrusion width = 0.70mm (2.24mm^3/s)

M107
M190 S60 ; set bed temperature and wait for it to be reached
M104 S200 ; set temperature
G28 ; home all axes
G1 Z5 F5000 ; lift nozzle

; Filament gcode

M109 S200 ; set temperature and wait for it to be reached
G21 ; set units to millimeters
G90 ; use absolute coordinates
M82 ; use absolute distances for extrusion
G92 E0
G92 E0
G1 Z0.300 F7800.000
G1 E-2.00000 F2400.00000
G92 E0
G1 X100.041 Y43.445 F7800.000
G1 E2.00000 F2400.00000
G1 F1072.62
G1 X100.503 Y42.580 E2.06551
G1 X101.215 Y41.514 E2.15115
G1 X101.836 Y40.757 E2.21657
G1 X102.743 Y39.850 E2.30227
G1 X103.501 Y39.228 E2.36778
G1 X104.568 Y38.516 E2.45347
G1 X105.433 Y38.054 E2.51899
G1 X106.612 Y37.565 E2.60425
G1 X107.550 Y37.280 E2.66974
G1 X108.808 Y37.030 E2.75542
G1 X109.785 Y36.933 E2.82099
G1 X111.065 Y36.933 E2.90655
G1 X112.042 Y37.030 E2.97213
G1 X113.299 Y37.280 E3.05772
G1 X114.238 Y37.565 E3.12330
G1 X115.417 Y38.054 E3.20856
G1 X116.282 Y38.516 E3.27410
G1 X117.349 Y39.228 E3.35977
G1 X118.107 Y39.850 E3.42528
G1 X119.014 Y40.757 E3.51097
G1 X119.635 Y41.514 E3.57640
G1 X120.346 Y42.579 E3.66194
G1 X120.809 Y43.445 E3.72755
G1 X121.297 Y44.625 E3.81282
G1 X121.582 Y45.563 E3.87831
G1 X121.822 Y46.715 E3.95695
G1 X121.906 Y47.445 E4.00604
G1 X121.948 Y48.299 E4.06316
G1 X121.936 Y49.034 E4.11227
G1 X121.811 Y50.200 E4.19062
G1 X121.620 Y51.162 E4.25614
G1 X121.248 Y52.391 E4.34193
G1 X120.872 Y53.297 E4.40745
G1 X120.268 Y54.427 E4.49306
G1 X119.723 Y55.242 E4.55856
G1 X118.911 Y56.231 E4.64401
G1 X118.218 Y56.924 E4.70948
G1 X117.230 Y57.735 E4.79491
G1 X116.415 Y58.280 E4.86041
G1 X115.282 Y58.886 E4.94620
G1 X114.376 Y59.261 E5.01177
G1 X113.151 Y59.633 E5.09728
G1 X112.189 Y59.824 E5.16278
G1 X111.235 Y59.941 E5.22701
G1 X110.745 Y59.965 E5.25979
G1 X110.105 Y59.965 E5.30251
G1 X109.615 Y59.941 E5.33528
G1 X108.661 Y59.824 E5.39951
G1 X107.700 Y59.633 E5.46497
G1 X106.475 Y59.261 E5.55051
G1 X105.569 Y58.886 E5.61602
G1 X104.435 Y58.280 E5.70188
G1 X103.619 Y57.735 E5.76744
G1 X102.632 Y56.924 E5.85282
G1 X101.939 Y56.231 E5.91829
G1 X101.127 Y55.243 E6.00371
G1 X100.582 Y54.428 E6.06921
G1 X99.978 Y53.297 E6.15484
G1 X99.602 Y52.391 E6.22036
G1 X99.230 Y51.164 E6.30602
G1 X99.038 Y50.200 E6.37169
G1 X98.914 Y49.034 E6.45001
G1 X98.902 Y48.299 E6.49912
G1 X98.944 Y47.445 E6.55625
G1 X99.028 Y46.715 E6.60534
G1 X99.267 Y45.565 E6.68385
G1 X99.553 Y44.624 E6.74949
G1 X100.012 Y43.515 E6.82973
G1 E4.82973 F2400.00000
G92 E0
G1 X114.797 Y49.806 F7800.000
G1 E2.00000 F2400.00000
G1 F1800
G1 X114.468 Y50.598 E2.08183
G1 X113.968 Y51.345 E2.16756
G1 X113.333 Y51.981 E2.25327
G1 X112.586 Y52.480 E2.33900
G1 X111.755 Y52.824 E2.42473
G1 X110.864 Y53.000 E2.51137
G1 X110.425 Y53.022 E2.55331
G1 X109.986 Y53.000 E2.59524
G1 X109.095 Y52.824 E2.68189
G1 X108.264 Y52.480 E2.76762
G1 X107.517 Y51.981 E2.85334
G1 X106.882 Y51.345 E2.93906
G1 X106.382 Y50.598 E3.02479
G1 X106.039 Y49.769 E3.11042
G1 X105.863 Y48.883 E3.19651
G1 X105.852 Y48.213 E3.26047
G1 X105.929 Y47.547 E3.32439
G1 X106.190 Y46.684 E3.41045
G1 X106.614 Y45.891 E3.49622
G1 X107.183 Y45.197 E3.58182
G1 X107.878 Y44.627 E3.66755
G1 X108.671 Y44.203 E3.75331
G1 X109.531 Y43.942 E3.83904
G1 X110.425 Y43.854 E3.92469
G1 X111.316 Y43.942 E4.01008
G1 X112.179 Y44.203 E4.09608
G1 X112.972 Y44.627 E4.18183
G1 X113.667 Y45.197 E4.26756
G1 X114.236 Y45.891 E4.35316
G1 X114.660 Y46.684 E4.43893
G1 X114.921 Y47.547 E4.52499
G1 X114.978 Y48.214 E4.58881
G1 X114.987 Y48.883 E4.65268
G1 X114.819 Y49.734 E4.73542
G1 X114.797 Y49.806 F7800.000
G1 Z0.530 F7800.000
G1 X114.840 Y48.650 F7800.000
G1 F600
G1 X114.798 Y47.794 E4.77648
G1 X115.088 Y47.770 E4.79039
G1 X115.138 Y48.206 E4.81141
G1 X115.131 Y48.646 E4.83245
G1 X114.915 Y48.649 E4.84278
G1 X114.922 Y48.157 F7800.000
G1 X114.993 Y47.778 F7800.000
G1 F600
G1 X114.660 Y46.684 E4.92777
G1 X114.236 Y45.891 E4.99460
G1 X113.667 Y45.197 E5.06129
G1 X112.972 Y44.627 E5.12809
G1 X112.179 Y44.203 E5.19489
G1 X111.311 Y43.941 E5.26227
G1 X110.425 Y43.854 E5.32845
G1 X109.572 Y43.937 E5.39218
G1 X108.671 Y44.203 E5.46194
G1 X107.878 Y44.627 E5.52877
G1 X107.183 Y45.197 E5.59556
G1 X106.614 Y45.891 E5.66226
G1 X106.190 Y46.684 E5.72909
G1 X105.929 Y47.547 E5.79614
G1 X105.852 Y48.213 E5.84595
G1 X105.863 Y48.883 E5.89579
G1 X106.039 Y49.769 E5.96286
G1 X106.382 Y50.598 E6.02959
G1 X106.882 Y51.345 E6.09639
G1 X107.517 Y51.981 E6.16317
G1 X108.264 Y52.480 E6.22997
G1 X109.095 Y52.824 E6.29676
G1 X109.986 Y53.000 E6.36428
G1 X110.425 Y53.022 E6.39695
G1 X110.864 Y53.000 E6.42963
G1 X111.755 Y52.824 E6.49714
G1 X112.586 Y52.480 E6.56393
G1 X113.333 Y51.981 E6.63073
G1 X113.968 Y51.345 E6.69752
G1 X114.468 Y50.598 E6.76432
G1 X114.811 Y49.769 E6.83104
G1 X115.035 Y48.647 E6.91603
G1 Z0.760 F7800.000
G1 X114.840 Y48.649 F7800.000
G1 F600
G1 X114.798 Y47.795 E6.95695
G1 X115.088 Y47.771 E6.97087
G1 X115.138 Y48.206 E6.99181
G1 X115.131 Y48.644 E7.01278
G1 X114.915 Y48.648 E7.02311
G1 X114.922 Y48.156 F7800.000
G1 X114.993 Y47.779 F7800.000
G1 F600
G1 X114.641 Y46.648 E7.11116
G1 X114.236 Y45.891 E7.17500
G1 X113.635 Y45.170 E7.24474
G1 X112.972 Y44.627 E7.30845
G1 X112.179 Y44.203 E7.37524
G1 X111.307 Y43.940 E7.44295
G1 X110.425 Y43.854 E7.50880
G1 X109.531 Y43.942 E7.57554
G1 X108.671 Y44.203 E7.64234
G1 X107.878 Y44.627 E7.70917
G1 X107.215 Y45.170 E7.77288
G1 X106.594 Y45.927 E7.84567
G1 X106.190 Y46.684 E7.90940
G1 X105.929 Y47.547 E7.97645
G1 X105.852 Y48.213 E8.02626
G1 X105.863 Y48.883 E8.07610
G1 X106.039 Y49.769 E8.14317
G1 X106.382 Y50.598 E8.20990
G1 X106.882 Y51.345 E8.27670
G1 X107.517 Y51.981 E8.34348
G1 X108.264 Y52.480 E8.41028
G1 X109.135 Y52.833 E8.48006
G1 X109.986 Y53.000 E8.54455
G1 X110.425 Y53.022 E8.57722
G1 X110.864 Y53.000 E8.60990
G1 X111.755 Y52.824 E8.67741
G1 X112.620 Y52.458 E8.74716
G1 X113.333 Y51.981 E8.81096
G1 X113.940 Y51.375 E8.87473
G1 X114.468 Y50.598 E8.94450
G1 X114.812 Y49.769 E9.01124
G1 X114.853 Y49.567 E9.02656
G1 X114.476 Y49.341 E9.05919
M106 S255
G1 Z0.990 F7800.000
G1 X114.840 Y48.647 F7800.000
G1 F600
G1 X114.798 Y47.797 E9.09996
G1 X115.088 Y47.773 E9.11388
G1 X115.138 Y48.206 E9.13475
G1 X115.131 Y48.643 E9.15565
G1 X114.915 Y48.646 E9.16598
G1 X114.922 Y48.154 F7800.000
G1 X114.993 Y47.781 F7800.000
G1 F600
G1 X114.660 Y46.684 E9.25119
G1 X114.236 Y45.891 E9.31802
G1 X113.667 Y45.197 E9.38472
G1 X112.972 Y44.627 E9.45152
G1 X112.179 Y44.203 E9.51829
G1 X111.303 Y43.940 E9.58632
G1 X110.425 Y43.854 E9.65186
G1 X109.573 Y43.937 E9.71547
G1 X108.671 Y44.203 E9.78535
G1 X107.878 Y44.627 E9.85218
G1 X107.183 Y45.197 E9.91898
G1 X106.614 Y45.891 E9.98567
G1 X106.190 Y46.684 E10.05250
G1 X105.929 Y47.547 E10.11956
G1 X105.852 Y48.213 E10.16936
G1 X105.863 Y48.883 E10.21920
G1 X106.039 Y49.769 E10.28627
G1 X106.382 Y50.598 E10.35300
G1 X106.882 Y51.345 E10.41980
G1 X107.517 Y51.981 E10.48658
G1 X108.264 Y52.480 E10.55338
G1 X109.095 Y52.824 E10.62018
G1 X109.986 Y53.000 E10.68769
G1 X110.425 Y53.022 E10.72036
G1 X110.864 Y53.000 E10.75304
G1 X111.755 Y52.824 E10.82055
G1 X112.586 Y52.480 E10.88735
G1 X113.333 Y51.981 E10.95414
G1 X113.968 Y51.345 E11.02093
G1 X114.468 Y50.598 E11.08773
G1 X114.811 Y49.769 E11.15446
G1 X115.036 Y48.644 E11.23967
M106 S244.8
G1 Z1.220 F7800.000
G1 E9.23967 F2400.00000
G92 E0
G1 X115.230 Y171.822 F7800.000
G1 E2.00000 F2400.00000
M106 S255

G1 F3600
G1 X115.226 Y172.023 E2.01646
G1 X115.046 Y172.933 E2.09221
G1 X114.691 Y173.789 E2.16782
G1 X114.176 Y174.559 E2.24344
G1 X113.522 Y175.214 E2.31903
G1 X112.752 Y175.729 E2.39464
G1 X111.896 Y176.083 E2.47025
G1 X110.981 Y176.265 E2.54637
G1 X110.525 Y176.287 E2.58366
G1 X110.069 Y176.265 E2.62095
G1 X109.154 Y176.083 E2.69707
G1 X108.298 Y175.729 E2.77269
G1 X107.528 Y175.214 E2.84830
G1 X106.874 Y174.559 E2.92389
G1 X106.359 Y173.789 E2.99950
G1 X106.004 Y172.933 E3.07512
G1 X105.824 Y172.023 E3.15087
G1 X105.820 Y171.822 E3.16732
G1 X106.093 Y171.793 E3.18974
G1 X106.271 Y172.687 E3.26415
G1 X106.604 Y173.492 E3.33530
G1 X107.088 Y174.216 E3.40640
G1 X107.705 Y174.832 E3.47755
G1 X108.430 Y175.316 E3.54871
G1 X109.235 Y175.650 E3.61985
G1 X110.082 Y175.818 E3.69036
G1 X110.525 Y175.841 E3.72657
G1 X110.968 Y175.818 E3.76278
G1 X111.815 Y175.650 E3.83329
G1 X112.620 Y175.316 E3.90443
G1 X113.345 Y174.832 E3.97559
G1 X113.962 Y174.216 E4.04675
G1 X114.446 Y173.492 E4.11784
G1 X114.779 Y172.687 E4.18899
G1 X114.957 Y171.793 E4.26340
G1 X115.155 Y171.814 E4.27970
M106 S244.8

G1 X115.238 Y171.331 F7800.000
M106 S255

G1 F3600
G1 X115.233 Y171.648 E4.30555
G1 X114.942 Y171.653 E4.32928
G1 X114.912 Y171.041 E4.37930
G1 X115.202 Y171.017 E4.40303
G1 X115.229 Y171.257 E4.42274
M106 S244.8

G1 X114.626 Y170.817 F7800.000
G1 F1800
G1 X114.784 Y170.610 E4.43245
G1 F1800
G1 X114.879 Y170.484 E4.43956
G1 F1800
G1 X114.910 Y170.439 E4.44250
G1 F1800
G1 X114.941 Y170.393 E4.44589
G1 F1800
G1 X114.956 Y170.370 E4.44781
G1 X114.738 Y169.691 E4.49754
G1 X114.312 Y168.908 E4.55971
G1 F1800
G1 X113.804 Y168.283 E4.61200
G1 X113.108 Y167.697 E4.67102
G1 X112.279 Y167.247 E4.73229
G1 F1800
G1 X111.429 Y166.986 E4.78537
G1 X110.950 Y166.926 E4.81419
G1 X110.525 Y166.895 E4.83964
G1 X109.614 Y166.987 E4.89428
G1 X108.743 Y167.259 E4.94881
G1 X107.991 Y167.664 E4.99978
G1 X107.305 Y168.224 E5.05268
G1 X106.779 Y168.851 E5.10152
G1 F1800
G1 X106.680 Y168.993 E5.11276
G1 X106.312 Y169.691 E5.16396
G1 F1800
G1 X106.064 Y170.470 E5.22089
G1 X106.019 Y170.670 E5.23520
G1 X105.967 Y171.123 E5.26693
G1 X106.112 Y171.262 E5.28095
G1 F1800
G1 X106.351 Y171.489 E5.30199
G1 E3.30199 F2400.00000
G92 E0
G1 X114.238 Y154.331 F7800.000
G1 E2.00000 F2400.00000
M106 S255

G1 F3600
G1 X114.231 Y154.773 E2.03609
G1 X113.940 Y154.778 E2.05982
G1 X113.898 Y153.916 E2.13024
G1 X114.187 Y153.893 E2.15397
G1 X114.229 Y154.257 E2.18388
M106 S244.8

G1 X114.092 Y153.900 F7800.000
G1 F1800
G1 X113.760 Y152.809 E2.26868
G1 X113.336 Y152.016 E2.33552
G1 X112.766 Y151.321 E2.40226
G1 X112.072 Y150.752 E2.46900
G1 X111.279 Y150.328 E2.53584
G1 X110.419 Y150.067 E2.60264
G1 X109.526 Y149.979 E2.66930
G1 X108.671 Y150.062 E2.73312
G1 X107.771 Y150.328 E2.80288
G1 X106.978 Y150.752 E2.86972
G1 X106.284 Y151.321 E2.93646
G1 X105.714 Y152.016 E3.00320
G1 X105.290 Y152.809 E3.07004
G1 X105.029 Y153.672 E3.13710
G1 X104.952 Y154.338 E3.18690
G1 X104.963 Y155.008 E3.23674
G1 X105.138 Y155.893 E3.30375
G1 X105.482 Y156.723 E3.37055
G1 X105.982 Y157.470 E3.43734
G1 X106.617 Y158.106 E3.50413
G1 X107.364 Y158.605 E3.57093
G1 X108.195 Y158.949 E3.63773
G1 X109.086 Y159.125 E3.70524
G1 X109.525 Y159.147 E3.73791
G1 X109.964 Y159.125 E3.77059
G1 X110.855 Y158.949 E3.83810
G1 X111.686 Y158.605 E3.90490
G1 X112.433 Y158.106 E3.97170
G1 X113.068 Y157.470 E4.03848
G1 X113.568 Y156.723 E4.10528
G1 X113.912 Y155.893 E4.17208
G1 X114.135 Y154.775 E4.25681
G1 E2.25681 F2400.00000
G92 E0
G1 X115.188 Y137.331 F7800.000
G1 E2.00000 F2400.00000
M106 S255

G1 F3600
G1 X115.181 Y137.773 E2.03605
G1 X114.890 Y137.777 E2.05978
G1 X114.848 Y136.917 E2.13014
G1 X115.137 Y136.893 E2.15387
G1 X115.179 Y137.257 E2.18376
M106 S244.8

G1 X115.042 Y136.901 F7800.000
G1 F1800
G1 X114.710 Y135.809 E2.26858
G1 X114.286 Y135.016 E2.33541
G1 X113.716 Y134.321 E2.40221
G1 X113.022 Y133.752 E2.46891
G1 X112.229 Y133.328 E2.53572
G1 X111.364 Y133.066 E2.60292
G1 X110.475 Y132.979 E2.66927
G1 X109.621 Y133.062 E2.73301
G1 X108.721 Y133.328 E2.80277
G1 X107.928 Y133.752 E2.86961
G1 X107.234 Y134.321 E2.93635
G1 X106.664 Y135.016 E3.00309
G1 X106.240 Y135.809 E3.06993
G1 X105.979 Y136.672 E3.13699
G1 X105.902 Y137.338 E3.18679
G1 X105.913 Y138.008 E3.23663
G1 X106.088 Y138.893 E3.30364
G1 X106.432 Y139.723 E3.37044
G1 X106.932 Y140.470 E3.43723
G1 X107.567 Y141.106 E3.50402
G1 X108.314 Y141.605 E3.57081
G1 X109.145 Y141.949 E3.63761
G1 X110.036 Y142.125 E3.70512
G1 X110.475 Y142.147 E3.73780
G1 X110.914 Y142.125 E3.77047
G1 X111.805 Y141.949 E3.83799
G1 X112.636 Y141.605 E3.90479
G1 X113.383 Y141.106 E3.97158
G1 X114.018 Y140.470 E4.03837
G1 X114.518 Y139.723 E4.10516
G1 X114.862 Y138.893 E4.17196
G1 X115.085 Y137.774 E4.25673
G1 E2.25673 F2400.00000
G92 E0
G1 X114.188 Y119.831 F7800.000
G1 E2.00000 F2400.00000
M106 S255

G1 F3600
G1 X114.181 Y120.272 E2.03599
G1 X113.890 Y120.277 E2.05972
G1 X113.848 Y119.417 E2.13002
G1 X114.137 Y119.393 E2.15376
G1 X114.179 Y119.756 E2.18364
M106 S244.8

G1 X114.085 Y120.273 F7800.000
G1 F1800
G1 X113.862 Y121.393 E2.26847
G1 X113.518 Y122.223 E2.33527
G1 X113.018 Y122.970 E2.40206
G1 X112.383 Y123.606 E2.46884
G1 X111.636 Y124.104 E2.53561
G1 X110.805 Y124.449 E2.60245
G1 X109.914 Y124.625 E2.66994
G1 X109.475 Y124.647 E2.70262
G1 X109.036 Y124.625 E2.73529
G1 X108.145 Y124.449 E2.80279
G1 X107.314 Y124.104 E2.86963
G1 X106.567 Y123.606 E2.93640
G1 X105.932 Y122.970 E3.00318
G1 X105.432 Y122.223 E3.06997
G1 X105.088 Y121.393 E3.13677
G1 X104.913 Y120.508 E3.20378
G1 X104.902 Y119.838 E3.25362
G1 X104.979 Y119.171 E3.30350
G1 X105.240 Y118.308 E3.37054
G1 X105.664 Y117.516 E3.43732
G1 X106.234 Y116.821 E3.50408
G1 X106.928 Y116.251 E3.57087
G1 X107.721 Y115.827 E3.63767
G1 X108.622 Y115.562 E3.70743
G1 X109.476 Y115.479 E3.77126
G1 X110.369 Y115.567 E3.83791
G1 X111.229 Y115.827 E3.90469
G1 X112.021 Y116.251 E3.97149
G1 X112.715 Y116.821 E4.03823
G1 X113.286 Y117.516 E4.10505
G1 X113.710 Y118.308 E4.17181
G1 X114.042 Y119.401 E4.25670
G1 E2.25670 F2400.00000
G92 E0
G1 X115.188 Y102.331 F7800.000
G1 E2.00000 F2400.00000
M106 S255

G1 F3600
G1 X115.181 Y102.773 E2.03605
G1 X114.890 Y102.777 E2.05979
G1 X114.848 Y101.917 E2.13014
G1 X115.137 Y101.893 E2.15388
G1 X115.179 Y102.257 E2.18377
M106 S244.8

G1 X115.042 Y101.901 F7800.000
G1 F1800
G1 X114.710 Y100.809 E2.26859
G1 X114.286 Y100.016 E2.33541
G1 X113.716 Y99.321 E2.40221
G1 X113.022 Y98.752 E2.46891
G1 X112.229 Y98.328 E2.53573
G1 X111.367 Y98.067 E2.60269
G1 X110.475 Y97.979 E2.66928
G1 X109.622 Y98.062 E2.73301
G1 X108.721 Y98.328 E2.80278
G1 X107.928 Y98.752 E2.86962
G1 X107.234 Y99.321 E2.93636
G1 X106.664 Y100.016 E3.00310
G1 X106.240 Y100.809 E3.06994
G1 X105.979 Y101.672 E3.13699
G1 X105.902 Y102.338 E3.18680
G1 X105.913 Y103.008 E3.23664
G1 X106.088 Y103.893 E3.30365
G1 X106.432 Y104.723 E3.37045
G1 X106.932 Y105.470 E3.43724
G1 X107.567 Y106.106 E3.50403
G1 X108.314 Y106.605 E3.57082
G1 X109.145 Y106.949 E3.63762
G1 X110.036 Y107.125 E3.70514
G1 X110.475 Y107.147 E3.73781
G1 X110.914 Y107.125 E3.77049
G1 X111.805 Y106.949 E3.83800
G1 X112.636 Y106.605 E3.90480
G1 X113.383 Y106.106 E3.97160
G1 X114.018 Y105.470 E4.03838
G1 X114.518 Y104.723 E4.10518
G1 X114.862 Y103.893 E4.17198
G1 X115.085 Y102.774 E4.25675
G1 E2.25675 F2400.00000
G92 E0
G1 X115.188 Y83.331 F7800.000
G1 E2.00000 F2400.00000
M106 S255

G1 F3600
G1 X115.181 Y83.773 E2.03605
G1 X114.890 Y83.777 E2.05978
G1 X114.848 Y82.917 E2.13014
G1 X115.137 Y82.893 E2.15387
G1 X115.179 Y83.257 E2.18376
M106 S244.8

G1 X115.042 Y82.901 F7800.000
G1 F1800
G1 X114.710 Y81.809 E2.26858
G1 X114.286 Y81.016 E2.33541
G1 X113.716 Y80.321 E2.40221
G1 X113.022 Y79.752 E2.46891
G1 X112.229 Y79.328 E2.53572
G1 X111.363 Y79.066 E2.60293
G1 X110.475 Y78.979 E2.66927
G1 X109.622 Y79.062 E2.73300
