; generated by Slic3r 1.3.1-dev on 2020-12-15 at 21:33:13

; external perimeters extrusion width = 0.55mm (3.45mm^3/s)
; perimeters extrusion width = 0.70mm (8.98mm^3/s)
; infill extrusion width = 0.63mm (10.59mm^3/s)
; solid infill extrusion width = 0.70mm (2.99mm^3/s)
; top infill extrusion width = 0.70mm (2.24mm^3/s)

M107
M190 S60 ; set bed temperature and wait for it to be reached
M104 S200 ; set temperature
G28 ; home all axes
G1 Z5 F5000 ; lift nozzle

; Filament gcode

M109 S200 ; set temperature and wait for it to be reached
G21 ; set units to millimeters
G90 ; use absolute coordinates
M82 ; use absolute distances for extrusion
G92 E0
G92 E0
G1 Z0.300 F7800.000
G1 E-2.00000 F2400.00000
G92 E0
G1 X42.062 Y101.479 F7800.000
G1 E2.00000 F2400.00000
G1 F1800
G1 X43.263 Y101.049 E2.08523
G1 X44.033 Y100.856 E2.13828
G1 X45.300 Y100.668 E2.22384
G1 X46.407 Y100.621 E2.29783
G1 X83.505 Y100.581 E4.77618
G1 X180.061 Y100.540 E11.22667
G1 X181.024 Y100.611 E11.29118
G1 X181.809 Y100.728 E11.34423
G1 X183.044 Y101.037 E11.42927
G1 X183.794 Y101.305 E11.48242
G1 X184.957 Y101.855 E11.56839
G1 X185.637 Y102.263 E11.62140
G1 X186.664 Y103.025 E11.70678
G1 X187.251 Y103.557 E11.75972
G1 X188.114 Y104.509 E11.84558
G1 X188.587 Y105.148 E11.89865
G1 X189.242 Y106.241 E11.98377
G1 X189.581 Y106.957 E12.03675
G1 X190.012 Y108.160 E12.12212
G1 X190.206 Y108.933 E12.17531
G1 X190.380 Y109.990 E12.24689
G1 X190.429 Y110.583 E12.28669
G1 X190.429 Y111.649 E12.35789
G1 X190.380 Y112.243 E12.39769
G1 X190.206 Y113.300 E12.46927
G1 X190.013 Y114.070 E12.52228
G1 X189.581 Y115.275 E12.60782
G1 X189.242 Y115.992 E12.66080
G1 X188.586 Y117.086 E12.74601
G1 X188.114 Y117.724 E12.79901
G1 X187.251 Y118.676 E12.88485
G1 X186.664 Y119.208 E12.93779
G1 X185.632 Y119.973 E13.02356
G1 X184.952 Y120.380 E13.07654
G1 X183.797 Y120.926 E13.16190
G1 X183.049 Y121.194 E13.21500
G1 X181.809 Y121.504 E13.30033
G1 X181.025 Y121.621 E13.35329
G1 X180.078 Y121.692 E13.41677
G1 X161.517 Y121.733 E14.65671
G1 X64.477 Y121.773 E21.13956
G1 X46.414 Y121.773 E22.34627
G1 X45.301 Y121.727 E22.42066
G1 X44.032 Y121.538 E22.50639
G1 X43.263 Y121.345 E22.55934
G1 X42.056 Y120.913 E22.64498
G1 X41.339 Y120.574 E22.69796
G1 X40.246 Y119.918 E22.78313
G1 X39.608 Y119.446 E22.83613
G1 X38.656 Y118.583 E22.92201
G1 X38.123 Y117.996 E22.97495
G1 X37.359 Y116.965 E23.06069
G1 X36.951 Y116.284 E23.11369
G1 X36.406 Y115.130 E23.19894
G1 X36.138 Y114.382 E23.25203
G1 X35.862 Y113.354 E23.32316
G1 X35.755 Y112.768 E23.36295
G1 X35.657 Y111.914 E23.42037
G1 X35.637 Y110.878 E23.48963
G1 X35.657 Y110.481 E23.51617
G1 X35.755 Y109.627 E23.57360
G1 X35.862 Y109.041 E23.61337
G1 X36.138 Y108.013 E23.68451
G1 X36.406 Y107.266 E23.73751
G1 X36.952 Y106.110 E23.82288
G1 X37.361 Y105.427 E23.87605
G1 X38.123 Y104.399 E23.96160
G1 X38.657 Y103.810 E24.01470
G1 X39.602 Y102.953 E24.09992
G1 X40.241 Y102.479 E24.15309
G1 X41.345 Y101.818 E24.23903
G1 X41.994 Y101.511 E24.28698
G1 E22.28698 F2400.00000
G92 E0
G1 X47.801 Y114.549 F7800.000
G1 E2.00000 F2400.00000
G1 F1800
G1 X47.117 Y114.794 E2.05512
G1 X46.397 Y114.901 E2.11031
G1 X45.671 Y114.865 E2.16547
G1 X44.966 Y114.689 E2.22059
G1 X44.309 Y114.378 E2.27577
G1 X43.725 Y113.945 E2.33096
G1 X43.237 Y113.407 E2.38606
G1 X42.863 Y112.783 E2.44123
G1 X42.617 Y112.093 E2.49683
G1 X42.519 Y111.556 E2.53824
G1 X42.502 Y111.197 E2.56546
G1 X42.519 Y110.839 E2.59268
G1 X42.617 Y110.302 E2.63408
G1 X42.863 Y109.612 E2.68969
G1 X43.237 Y108.988 E2.74485
G1 X43.725 Y108.450 E2.79997
G1 X44.309 Y108.016 E2.85518
G1 X44.966 Y107.706 E2.91032
G1 X45.671 Y107.529 E2.96544
G1 X46.399 Y107.494 E3.02078
G1 X47.117 Y107.601 E3.07581
G1 X47.800 Y107.845 E3.13090
G1 X48.424 Y108.219 E3.18609
G1 X48.963 Y108.707 E3.24122
G1 X49.396 Y109.291 E3.29643
G1 X49.707 Y109.948 E3.35158
G1 X49.884 Y110.659 E3.40712
G1 X49.928 Y111.197 E3.44814
G1 X49.884 Y111.736 E3.48916
G1 X49.707 Y112.446 E3.54470
G1 X49.396 Y113.103 E3.59984
G1 X48.963 Y113.688 E3.65505
G1 X48.424 Y114.176 E3.71017
G1 X47.865 Y114.512 E3.75966
G1 X47.801 Y114.549 F7800.000
G1 E1.75966 F2400.00000
G92 E0
G1 X60.677 Y112.077 F7800.000
G1 E2.00000 F2400.00000
G1 F1800
G1 X60.582 Y111.556 E2.04022
G1 X60.565 Y111.197 E2.06743
G1 X60.582 Y110.839 E2.09465
G1 X60.680 Y110.302 E2.13606
G1 X60.926 Y109.612 E2.19166
G1 X61.300 Y108.988 E2.24683
G1 X61.788 Y108.450 E2.30194
G1 X62.372 Y108.017 E2.35712
G1 X63.029 Y107.706 E2.41230
G1 X63.734 Y107.529 E2.46742
G1 X64.460 Y107.494 E2.52258
G1 X65.177 Y107.600 E2.57761
G1 X65.864 Y107.845 E2.63287
G1 X66.487 Y108.219 E2.68805
G1 X67.026 Y108.707 E2.74319
G1 X67.459 Y109.291 E2.79840
G1 X67.770 Y109.948 E2.85354
G1 X67.947 Y110.659 E2.90908
G1 X67.991 Y111.197 E2.95010
G1 X67.947 Y111.736 E2.99112
G1 X67.770 Y112.446 E3.04666
G1 X67.459 Y113.103 E3.10180
G1 X67.026 Y113.688 E3.15702
G1 X66.487 Y114.176 E3.21213
G1 X65.864 Y114.549 E3.26731
G1 X65.180 Y114.794 E3.32243
G1 X64.460 Y114.901 E3.37762
G1 X63.734 Y114.865 E3.43278
G1 X63.029 Y114.689 E3.48789
G1 X62.372 Y114.378 E3.54307
G1 X61.788 Y113.945 E3.59826
G1 X61.300 Y113.407 E3.65337
G1 X60.926 Y112.783 E3.70853
G1 X60.699 Y112.149 E3.75964
G1 X60.677 Y112.077 F7800.000
G1 E1.75964 F2400.00000
G92 E0
G1 X79.601 Y111.173 F7800.000
G1 E2.00000 F2400.00000
G1 F1800
G1 X79.617 Y110.799 E2.02846
G1 X79.715 Y110.261 E2.06988
G1 X79.961 Y109.572 E2.12545
G1 X80.335 Y108.948 E2.18063
G1 X80.823 Y108.410 E2.23576
G1 X81.407 Y107.976 E2.29097
G1 X82.064 Y107.665 E2.34612
G1 X82.769 Y107.489 E2.40124
G1 X83.495 Y107.453 E2.45640
G1 X84.212 Y107.560 E2.51137
G1 X84.899 Y107.805 E2.56670
G1 X85.522 Y108.178 E2.62188
G1 X86.061 Y108.666 E2.67700
G1 X86.494 Y109.251 E2.73219
G1 X86.805 Y109.908 E2.78737
G1 X86.982 Y110.618 E2.84290
G1 X87.026 Y111.157 E2.88392
G1 X86.982 Y111.696 E2.92494
G1 X86.805 Y112.406 E2.98047
G1 X86.494 Y113.063 E3.03565
G1 X86.060 Y113.647 E3.09084
G1 X85.522 Y114.135 E3.14595
G1 X84.899 Y114.509 E3.20111
G1 X84.214 Y114.754 E3.25630
G1 X83.495 Y114.861 E3.31143
G1 X82.769 Y114.825 E3.36659
G1 X82.064 Y114.649 E3.42170
G1 X81.407 Y114.337 E3.47689
G1 X80.823 Y113.904 E3.53207
G1 X80.335 Y113.366 E3.58719
G1 X79.961 Y112.742 E3.64237
G1 X79.715 Y112.052 E3.69794
G1 X79.617 Y111.515 E3.73936
G1 X79.604 Y111.248 E3.75964
G1 X79.601 Y111.173 F7800.000
G1 E1.75964 F2400.00000
G92 E0
G1 X98.797 Y111.157 F7800.000
G1 E2.00000 F2400.00000
G1 F1800
G1 X98.814 Y110.799 E2.02722
G1 X98.912 Y110.261 E2.06864
G1 X99.158 Y109.572 E2.12421
G1 X99.532 Y108.948 E2.17939
G1 X100.020 Y108.410 E2.23452
G1 X100.604 Y107.976 E2.28973
G1 X101.261 Y107.665 E2.34487
G1 X101.966 Y107.489 E2.40000
G1 X102.692 Y107.453 E2.45515
G1 X103.409 Y107.560 E2.51013
G1 X104.096 Y107.805 E2.56545
G1 X104.719 Y108.178 E2.62063
G1 X105.258 Y108.666 E2.67575
G1 X105.691 Y109.251 E2.73094
G1 X106.002 Y109.908 E2.78612
G1 X106.179 Y110.618 E2.84165
G1 X106.223 Y111.157 E2.88267
G1 X106.179 Y111.696 E2.92369
G1 X106.002 Y112.406 E2.97922
G1 X105.691 Y113.063 E3.03440
G1 X105.257 Y113.647 E3.08959
G1 X104.719 Y114.135 E3.14470
G1 X104.096 Y114.509 E3.19986
G1 X103.411 Y114.754 E3.25505
G1 X102.692 Y114.861 E3.31018
G1 X101.966 Y114.825 E3.36534
G1 X101.261 Y114.649 E3.42045
G1 X100.604 Y114.337 E3.47563
G1 X100.020 Y113.904 E3.53082
G1 X99.532 Y113.366 E3.58594
G1 X99.158 Y112.742 E3.64112
G1 X98.912 Y112.052 E3.69669
G1 X98.814 Y111.515 E3.73811
G1 X98.800 Y111.232 E3.75964
G1 X98.797 Y111.157 F7800.000
G1 E1.75964 F2400.00000
G92 E0
G1 X117.751 Y111.157 F7800.000
G1 E2.00000 F2400.00000
G1 F1800
G1 X117.768 Y110.799 E2.02722
G1 X117.866 Y110.261 E2.06864
G1 X118.112 Y109.572 E2.12421
G1 X118.486 Y108.948 E2.17939
G1 X118.974 Y108.410 E2.23452
G1 X119.558 Y107.976 E2.28973
G1 X120.215 Y107.665 E2.34487
G1 X120.920 Y107.489 E2.40000
G1 X121.646 Y107.453 E2.45516
G1 X122.363 Y107.560 E2.51013
G1 X123.050 Y107.805 E2.56546
G1 X123.673 Y108.178 E2.62063
G1 X124.212 Y108.666 E2.67575
G1 X124.645 Y109.251 E2.73094
G1 X124.956 Y109.908 E2.78612
G1 X125.133 Y110.618 E2.84166
G1 X125.177 Y111.157 E2.88268
G1 X125.133 Y111.696 E2.92369
G1 X124.956 Y112.406 E2.97922
G1 X124.645 Y113.063 E3.03441
G1 X124.211 Y113.647 E3.08959
G1 X123.673 Y114.135 E3.14470
G1 X123.050 Y114.509 E3.19987
G1 X122.365 Y114.754 E3.25505
G1 X121.646 Y114.861 E3.31019
G1 X120.920 Y114.825 E3.36534
G1 X120.215 Y114.649 E3.42046
G1 X119.558 Y114.337 E3.47564
G1 X118.974 Y113.904 E3.53083
G1 X118.486 Y113.366 E3.58595
G1 X118.112 Y112.742 E3.64113
G1 X117.866 Y112.052 E3.69670
G1 X117.768 Y111.515 E3.73812
G1 X117.754 Y111.232 E3.75964
G1 X117.737 Y111.149 F7800.000
G1 E1.75964 F2400.00000
G92 E0
G1 X138.406 Y111.157 F7800.000
G1 E2.00000 F2400.00000
G1 F1800
G1 X138.423 Y110.799 E2.02722
G1 X138.521 Y110.261 E2.06864
G1 X138.767 Y109.572 E2.12421
G1 X139.141 Y108.948 E2.17939
G1 X139.629 Y108.410 E2.23452
G1 X140.213 Y107.976 E2.28973
G1 X140.870 Y107.665 E2.34487
G1 X141.575 Y107.489 E2.40000
G1 X142.301 Y107.453 E2.45515
G1 X143.018 Y107.560 E2.51013
G1 X143.705 Y107.805 E2.56546
G1 X144.328 Y108.178 E2.62063
G1 X144.867 Y108.666 E2.67575
G1 X145.300 Y109.251 E2.73094
G1 X145.611 Y109.908 E2.78612
G1 X145.788 Y110.618 E2.84166
G1 X145.832 Y111.157 E2.88267
G1 X145.788 Y111.696 E2.92369
G1 X145.611 Y112.406 E2.97922
G1 X145.300 Y113.063 E3.03441
G1 X144.866 Y113.647 E3.08959
G1 X144.328 Y114.135 E3.14470
G1 X143.705 Y114.509 E3.19987
G1 X143.020 Y114.754 E3.25505
G1 X142.301 Y114.861 E3.31019
G1 X141.575 Y114.825 E3.36534
G1 X140.870 Y114.649 E3.42045
G1 X140.213 Y114.337 E3.47564
G1 X139.629 Y113.904 E3.53083
G1 X139.141 Y113.366 E3.58594
G1 X138.767 Y112.742 E3.64113
G1 X138.521 Y112.052 E3.69670
G1 X138.423 Y111.515 E3.73811
G1 X138.409 Y111.232 E3.75964
G1 X138.406 Y111.157 F7800.000
G1 E1.75964 F2400.00000
G92 E0
G1 X157.603 Y111.157 F7800.000
G1 E2.00000 F2400.00000
G1 F1800
G1 X157.620 Y110.799 E2.02722
G1 X157.718 Y110.261 E2.06864
G1 X157.964 Y109.572 E2.12421
G1 X158.338 Y108.948 E2.17939
G1 X158.826 Y108.410 E2.23452
G1 X159.410 Y107.976 E2.28973
G1 X160.067 Y107.665 E2.34487
G1 X160.772 Y107.489 E2.40000
G1 X161.498 Y107.453 E2.45516
G1 X162.215 Y107.560 E2.51013
G1 X162.902 Y107.805 E2.56546
G1 X163.525 Y108.178 E2.62063
G1 X164.064 Y108.666 E2.67575
G1 X164.497 Y109.251 E2.73094
G1 X164.808 Y109.908 E2.78612
G1 X164.985 Y110.618 E2.84166
G1 X165.029 Y111.157 E2.88268
G1 X164.985 Y111.696 E2.92369
G1 X164.808 Y112.406 E2.97922
G1 X164.497 Y113.063 E3.03441
G1 X164.063 Y113.647 E3.08959
G1 X163.525 Y114.135 E3.14470
G1 X162.902 Y114.509 E3.19987
G1 X162.217 Y114.754 E3.25505
G1 X161.498 Y114.861 E3.31019
G1 X160.772 Y114.825 E3.36534
G1 X160.067 Y114.649 E3.42046
G1 X159.410 Y114.337 E3.47564
G1 X158.826 Y113.904 E3.53083
G1 X158.338 Y113.366 E3.58595
G1 X157.964 Y112.742 E3.64113
G1 X157.718 Y112.052 E3.69670
G1 X157.620 Y111.515 E3.73812
G1 X157.606 Y111.232 E3.75964
G1 X157.589 Y111.149 F7800.000
G1 E1.75964 F2400.00000
G92 E0
G1 X176.152 Y111.116 F7800.000
G1 E2.00000 F2400.00000
G1 F1800
G1 X176.169 Y110.758 E2.02722
G1 X176.267 Y110.221 E2.06863
G1 X176.513 Y109.531 E2.12423
G1 X176.887 Y108.907 E2.17940
G1 X177.375 Y108.369 E2.23451
G1 X177.959 Y107.936 E2.28970
G1 X178.616 Y107.625 E2.34488
G1 X179.321 Y107.448 E2.39999
G1 X180.049 Y107.413 E2.45532
G1 X180.766 Y107.519 E2.51030
G1 X181.450 Y107.764 E2.56545
G1 X182.074 Y108.138 E2.62064
G1 X182.613 Y108.626 E2.67576
G1 X183.046 Y109.210 E2.73095
G1 X183.357 Y109.867 E2.78613
G1 X183.534 Y110.578 E2.84167
G1 X183.578 Y111.116 E2.88269
G1 X183.534 Y111.655 E2.92371
G1 X183.357 Y112.365 E2.97924
G1 X183.046 Y113.023 E3.03442
G1 X182.612 Y113.607 E3.08961
G1 X182.074 Y114.095 E3.14472
G1 X181.451 Y114.468 E3.19989
G1 X180.766 Y114.713 E3.25507
G1 X180.047 Y114.820 E3.31021
G1 X179.321 Y114.784 E3.36537
G1 X178.616 Y114.608 E3.42048
G1 X177.959 Y114.297 E3.47567
G1 X177.375 Y113.863 E3.53086
G1 X176.887 Y113.326 E3.58597
G1 X176.513 Y112.702 E3.64113
G1 X176.267 Y112.012 E3.69674
G1 X176.169 Y111.475 E3.73815
G1 X176.155 Y111.191 E3.75968
G1 X176.138 Y111.108 F7800.000
G1 Z0.530 F7800.000
G1 E1.75968 F2400.00000
G92 E0
G1 X67.991 Y111.197 F7800.000
G1 E2.00000 F2400.00000
G1 F900
G1 X67.947 Y111.736 E2.03222
G1 X67.770 Y112.446 E2.07586
G1 X67.459 Y113.103 E2.11918
G1 X67.026 Y113.688 E2.16255
G1 X66.487 Y114.176 E2.20585
G1 X65.864 Y114.549 E2.24920
G1 X65.180 Y114.794 E2.29250
G1 X64.460 Y114.901 E2.33586
G1 X63.734 Y114.865 E2.37919
G1 X63.029 Y114.689 E2.42249
G1 X62.372 Y114.378 E2.46584
G1 X61.788 Y113.945 E2.50919
G1 X61.300 Y113.407 E2.55249
G1 X60.926 Y112.783 E2.59582
G1 X60.680 Y112.093 E2.63951
G1 X60.582 Y111.556 E2.67204
G1 X60.565 Y111.197 E2.69342
G1 X60.582 Y110.839 E2.71480
G1 X60.680 Y110.302 E2.74733
G1 X60.926 Y109.612 E2.79101
G1 X61.300 Y108.988 E2.83435
G1 X61.788 Y108.450 E2.87764
G1 X62.372 Y108.017 E2.92100
G1 X63.029 Y107.706 E2.96435
G1 X63.734 Y107.530 E3.00764
G1 X64.460 Y107.494 E3.05097
G1 X65.174 Y107.599 E3.09397
G1 X65.864 Y107.845 E3.13763
G1 X66.487 Y108.219 E3.18097
G1 X67.026 Y108.707 E3.22428
G1 X67.459 Y109.291 E3.26766
G1 X67.770 Y109.948 E3.31097
G1 X67.947 Y110.659 E3.35461
G1 X67.986 Y111.123 E3.38236
G1 X67.991 Y111.197 F7800.000
G1 E1.38236 F2400.00000
G92 E0
G1 X49.928 Y111.197 F7800.000
G1 E2.00000 F2400.00000
G1 F900
G1 X49.884 Y111.736 E2.03222
G1 X49.707 Y112.446 E2.07586
G1 X49.396 Y113.103 E2.11918
G1 X48.963 Y113.688 E2.16255
G1 X48.424 Y114.176 E2.20585
G1 X47.801 Y114.549 E2.24920
G1 X47.117 Y114.794 E2.29250
G1 X46.397 Y114.901 E2.33586
G1 X45.671 Y114.865 E2.37919
G1 X44.966 Y114.689 E2.42249
G1 X44.309 Y114.378 E2.46584
G1 X43.725 Y113.945 E2.50920
G1 X43.237 Y113.407 E2.55249
G1 X42.863 Y112.783 E2.59583
G1 X42.617 Y112.093 E2.63951
G1 X42.519 Y111.556 E2.67204
G1 X42.502 Y111.197 E2.69342
G1 X42.519 Y110.839 E2.71481
G1 X42.617 Y110.302 E2.74733
G1 X42.863 Y109.612 E2.79102
G1 X43.237 Y108.988 E2.83436
G1 X43.725 Y108.450 E2.87766
G1 X44.309 Y108.016 E2.92103
G1 X44.966 Y107.706 E2.96435
G1 X45.671 Y107.530 E3.00764
G1 X46.403 Y107.494 E3.05135
G1 X47.117 Y107.601 E3.09435
G1 X47.800 Y107.845 E3.13763
G1 X48.424 Y108.219 E3.18098
G1 X48.963 Y108.707 E3.22429
G1 X49.396 Y109.291 E3.26767
G1 X49.707 Y109.948 E3.31099
G1 X49.884 Y110.659 E3.35462
G1 X49.923 Y111.123 E3.38238
G1 X49.928 Y111.197 F7800.000
G1 E1.38238 F2400.00000
G92 E0
G1 X79.600 Y111.157 F7800.000
G1 E2.00000 F2400.00000
G1 F900
G1 X79.617 Y110.799 E2.02138
G1 X79.715 Y110.261 E2.05392
G1 X79.961 Y109.572 E2.09758
G1 X80.335 Y108.948 E2.14093
G1 X80.823 Y108.410 E2.18424
G1 X81.407 Y107.976 E2.22761
G1 X82.064 Y107.665 E2.27093
G1 X82.769 Y107.489 E2.31424
G1 X83.495 Y107.453 E2.35757
G1 X84.208 Y107.559 E2.40052
G1 X84.899 Y107.805 E2.44423
G1 X85.522 Y108.178 E2.48756
G1 X86.061 Y108.666 E2.53087
G1 X86.494 Y109.251 E2.57422
G1 X86.805 Y109.908 E2.61757
G1 X86.982 Y110.618 E2.66120
G1 X87.026 Y111.157 E2.69342
G1 X86.982 Y111.696 E2.72565
G1 X86.805 Y112.406 E2.76927
G1 X86.494 Y113.063 E2.81262
G1 X86.060 Y113.647 E2.85598
G1 X85.522 Y114.135 E2.89927
G1 X84.899 Y114.509 E2.94261
G1 X84.214 Y114.754 E2.98596
G1 X83.495 Y114.861 E3.02927
G1 X82.769 Y114.825 E3.07261
G1 X82.064 Y114.649 E3.11590
G1 X81.407 Y114.337 E3.15926
G1 X80.823 Y113.904 E3.20261
G1 X80.335 Y113.366 E3.24591
G1 X79.961 Y112.742 E3.28926
G1 X79.715 Y112.052 E3.33292
G1 X79.617 Y111.515 E3.36546
G1 X79.603 Y111.232 E3.38237
G1 X79.586 Y111.149 F7800.000
G1 E1.38237 F2400.00000
G92 E0
G1 X98.797 Y111.157 F7800.000
G1 E2.00000 F2400.00000
G1 F900
