; generated by Slic3r 1.3.1-dev on 2020-12-19 at 13:50:15

; external perimeters extrusion width = 0.55mm (3.45mm^3/s)
; perimeters extrusion width = 0.70mm (8.98mm^3/s)
; infill extrusion width = 0.63mm (10.59mm^3/s)
; solid infill extrusion width = 0.70mm (2.99mm^3/s)
; top infill extrusion width = 0.70mm (2.24mm^3/s)

M107
M190 S60 ; set bed temperature and wait for it to be reached
M104 S200 ; set temperature
G28 ; home all axes
G1 Z5 F5000 ; lift nozzle

; Filament gcode

M109 S200 ; set temperature and wait for it to be reached
G21 ; set units to millimeters
G90 ; use absolute coordinates
M82 ; use absolute distances for extrusion
G92 E0
G92 E0
G1 Z0.300 F7800.000
G1 E-2.00000 F2400.00000
G92 E0
G1 X86.340 Y91.588 F7800.000
G1 E2.00000 F2400.00000
G1 F1800
G1 X87.507 Y90.602 E2.10202
G1 X88.709 Y89.694 E2.20265
G1 X90.383 Y88.592 E2.33656
G1 X91.804 Y87.774 E2.44608
G1 X99.588 Y83.711 E3.03272
G1 X100.252 Y83.393 E3.08191
G1 X101.442 Y82.969 E3.16629
G1 X102.285 Y82.758 E3.22432
G1 X103.382 Y82.581 E3.29856
G1 X113.639 Y81.818 E3.98569
G1 X114.065 Y81.807 E4.01414
G1 X115.260 Y81.887 E4.09412
G1 X116.071 Y82.017 E4.14905
G1 X117.055 Y82.253 E4.21665
G1 X120.417 Y83.343 E4.45275
G1 X121.431 Y83.769 E4.52623
G1 X122.579 Y84.383 E4.61318
G1 X129.134 Y88.341 E5.12474
G1 X130.302 Y89.128 E5.21883
G1 X131.245 Y89.864 E5.29871
G1 X137.138 Y95.094 E5.82510
G1 X137.471 Y95.426 E5.85650
G1 X137.863 Y95.860 E5.89558
G1 X138.196 Y96.275 E5.93112
G1 X138.458 Y96.637 E5.96101
G1 X138.781 Y97.141 E6.00097
G1 X139.067 Y97.649 E6.03988
G1 X142.917 Y105.162 E6.60390
G1 X143.158 Y105.687 E6.64246
G1 X143.465 Y106.444 E6.69703
G1 X143.906 Y108.198 E6.81790
G1 X143.993 Y109.011 E6.87247
G1 X143.977 Y110.549 E6.97523
G1 X141.545 Y129.379 E8.24361
G1 X141.006 Y131.262 E8.37452
G1 X140.454 Y132.467 E8.46302
G1 X140.070 Y133.184 E8.51735
G1 X139.646 Y133.870 E8.57128
G1 X138.627 Y135.134 E8.67973
G1 X138.046 Y135.695 E8.73366
G1 X136.747 Y136.669 E8.84212
G1 X136.046 Y137.069 E8.89608
G1 X134.547 Y137.692 E9.00450
G1 X133.769 Y137.908 E9.05843
G1 X132.163 Y138.142 E9.16688
G1 X131.356 Y138.159 E9.22081
G1 X110.326 Y138.195 E10.62574
G1 X88.790 Y138.187 E12.06442
G1 X87.922 Y138.169 E12.12242
G1 X86.320 Y137.931 E12.23062
G1 X85.628 Y137.738 E12.27864
G1 X84.133 Y137.113 E12.38685
G1 X83.509 Y136.756 E12.43490
G1 X82.215 Y135.783 E12.54308
G1 X81.698 Y135.283 E12.59110
G1 X80.682 Y134.022 E12.69931
G1 X80.304 Y133.410 E12.74732
G1 X79.921 Y132.695 E12.80153
G1 X79.265 Y131.262 E12.90678
G1 X78.747 Y129.527 E13.02777
G1 X76.118 Y112.284 E14.19302
G1 X76.018 Y111.475 E14.24749
G1 X76.051 Y109.639 E14.37012
G1 X76.180 Y108.835 E14.42456
G1 X76.722 Y107.081 E14.54720
G1 X77.070 Y106.344 E14.60163
G1 X82.216 Y96.586 E15.33862
G1 X82.639 Y95.893 E15.39285
G1 X83.537 Y94.608 E15.49761
G1 X84.048 Y93.967 E15.55236
G1 X85.257 Y92.632 E15.67267
G1 X85.637 Y92.246 E15.70886
G1 X86.285 Y91.639 E15.76821
G1 E13.76821 F2400.00000
G92 E0
G1 X134.562 Y113.492 F7800.000
G1 E2.00000 F2400.00000
G1 F1800
G1 X133.848 Y114.423 E2.07837
G1 X133.340 Y114.963 E2.12794
G1 X132.791 Y115.432 E2.17615
G1 X132.183 Y115.860 E2.22581
G1 X130.824 Y116.658 E2.33113
G1 X130.036 Y117.069 E2.39049
G1 X130.264 Y117.406 E2.41765
G1 X130.948 Y118.551 E2.50678
G1 X132.023 Y120.810 E2.67391
G1 X132.782 Y123.115 E2.83598
G1 X133.243 Y125.491 E2.99772
G1 X133.416 Y128.141 E3.17511
G1 X132.980 Y129.094 E3.24515
G1 X132.832 Y129.342 E3.26442
G1 X132.613 Y129.582 E3.28614
G1 X132.345 Y129.773 E3.30809
G1 X132.045 Y129.906 E3.33003
G1 X131.727 Y129.973 E3.35175
G1 X131.434 Y129.974 E3.37130
G1 X129.869 Y129.796 E3.47657
G1 X128.500 Y129.597 E3.56895
G1 X127.300 Y129.376 E3.65048
G1 X126.187 Y129.108 E3.72699
G1 X125.163 Y128.791 E3.79857
G1 X123.171 Y128.090 E3.93967
G1 X122.150 Y127.799 E4.01060
G1 X121.113 Y127.575 E4.08146
G1 X120.077 Y127.452 E4.15111
G1 X119.087 Y127.416 E4.21730
G1 X118.200 Y127.466 E4.27664
G1 X116.655 Y127.761 E4.38173
G1 X115.316 Y128.310 E4.47845
G1 X114.645 Y128.711 E4.53067
G1 X113.648 Y129.425 E4.61255
G1 X113.327 Y129.599 E4.63695
G1 X112.944 Y129.726 E4.66392
G1 X112.581 Y129.762 E4.68824
G1 X112.236 Y129.720 E4.71146
G1 X111.953 Y129.624 E4.73146
G1 X111.572 Y129.398 E4.76105
G1 X111.256 Y129.684 E4.78954
G1 X110.829 Y129.909 E4.82177
G1 X110.522 Y129.983 E4.84287
G1 X110.135 Y129.996 E4.86871
G1 X109.629 Y129.866 E4.90358
G1 X109.224 Y129.643 E4.93447
G1 X108.874 Y129.379 E4.96375
G1 X108.172 Y128.784 E5.02526
G1 X107.775 Y129.141 E5.06095
G1 X107.364 Y129.380 E5.09266
G1 X106.775 Y129.411 E5.13208
G1 X106.346 Y129.221 E5.16345
G1 X105.542 Y128.656 E5.22909
G1 X104.877 Y128.269 E5.28051
G1 X103.534 Y127.738 E5.37695
G1 X101.978 Y127.457 E5.48258
G1 X101.087 Y127.416 E5.54219
G1 X100.097 Y127.460 E5.60840
G1 X99.063 Y127.590 E5.67801
G1 X98.026 Y127.824 E5.74904
G1 X96.995 Y128.126 E5.82076
G1 X94.963 Y128.839 E5.96470
G1 X93.916 Y129.152 E6.03766
G1 X92.784 Y129.415 E6.11528
G1 X91.566 Y129.630 E6.19792
G1 X90.175 Y129.824 E6.29174
G1 X88.542 Y130.005 E6.40151
G1 X88.114 Y129.959 E6.43028
G1 X87.666 Y129.703 E6.46473
G1 X87.413 Y129.360 E6.49324
G1 X86.855 Y128.141 E6.58278
G1 X87.029 Y125.491 E6.76022
G1 X87.489 Y123.115 E6.92192
G1 X88.226 Y120.858 E7.08051
G1 X89.324 Y118.549 E7.25133
G1 X90.009 Y117.403 E7.34049
G1 X90.226 Y117.083 E7.36629
G1 X87.456 Y115.773 E7.57102
G1 X86.814 Y115.354 E7.62216
G1 X86.214 Y114.851 E7.67448
G1 X85.990 Y114.550 E7.69959
G1 X85.866 Y114.149 E7.72762
G1 X85.879 Y113.791 E7.75153
G1 X85.999 Y113.281 E7.78655
G1 X86.143 Y112.805 E7.81976
G1 X85.656 Y112.504 E7.85798
G1 X84.520 Y111.599 E7.95504
G1 X84.250 Y111.219 E7.98616
G1 X84.149 Y110.703 E8.02133
G1 X84.269 Y110.190 E8.05649
G1 X84.523 Y109.858 E8.08443
G1 X85.676 Y108.785 E8.18963
G1 X86.564 Y107.772 E8.27961
G1 X87.256 Y106.737 E8.36281
G1 X87.758 Y105.654 E8.44260
G1 X88.108 Y104.463 E8.52549
G1 X88.402 Y103.142 E8.61588
G1 X88.795 Y101.783 E8.71039
G1 X89.460 Y100.422 E8.81161
G1 X90.537 Y98.977 E8.93196
G1 X91.282 Y98.193 E9.00426
G1 X92.156 Y97.389 E9.08356
G1 X93.186 Y96.578 E9.17113
G1 X94.371 Y95.764 E9.26720
G1 X95.635 Y95.024 E9.36508
G1 X96.961 Y94.364 E9.46402
G1 X98.241 Y93.838 E9.55645
G1 X99.473 Y93.436 E9.64305
G1 X100.621 Y93.147 E9.72209
G1 X101.476 Y93.000 E9.78006
G1 X102.700 Y91.542 E9.90724
G1 X103.160 Y91.124 E9.94874
G1 X103.450 Y90.940 E9.97171
G1 X103.761 Y90.810 E9.99424
G1 X104.110 Y90.741 E10.01801
G1 X104.478 Y90.755 E10.04258
G1 X104.828 Y90.844 E10.06671
G1 X105.141 Y90.992 E10.08984
G1 X105.417 Y91.177 E10.11201
G1 X106.269 Y91.912 E10.18725
G1 X107.508 Y91.175 E10.28355
G1 X108.190 Y90.843 E10.33423
G1 X108.609 Y90.675 E10.36436
G1 X109.432 Y90.440 E10.42158
G1 X109.900 Y90.354 E10.45336
G1 X110.384 Y90.301 E10.48590
G1 X111.779 Y90.275 E10.57909
G1 X112.156 Y90.868 E10.62602
G1 X112.646 Y90.510 E10.66658
G1 X113.203 Y90.208 E10.70892
G1 X113.547 Y90.082 E10.73334
G1 X113.914 Y90.009 E10.75838
G1 X114.297 Y90.008 E10.78393
G1 X114.679 Y90.094 E10.81011
G1 X115.023 Y90.277 E10.83616
G1 X115.301 Y90.532 E10.86131
G1 X115.495 Y90.799 E10.88337
G1 X115.596 Y90.994 E10.89809
G1 X115.930 Y90.952 E10.92058
G1 X116.210 Y90.945 E10.93930
G1 X117.475 Y91.044 E11.02407
G1 X117.846 Y91.120 E11.04934
G1 X118.184 Y91.297 E11.07485
G1 X119.630 Y92.320 E11.19314
G1 X121.282 Y93.388 E11.32456
G1 X122.040 Y93.823 E11.38294
G1 X124.033 Y94.852 E11.53282
G1 X124.756 Y95.266 E11.58844
G1 X125.506 Y95.782 E11.64925
G1 X126.251 Y96.386 E11.71336
G1 X126.657 Y96.769 E11.75063
G1 X127.364 Y97.493 E11.81823
G1 X128.856 Y99.123 E11.96589
G1 X129.659 Y99.926 E12.04174
G1 X129.963 Y100.185 E12.06840
G1 X130.260 Y100.399 E12.09286
G1 X130.511 Y100.530 E12.11180
G1 X131.115 Y100.759 E12.15495
G1 X131.387 Y100.949 E12.17706
G1 X131.609 Y101.165 E12.19779
G1 X131.803 Y101.436 E12.22007
G1 X131.927 Y101.739 E12.24191
G1 X132.027 Y102.183 E12.27234
G1 X132.121 Y103.375 E12.35219
G1 X132.208 Y104.174 E12.40589
G1 X132.315 Y104.907 E12.45537
G1 X132.462 Y105.720 E12.51060
G1 X132.674 Y106.649 E12.57425
G1 X132.864 Y107.155 E12.61036
G1 X133.004 Y107.395 E12.62893
G1 X133.117 Y107.539 E12.64115
G1 X133.281 Y107.701 E12.65654
G1 X133.488 Y107.855 E12.67381
G1 X133.764 Y108.013 E12.69500
G1 X134.111 Y108.158 E12.72013
G1 X134.924 Y108.390 E12.77665
G1 X135.285 Y108.546 E12.80290
G1 X135.636 Y108.906 E12.83649
G1 X135.825 Y109.372 E12.87008
G1 X135.823 Y109.875 E12.90367
G1 X135.668 Y110.250 E12.93079
G1 X135.244 Y110.936 E12.98472
G1 X134.787 Y111.590 E13.03801
G1 X134.177 Y112.307 E13.10087
G1 X134.301 Y112.526 E13.11770
G1 X134.543 Y113.420 E13.17959
G1 E11.17959 F2400.00000
G92 E0
G1 X135.180 Y109.205 F7800.000
G1 E2.00000 F2400.00000
G1 F1800
G1 X135.289 Y109.475 E2.01950
G1 X135.288 Y109.767 E2.03901
G1 X135.190 Y110.005 E2.05619
G1 X134.796 Y110.642 E2.10623
G1 X134.363 Y111.263 E2.15680
G1 X133.849 Y111.866 E2.20973
G1 X133.493 Y112.186 E2.24171
G1 X133.801 Y112.731 E2.28351
G1 X133.976 Y113.377 E2.32820
G1 X133.440 Y114.076 E2.38707
G1 X132.970 Y114.575 E2.43288
G1 X132.462 Y115.008 E2.47748
G1 X131.893 Y115.409 E2.52400
G1 X130.564 Y116.190 E2.62692
G1 X129.255 Y116.872 E2.72554
G1 X129.812 Y117.694 E2.79183
G1 X130.475 Y118.804 E2.87825
G1 X131.525 Y121.010 E3.04144
G1 X132.263 Y123.250 E3.19899
G1 X132.710 Y125.560 E3.35619
G1 X132.873 Y128.041 E3.52229
G1 X132.505 Y128.845 E3.58133
G1 X132.400 Y129.021 E3.59504
G1 X132.255 Y129.179 E3.60935
G1 X132.078 Y129.305 E3.62388
G1 X131.880 Y129.394 E3.63841
G1 X131.670 Y129.437 E3.65272
G1 X131.463 Y129.439 E3.66653
G1 X129.938 Y129.264 E3.76911
G1 X128.587 Y129.068 E3.86027
G1 X127.411 Y128.852 E3.94015
G1 X126.328 Y128.591 E4.01455
G1 X125.331 Y128.283 E4.08431
G1 X123.333 Y127.580 E4.22580
G1 X122.280 Y127.279 E4.29897
G1 X121.201 Y127.046 E4.37270
G1 X120.119 Y126.918 E4.44552
G1 X119.082 Y126.880 E4.51482
G1 X118.135 Y126.933 E4.57819
G1 X116.502 Y127.245 E4.68925
G1 X115.075 Y127.830 E4.79224
G1 X114.351 Y128.263 E4.84863
G1 X113.364 Y128.970 E4.92974
G1 X113.114 Y129.105 E4.94874
G1 X112.831 Y129.198 E4.96860
G1 X112.587 Y129.223 E4.98501
G1 X112.356 Y129.195 E5.00056
G1 X112.178 Y129.135 E5.01313
G1 X111.971 Y129.012 E5.02921
G1 X111.565 Y128.587 E5.06845
G1 X111.213 Y129.001 E5.10477
G1 X110.946 Y129.242 E5.12879
G1 X110.639 Y129.404 E5.15203
G1 X110.449 Y129.449 E5.16503
G1 X110.194 Y129.458 E5.18209
G1 X109.828 Y129.364 E5.20733
G1 X109.516 Y129.192 E5.23113
G1 X109.209 Y128.961 E5.25680
G1 X108.524 Y128.380 E5.31683
G1 X108.250 Y128.217 E5.33812
G1 X108.158 Y128.206 E5.34430
G1 X108.044 Y128.242 E5.35226
G1 X107.790 Y128.407 E5.37249
G1 X107.458 Y128.706 E5.40235
G1 X107.207 Y128.852 E5.42176
G1 X106.875 Y128.870 E5.44394
G1 X106.611 Y128.752 E5.46322
G1 X105.831 Y128.205 E5.52691
G1 X105.111 Y127.786 E5.58254
G1 X103.682 Y127.220 E5.68524
G1 X102.039 Y126.924 E5.79679
G1 X101.088 Y126.879 E5.86039
G1 X100.051 Y126.926 E5.92969
G1 X98.970 Y127.062 E6.00248
G1 X97.892 Y127.306 E6.07635
G1 X96.832 Y127.615 E6.15014
G1 X94.797 Y128.330 E6.29419
G1 X93.779 Y128.634 E6.36518
G1 X92.677 Y128.890 E6.44072
G1 X91.482 Y129.100 E6.52178
G1 X90.109 Y129.293 E6.61444
G1 X88.541 Y129.466 E6.71982
G1 X88.282 Y129.438 E6.73719
G1 X88.030 Y129.294 E6.75660
G1 X87.877 Y129.086 E6.77388
G1 X87.398 Y128.041 E6.85066
G1 X87.561 Y125.559 E7.01680
G1 X88.009 Y123.249 E7.17402
G1 X88.724 Y121.057 E7.32809
G1 X89.797 Y118.802 E7.49491
G1 X90.461 Y117.691 E7.58135
G1 X91.014 Y116.875 E7.64718
G1 X89.923 Y116.337 E7.72844
G1 X88.175 Y115.533 E7.85697
G1 X87.723 Y115.307 E7.89076
G1 X87.134 Y114.923 E7.93772
G1 X86.606 Y114.481 E7.98368
G1 X86.475 Y114.304 E7.99846
G1 X86.404 Y114.077 E8.01428
G1 X86.412 Y113.863 E8.02863
G1 X86.516 Y113.420 E8.05903
G1 X86.638 Y113.018 E8.08711
G1 X86.834 Y112.571 E8.11970
G1 X86.517 Y112.407 E8.14352
G1 X85.965 Y112.065 E8.18688
G1 X84.913 Y111.228 E8.27673
G1 X84.754 Y111.003 E8.29509
G1 X84.697 Y110.712 E8.31490
G1 X84.764 Y110.424 E8.33472
G1 X84.921 Y110.219 E8.35193
G1 X86.060 Y109.159 E8.45591
G1 X86.990 Y108.099 E8.55004
G1 X87.725 Y107.000 E8.63838
G1 X88.261 Y105.843 E8.72362
G1 X88.627 Y104.597 E8.81034
G1 X88.921 Y103.275 E8.90081
G1 X89.297 Y101.977 E8.99111
G1 X89.920 Y100.702 E9.08589
G1 X90.947 Y99.323 E9.20077
G1 X91.658 Y98.575 E9.26972
G1 X92.503 Y97.797 E9.34644
G1 X93.503 Y97.010 E9.43148
G1 X94.658 Y96.216 E9.52509
G1 X95.890 Y95.495 E9.62044
G1 X97.183 Y94.853 E9.71688
G1 X98.426 Y94.341 E9.80671
G1 X99.622 Y93.951 E9.89074
G1 X100.732 Y93.672 E9.96719
G1 X101.760 Y93.495 E10.03690
G1 X103.086 Y91.914 E10.17475
G1 X103.485 Y91.552 E10.21073
G1 X103.698 Y91.417 E10.22758
G1 X103.918 Y91.325 E10.24348
G1 X104.153 Y91.279 E10.25950
G1 X104.401 Y91.288 E10.27606
G1 X104.645 Y91.350 E10.29289
G1 X104.876 Y91.460 E10.30995
G1 X105.092 Y91.604 E10.32730
G1 X105.864 Y92.270 E10.39540
G1 X106.139 Y92.441 E10.41706
G1 X106.276 Y92.470 E10.42642
G1 X106.501 Y92.398 E10.44219
G1 X107.762 Y91.647 E10.54029
G1 X108.407 Y91.333 E10.58818
G1 X108.782 Y91.183 E10.61518
G1 X109.554 Y90.962 E10.66882
G1 X109.978 Y90.885 E10.69757
G1 X110.419 Y90.836 E10.72720
G1 X111.488 Y90.816 E10.79869
G1 X111.863 Y91.406 E10.84537
G1 X112.002 Y91.716 E10.86805
G1 X112.532 Y91.257 E10.91490
G1 X112.933 Y90.964 E10.94812
G1 X113.425 Y90.697 E10.98548
G1 X113.692 Y90.599 E11.00450
G1 X113.968 Y90.545 E11.02327
G1 X114.238 Y90.544 E11.04135
G1 X114.491 Y90.600 E11.05864
G1 X114.711 Y90.718 E11.07532
G1 X114.899 Y90.890 E11.09236
G1 X115.038 Y91.081 E11.10812
G1 X115.150 Y91.298 E11.12441
G1 X115.269 Y91.616 E11.14711
G1 X115.588 Y91.535 E11.16903
G1 X115.970 Y91.487 E11.19482
G1 X116.196 Y91.481 E11.20989
G1 X117.400 Y91.575 E11.29058
G1 X117.664 Y91.630 E11.30859
G1 X117.904 Y91.755 E11.32668
G1 X119.330 Y92.763 E11.44333
G1 X121.003 Y93.845 E11.57642
G1 X121.783 Y94.294 E11.63655
G1 X123.777 Y95.322 E11.78645
G1 X124.470 Y95.720 E11.83982
G1 X125.185 Y96.211 E11.89776
G1 X125.898 Y96.789 E11.95909
G1 X126.281 Y97.151 E11.99427
G1 X126.975 Y97.861 E12.06058
G1 X128.469 Y99.494 E12.20847
G1 X129.296 Y100.320 E12.28652
G1 X129.632 Y100.607 E12.31607
G1 X129.978 Y100.856 E12.34454
G1 X130.291 Y101.020 E12.36816
G1 X130.863 Y101.236 E12.40902
G1 X131.045 Y101.363 E12.42380
G1 X131.201 Y101.515 E12.43839
G1 X131.331 Y101.697 E12.45330
G1 X131.414 Y101.900 E12.46797
G1 X131.496 Y102.263 E12.49284
G1 X131.587 Y103.425 E12.57068
G1 X131.677 Y104.241 E12.62556
G1 X131.786 Y104.993 E12.67630
G1 X131.937 Y105.828 E12.73296
G1 X132.158 Y106.796 E12.79930
G1 X132.288 Y107.174 E12.82604
G1 X132.386 Y107.399 E12.84240
G1 X132.561 Y107.698 E12.86553
G1 X132.717 Y107.896 E12.88238
G1 X132.931 Y108.108 E12.90250
G1 X133.195 Y108.305 E12.92450
G1 X133.527 Y108.494 E12.95002
G1 X133.933 Y108.665 E12.97946
G1 X134.744 Y108.896 E13.03580
G1 X134.975 Y108.996 E13.05266
G1 X135.127 Y109.151 E13.06716
G1 X135.471 Y109.190 F7800.000
G1 E11.06716 F2400.00000
G92 E0
G1 X131.289 Y117.408 F7800.000
G1 E2.00000 F2400.00000
G1 F1800
G1 X132.283 Y119.346 E2.14548
G1 X132.823 Y120.587 E2.23591
G1 X133.639 Y123.138 E2.41483
G1 X134.109 Y125.783 E2.59429
G1 X134.211 Y127.131 E2.68461
G1 X134.226 Y128.364 E2.76698
G1 X133.774 Y129.350 E2.83947
G1 X133.432 Y129.904 E2.88293
G1 X133.002 Y130.319 E2.92289
G1 X132.482 Y130.616 E2.96284
G1 X131.906 Y130.775 E3.00280
G1 X131.259 Y130.788 E3.04601
G1 X129.810 Y130.624 E3.14344
G1 X128.465 Y130.430 E3.23421
G1 X126.177 Y129.963 E3.39021
G1 X124.447 Y129.430 E3.51116
G1 X123.107 Y128.949 E3.60625
G1 X121.795 Y128.554 E3.69779
G1 X120.262 Y128.296 E3.80165
