; generated by Slic3r 1.3.1-dev on 2021-01-17 at 00:26:20

; external perimeters extrusion width = 0.55mm (3.45mm^3/s)
; perimeters extrusion width = 0.70mm (8.98mm^3/s)
; infill extrusion width = 0.63mm (10.59mm^3/s)
; solid infill extrusion width = 0.70mm (2.99mm^3/s)
; top infill extrusion width = 0.70mm (2.24mm^3/s)

M107
M190 S60 ; set bed temperature and wait for it to be reached
M104 S200 ; set temperature
G28 ; home all axes
G1 Z5 F5000 ; lift nozzle

; Filament gcode

M109 S200 ; set temperature and wait for it to be reached
G21 ; set units to millimeters
G90 ; use absolute coordinates
M82 ; use absolute distances for extrusion
G92 E0
G92 E0
G1 Z0.300 F7800.000
G1 E-2.00000 F2400.00000
G92 E0
G1 X77.128 Y92.140 F7800.000
G1 E2.00000 F2400.00000
G1 F1800
G1 X80.375 Y91.277 E2.22443
G1 X145.375 Y91.277 E6.56678
G1 X147.618 Y91.674 E6.71895
G1 X149.588 Y92.816 E6.87112
G1 X151.047 Y94.566 E7.02329
G1 X151.911 Y97.812 E7.24772
G1 X151.911 Y107.811 E7.91564
G1 X151.514 Y110.053 E8.06782
G1 X150.371 Y112.024 E8.21999
G1 X148.622 Y113.483 E8.37216
G1 X145.375 Y114.346 E8.59659
G1 X80.375 Y114.346 E12.93894
G1 X78.132 Y113.949 E13.09111
G1 X76.162 Y112.807 E13.24328
G1 X74.703 Y111.057 E13.39545
G1 X73.839 Y107.811 E13.61988
G1 X73.839 Y97.812 E14.28780
G1 X74.236 Y95.570 E14.43997
G1 X75.379 Y93.599 E14.59214
G1 X77.071 Y92.188 E14.73931
G1 E12.73931 F2400.00000
G92 E0
G1 X144.004 Y106.439 F7800.000
G1 E2.00000 F2400.00000
G1 F1800
G1 X81.746 Y106.439 E6.15914
G1 X81.746 Y99.184 E6.64385
G1 X144.004 Y99.184 E10.80299
G1 X144.004 Y106.364 E11.28269
G1 X144.539 Y106.975 F7800.000
G1 F1800
G1 X81.211 Y106.975 E15.51339
G1 X81.211 Y98.648 E16.06966
G1 X144.539 Y98.648 E20.30037
G1 X144.539 Y106.900 E20.85163
G1 X145.075 Y107.511 F7800.000
G1 F1800
G1 X80.675 Y107.511 E25.15390
G1 X80.675 Y98.112 E25.78173
G1 X145.075 Y98.112 E30.08400
G1 X145.075 Y107.436 E30.70683
G1 X144.576 Y107.486 F7800.000
G1 E28.70683 F2400.00000
G92 E0
G1 X143.676 Y105.107 F7800.000
G1 E2.00000 F2400.00000
G1 F1800
G1 X142.672 Y106.112 E2.09492
G1 X141.914 Y106.112 F7800.000
G1 F1800
G1 X143.676 Y104.350 E2.26141
G1 X143.676 Y103.592 F7800.000
G1 F1800
G1 X141.157 Y106.112 E2.49946
G1 X140.399 Y106.112 F7800.000
G1 F1800
G1 X143.676 Y102.835 E2.80908
G1 X143.676 Y102.077 F7800.000
G1 F1800
G1 X139.642 Y106.112 E3.19026
G1 X138.884 Y106.112 F7800.000
G1 F1800
G1 X143.676 Y101.320 E3.64300
G1 X143.676 Y100.562 F7800.000
G1 F1800
G1 X138.127 Y106.112 E4.16731
G1 X137.369 Y106.112 F7800.000
G1 F1800
G1 X143.676 Y99.805 E4.76319
G1 X143.213 Y99.511 F7800.000
G1 F1800
G1 X136.612 Y106.112 E5.38683
G1 X135.854 Y106.112 F7800.000
G1 F1800
G1 X142.455 Y99.511 E6.01046
G1 X141.698 Y99.511 F7800.000
G1 F1800
G1 X135.097 Y106.112 E6.63410
G1 X134.339 Y106.112 F7800.000
G1 F1800
G1 X140.940 Y99.511 E7.25774
G1 X140.183 Y99.511 F7800.000
G1 F1800
G1 X133.582 Y106.112 E7.88138
G1 X132.825 Y106.112 F7800.000
G1 F1800
G1 X139.425 Y99.511 E8.50502
G1 X138.668 Y99.511 F7800.000
G1 F1800
G1 X132.067 Y106.112 E9.12865
G1 X131.310 Y106.112 F7800.000
G1 F1800
G1 X137.911 Y99.511 E9.75229
G1 X137.153 Y99.511 F7800.000
G1 F1800
G1 X130.552 Y106.112 E10.37593
G1 X129.795 Y106.112 F7800.000
G1 F1800
G1 X136.396 Y99.511 E10.99957
G1 X135.638 Y99.511 F7800.000
G1 F1800
G1 X129.037 Y106.112 E11.62321
G1 X128.280 Y106.112 F7800.000
G1 F1800
G1 X134.569 Y99.823 E12.21739
G1 X120.177 Y99.823 E13.17887
G1 X120.177 Y99.425 E13.20545
G1 X119.641 Y99.425 F7800.000
G1 F1800
G1 X119.641 Y100.358 E13.26782
G1 X133.276 Y100.358 E14.17869
G1 X127.522 Y106.112 E14.72228
G1 X126.765 Y106.112 F7800.000
G1 F1800
G1 X131.983 Y100.894 E15.21526
G1 X119.106 Y100.894 E16.07552
G1 X119.106 Y99.425 E16.17367
G1 X118.570 Y99.425 F7800.000
G1 F1800
G1 X118.570 Y101.430 E16.30761
G1 X130.690 Y101.430 E17.11727
G1 X126.007 Y106.112 E17.55965
G1 X125.250 Y106.112 F7800.000
G1 F1800
G1 X129.396 Y101.965 E17.95142
G1 X118.034 Y101.965 E18.71047
G1 X118.034 Y99.425 E18.88019
G1 X117.499 Y99.425 F7800.000
G1 F1800
G1 X117.499 Y102.501 E19.08569
G1 X128.103 Y102.501 E19.79414
G1 X124.492 Y106.112 E20.13531
G1 X123.735 Y106.112 F7800.000
G1 F1800
G1 X126.810 Y103.036 E20.42588
G1 X116.963 Y103.036 E21.08373
G1 X116.963 Y99.425 E21.32501
G1 X116.427 Y99.425 F7800.000
G1 F1800
G1 X116.427 Y103.572 E21.60207
G1 X125.517 Y103.572 E22.20932
G1 X122.977 Y106.112 E22.44928
G1 X122.220 Y106.112 F7800.000
G1 F1800
G1 X124.224 Y104.108 E22.63864
G1 X115.892 Y104.108 E23.19528
G1 X115.892 Y99.425 E23.50813
G1 X115.356 Y99.425 F7800.000
G1 F1800
G1 X115.356 Y104.643 E23.85675
G1 X122.931 Y104.643 E24.36279
G1 X121.462 Y106.112 E24.50155
G1 X120.705 Y106.112 F7800.000
G1 F1800
G1 X121.638 Y105.179 E24.58970
G1 X114.821 Y105.179 E25.04513
G1 X114.821 Y99.425 E25.42954
G1 X114.429 Y99.511 F7800.000
G1 F1800
G1 X110.000 Y103.940 E25.84795
G1 X105.571 Y99.511 E26.26635
G1 X105.715 Y99.425 F7800.000
G1 F1800
G1 X105.715 Y105.715 E26.68654
G1 X99.655 Y105.715 E27.09137
G1 X100.053 Y106.112 E27.12892
G1 X99.295 Y106.112 F7800.000
G1 F1800
G1 X98.362 Y105.179 E27.21707
G1 X105.179 Y105.179 E27.67251
G1 X105.179 Y99.425 E28.05692
G1 X104.644 Y99.425 F7800.000
G1 F1800
G1 X104.644 Y104.643 E28.40555
G1 X97.069 Y104.643 E28.91158
G1 X98.538 Y106.112 E29.05034
G1 X97.780 Y106.112 F7800.000
G1 F1800
G1 X95.776 Y104.108 E29.23970
G1 X104.108 Y104.108 E29.79634
G1 X104.108 Y99.425 E30.10918
G1 X103.573 Y99.425 F7800.000
G1 F1800
G1 X103.573 Y103.572 E30.38625
G1 X94.483 Y103.572 E30.99349
G1 X97.023 Y106.112 E31.23345
G1 X96.265 Y106.112 F7800.000
G1 F1800
G1 X93.190 Y103.036 E31.52402
G1 X103.037 Y103.036 E32.18187
G1 X103.037 Y99.425 E32.42315
G1 X102.501 Y99.425 F7800.000
G1 F1800
G1 X102.501 Y102.501 E32.62865
G1 X91.897 Y102.501 E33.33710
G1 X95.508 Y106.112 E33.67827
G1 X94.750 Y106.112 F7800.000
G1 F1800
G1 X90.604 Y101.965 E34.07005
G1 X101.966 Y101.965 E34.82910
G1 X101.966 Y99.425 E34.99882
G1 X101.430 Y99.425 F7800.000
G1 F1800
G1 X101.430 Y101.430 E35.13275
G1 X89.310 Y101.430 E35.94241
G1 X93.993 Y106.112 E36.38479
G1 X93.235 Y106.112 F7800.000
G1 F1800
G1 X88.017 Y100.894 E36.87777
G1 X100.894 Y100.894 E37.73804
G1 X100.894 Y99.425 E37.83619
G1 X100.359 Y99.425 F7800.000
G1 F1800
G1 X100.359 Y100.358 E37.89856
G1 X86.724 Y100.358 E38.80943
G1 X92.478 Y106.112 E39.35301
G1 X91.720 Y106.112 F7800.000
G1 F1800
G1 X85.431 Y99.823 E39.94720
G1 X99.823 Y99.823 E40.90867
G1 X99.823 Y99.425 E40.93526
G1 E38.93526 F2400.00000
G92 E0
G1 X106.329 Y99.511 F7800.000
G1 E2.00000 F2400.00000
G1 F1800
G1 X110.000 Y103.182 E2.34684
G1 X113.671 Y99.511 E2.69368
G1 X114.285 Y99.425 F7800.000
G1 F1800
G1 X114.285 Y105.715 E3.11387
G1 X120.345 Y105.715 E3.51870
G1 X119.947 Y106.112 E3.55625
G1 E1.55625 F2400.00000
G92 E0
G1 X113.749 Y106.198 F7800.000
G1 E2.00000 F2400.00000
G1 F1800
G1 X113.749 Y100.948 E2.35076
G1 X110.000 Y104.697 E2.70498
G1 X106.251 Y100.948 E3.05921
G1 X106.251 Y106.198 E3.40997
G1 X106.786 Y106.198 F7800.000
G1 F1800
G1 X106.786 Y102.241 E3.67434
G1 X110.000 Y105.455 E3.97796
G1 X113.214 Y102.241 E4.28159
G1 X113.214 Y106.198 E4.54596
G1 X112.678 Y106.198 F7800.000
G1 F1800
G1 X112.678 Y103.534 E4.72394
G1 X110.100 Y106.112 E4.96750
G1 X109.900 Y106.112 F7800.000
G1 F1800
G1 X107.322 Y103.534 E5.21106
G1 X107.322 Y106.198 E5.38905
G1 X107.858 Y106.198 F7800.000
G1 F1800
G1 X107.858 Y104.827 E5.48065
G1 X109.142 Y106.112 E5.60204
G1 X110.858 Y106.112 F7800.000
G1 F1800
G1 X112.142 Y104.827 E5.72343
G1 X112.142 Y106.198 E5.81503
G1 E3.81503 F2400.00000
G92 E0
G1 X112.156 Y99.511 F7800.000
G1 E2.00000 F2400.00000
G1 F1800
G1 X110.000 Y101.667 E2.20371
G1 X107.844 Y99.511 E2.40742
G1 X107.086 Y99.511 F7800.000
G1 F1800
G1 X110.000 Y102.425 E2.68270
G1 X112.914 Y99.511 E2.95797
G1 X111.399 Y99.511 F7800.000
G1 F1800
G1 X110.000 Y100.910 E3.09012
G1 X108.601 Y99.511 E3.22227
G1 X109.359 Y99.511 F7800.000
G1 F1800
G1 X110.000 Y100.152 E3.28285
G1 X110.641 Y99.511 E3.34343
G1 E1.34343 F2400.00000
G92 E0
G1 X90.963 Y106.112 F7800.000
G1 E2.00000 F2400.00000
G1 F1800
G1 X84.362 Y99.511 E2.62364
G1 X83.604 Y99.511 F7800.000
G1 F1800
G1 X90.205 Y106.112 E3.24728
G1 X89.448 Y106.112 F7800.000
G1 F1800
G1 X82.847 Y99.511 E3.87091
G1 X82.089 Y99.511 F7800.000
G1 F1800
G1 X88.690 Y106.112 E4.49455
G1 X87.933 Y106.112 F7800.000
G1 F1800
G1 X82.074 Y100.253 E5.04813
G1 X82.074 Y101.010 F7800.000
G1 F1800
G1 X87.175 Y106.112 E5.53015
G1 X86.418 Y106.112 F7800.000
G1 F1800
G1 X82.074 Y101.767 E5.94061
G1 X82.074 Y102.525 F7800.000
G1 F1800
G1 X85.661 Y106.112 E6.27949
G1 X84.903 Y106.112 F7800.000
G1 F1800
G1 X82.074 Y103.282 E6.54682
G1 X82.074 Y104.040 F7800.000
G1 F1800
G1 X84.146 Y106.112 E6.74258
G1 X83.388 Y106.112 F7800.000
G1 F1800
G1 X82.074 Y104.797 E6.86677
G1 X82.074 Y105.555 F7800.000
G1 F1800
G1 X82.631 Y106.112 E6.91940
G1 Z0.530 F7800.000
G1 X143.874 Y106.309 F7800.000
G1 F3600
G1 X81.876 Y106.309 E10.77665
G1 X81.876 Y99.314 E11.21188
G1 X143.874 Y99.314 E15.06913
G1 X143.874 Y106.234 E15.49969
G1 X144.524 Y106.960 F7800.000
G1 F3600
G1 X81.226 Y106.960 E19.43790
G1 X81.226 Y98.663 E19.95409
G1 X144.524 Y98.663 E23.89230
G1 X144.524 Y106.885 E24.40382
G1 X145.100 Y107.536 F7800.000
G1 F1800
G1 X80.650 Y107.536 E27.48922
G1 X80.650 Y98.088 E27.94152
G1 X145.100 Y98.088 E31.02693
G1 X145.100 Y107.461 E31.47564
G1 X144.601 Y107.511 F7800.000
G1 X143.476 Y100.218 F7800.000
G1 F1200
G1 X142.970 Y99.711 E31.52027
G1 X142.048 Y99.711 E31.57776
G1 X143.476 Y101.140 E31.70370
G1 X143.476 Y102.062 E31.76119
G1 X141.126 Y99.711 E31.96843
G1 X140.204 Y99.711 E32.02592
G1 X143.476 Y102.984 E32.31446
G1 X143.476 Y103.906 E32.37195
G1 X139.282 Y99.711 E32.74179
G1 X138.359 Y99.711 E32.79928
G1 X143.476 Y104.828 E33.25043
G1 X143.476 Y105.750 E33.30792
G1 X137.437 Y99.711 E33.84037
G1 X136.515 Y99.711 E33.89785
G1 X142.716 Y105.912 E34.44455
G1 X141.794 Y105.912 E34.50204
G1 X135.593 Y99.711 E35.04873
G1 X134.671 Y99.711 E35.10622
G1 X140.871 Y105.912 E35.65291
G1 X139.949 Y105.912 E35.71040
G1 X133.749 Y99.711 E36.25710
G1 X132.827 Y99.711 E36.31458
G1 X139.027 Y105.912 E36.86128
G1 X138.105 Y105.912 E36.91877
G1 X131.905 Y99.711 E37.46546
G1 X130.983 Y99.711 E37.52295
G1 X137.183 Y105.912 E38.06964
G1 X136.261 Y105.912 E38.12713
G1 X130.061 Y99.711 E38.67383
G1 X129.139 Y99.711 E38.73131
G1 X135.339 Y105.912 E39.27801
G1 X134.417 Y105.912 E39.33550
G1 X128.217 Y99.711 E39.88219
G1 X127.294 Y99.711 E39.93968
G1 X133.495 Y105.912 E40.48637
G1 X132.573 Y105.912 E40.54386
G1 X126.372 Y99.711 E41.09056
G1 X125.450 Y99.711 E41.14804
G1 X131.651 Y105.912 E41.69474
G1 X130.729 Y105.912 E41.75223
G1 X124.528 Y99.711 E42.29892
G1 X123.606 Y99.711 E42.35641
G1 X129.806 Y105.912 E42.90310
G1 X128.884 Y105.912 E42.96059
G1 X122.684 Y99.711 E43.50729
G1 X121.762 Y99.711 E43.56477
G1 X127.962 Y105.912 E44.11147
G1 X127.040 Y105.912 E44.16896
G1 X120.840 Y99.711 E44.71565
G1 X119.918 Y99.711 E44.77314
G1 X126.118 Y105.912 E45.31983
G1 X125.196 Y105.912 E45.37732
G1 X118.996 Y99.711 E45.92402
G1 X118.074 Y99.711 E45.98150
G1 X124.274 Y105.912 E46.52820
G1 X123.352 Y105.912 E46.58569
G1 X117.152 Y99.711 E47.13238
G1 X116.229 Y99.711 E47.18987
G1 X122.430 Y105.912 E47.73656
G1 X121.508 Y105.912 E47.79405
G1 X115.307 Y99.711 E48.34075
G1 X114.385 Y99.711 E48.39823
G1 X120.586 Y105.912 E48.94493
G1 X119.663 Y105.912 E49.00242
G1 X113.463 Y99.711 E49.54911
G1 X112.541 Y99.711 E49.60660
G1 X118.741 Y105.912 E50.15329
G1 X117.819 Y105.912 E50.21078
G1 X111.619 Y99.711 E50.75748
G1 X110.697 Y99.711 E50.81496
G1 X116.897 Y105.912 E51.36166
G1 X115.975 Y105.912 E51.41915
G1 X109.775 Y99.711 E51.96584
G1 X108.853 Y99.711 E52.02333
G1 X115.053 Y105.912 E52.57002
G1 X114.131 Y105.912 E52.62751
G1 X107.931 Y99.711 E53.17421
G1 X107.009 Y99.711 E53.23169
G1 X113.209 Y105.912 E53.77839
G1 X112.287 Y105.912 E53.83588
G1 X106.087 Y99.711 E54.38257
G1 X105.164 Y99.711 E54.44006
G1 X111.365 Y105.912 E54.98675
G1 X110.443 Y105.912 E55.04424
G1 X104.242 Y99.711 E55.59093
G1 X103.320 Y99.711 E55.64842
G1 X109.521 Y105.912 E56.19512
G1 X108.598 Y105.912 E56.25261
G1 X102.398 Y99.711 E56.79930
G1 X101.476 Y99.711 E56.85679
G1 X107.676 Y105.912 E57.40348
G1 X106.754 Y105.912 E57.46097
G1 X100.554 Y99.711 E58.00767
G1 X99.632 Y99.711 E58.06515
G1 X105.832 Y105.912 E58.61185
G1 X104.910 Y105.912 E58.66934
G1 X98.710 Y99.711 E59.21603
G1 X97.788 Y99.711 E59.27352
G1 X103.988 Y105.912 E59.82021
G1 X103.066 Y105.912 E59.87770
G1 X96.866 Y99.711 E60.42439
G1 X95.944 Y99.711 E60.48188
G1 X102.144 Y105.912 E61.02858
G1 X101.222 Y105.912 E61.08607
G1 X95.022 Y99.711 E61.63276
G1 X94.099 Y99.711 E61.69025
G1 X100.300 Y105.912 E62.23694
G1 X99.378 Y105.912 E62.29443
G1 X93.177 Y99.711 E62.84113
G1 X92.255 Y99.711 E62.89861
G1 X98.456 Y105.912 E63.44531
G1 X97.533 Y105.912 E63.50280
G1 X91.333 Y99.711 E64.04949
G1 X90.411 Y99.711 E64.10698
G1 X96.611 Y105.912 E64.65367
G1 X95.689 Y105.912 E64.71116
G1 X89.489 Y99.711 E65.25786
G1 X88.567 Y99.711 E65.31534
G1 X94.767 Y105.912 E65.86204
G1 X93.845 Y105.912 E65.91953
G1 X87.645 Y99.711 E66.46622
G1 X86.723 Y99.711 E66.52371
G1 X92.923 Y105.912 E67.07040
G1 X92.001 Y105.912 E67.12789
G1 X85.801 Y99.711 E67.67459
G1 X84.879 Y99.711 E67.73208
G1 X91.079 Y105.912 E68.27877
G1 X90.157 Y105.912 E68.33626
G1 X83.957 Y99.711 E68.88295
G1 X83.034 Y99.711 E68.94044
G1 X89.235 Y105.912 E69.48713
G1 X88.313 Y105.912 E69.54462
G1 X82.274 Y99.873 E70.07708
G1 X82.274 Y100.795 E70.13457
G1 X87.391 Y105.912 E70.58572
G1 X86.468 Y105.912 E70.64321
G1 X82.274 Y101.717 E71.01305
G1 X82.274 Y102.639 E71.07054
G1 X85.546 Y105.912 E71.35909
G1 X84.624 Y105.912 E71.41658
G1 X82.274 Y103.561 E71.62382
G1 X82.274 Y104.483 E71.68131
G1 X83.702 Y105.912 E71.80725
G1 X82.780 Y105.912 E71.86474
G1 X82.274 Y105.405 E71.90938
G1 Z0.760 F7800.000
G1 X143.874 Y106.309 F7800.000
G1 F3600
G1 X81.876 Y106.309 E75.76663
G1 X81.876 Y99.314 E76.20186
G1 X143.874 Y99.314 E80.05910
G1 X143.874 Y106.234 E80.48967
G1 X144.524 Y106.960 F7800.000
G1 F3600
G1 X81.226 Y106.960 E84.42787
G1 X81.226 Y98.663 E84.94407
G1 X144.524 Y98.663 E88.88227
G1 X144.524 Y106.885 E89.39380
G1 X145.100 Y107.536 F7800.000
G1 F1800
G1 X80.650 Y107.536 E92.47920
G1 X80.650 Y98.088 E92.93150
G1 X145.100 Y98.088 E96.01690
G1 X145.100 Y107.461 E96.46561
G1 X144.601 Y107.511 F7800.000
G1 X142.970 Y105.912 F7800.000
G1 F1200
G1 X143.476 Y105.405 E96.51025
G1 X143.476 Y104.483 E96.56774
G1 X142.048 Y105.912 E96.69368
G1 X141.126 Y105.912 E96.75116
G1 X143.476 Y103.561 E96.95840
G1 X143.476 Y102.639 E97.01589
G1 X140.204 Y105.912 E97.30444
G1 X139.282 Y105.912 E97.36192
G1 X143.476 Y101.717 E97.73177
G1 X143.476 Y100.795 E97.78926
G1 X138.359 Y105.912 E98.24040
G1 X137.437 Y105.912 E98.29789
G1 X143.476 Y99.873 E98.83034
G1 X143.476 Y99.711 E98.84042
G1 X142.716 Y99.711 E98.88783
G1 X136.515 Y105.912 E99.43453
G1 X135.593 Y105.912 E99.49201
G1 X141.794 Y99.711 E100.03871
G1 X140.871 Y99.711 E100.09620
G1 X134.671 Y105.912 E100.64289
G1 X133.749 Y105.912 E100.70038
G1 X139.949 Y99.711 E101.24707
G1 X139.027 Y99.711 E101.30456
G1 X132.827 Y105.912 E101.85126
G1 X131.905 Y105.912 E101.90874
G1 X138.105 Y99.711 E102.45544
G1 X137.183 Y99.711 E102.51293
G1 X130.983 Y105.912 E103.05962
G1 X130.061 Y105.912 E103.11711
G1 X136.261 Y99.711 E103.66380
G1 X135.339 Y99.711 E103.72129
G1 X129.139 Y105.912 E104.26799
G1 X128.217 Y105.912 E104.32547
G1 X134.417 Y99.711 E104.87217
G1 X133.495 Y99.711 E104.92966
