; generated by Slic3r 1.3.1-dev on 2020-12-16 at 13:37:55

; external perimeters extrusion width = 0.55mm (3.45mm^3/s)
; perimeters extrusion width = 0.70mm (8.98mm^3/s)
; infill extrusion width = 0.63mm (10.59mm^3/s)
; solid infill extrusion width = 0.70mm (2.99mm^3/s)
; top infill extrusion width = 0.70mm (2.24mm^3/s)

M107
M190 S60 ; set bed temperature and wait for it to be reached
M104 S200 ; set temperature
G28 ; home all axes
G1 Z5 F5000 ; lift nozzle

; Filament gcode

M109 S200 ; set temperature and wait for it to be reached
G21 ; set units to millimeters
G90 ; use absolute coordinates
M82 ; use absolute distances for extrusion
G92 E0
G92 E0
G1 Z0.300 F7800.000
G1 E-2.00000 F2400.00000
G92 E0
G1 X101.621 Y102.015 F7800.000
G1 E2.00000 F2400.00000
G1 F1074.16
G1 X102.074 Y101.562 E2.04278
G1 X102.438 Y101.232 E2.07560
G1 X102.937 Y100.823 E2.11868
G1 X103.332 Y100.530 E2.15155
G1 X103.865 Y100.174 E2.19438
G1 X104.288 Y99.921 E2.22726
G1 X104.848 Y99.622 E2.26967
G1 X105.293 Y99.412 E2.30256
G1 X105.877 Y99.169 E2.34483
G1 X106.341 Y99.003 E2.37777
G1 X106.962 Y98.814 E2.42112
G1 X107.440 Y98.695 E2.45403
G1 X108.063 Y98.571 E2.49647
G1 X108.550 Y98.498 E2.52939
G1 X109.190 Y98.435 E2.57234
G1 X109.681 Y98.411 E2.60518
G1 X110.320 Y98.411 E2.64784
G1 X110.812 Y98.435 E2.68078
G1 X111.448 Y98.498 E2.72343
G1 X111.935 Y98.570 E2.75633
G1 X112.559 Y98.694 E2.79887
G1 X113.036 Y98.814 E2.83171
G1 X113.659 Y99.003 E2.87519
G1 X114.123 Y99.169 E2.90813
G1 X114.707 Y99.412 E2.95037
G1 X115.151 Y99.622 E2.98322
G1 X115.714 Y99.922 E3.02581
G1 X116.135 Y100.174 E3.05858
G1 X116.669 Y100.531 E3.10152
G1 X117.063 Y100.823 E3.13428
G1 X117.569 Y101.238 E3.17796
G1 X117.931 Y101.568 E3.21074
G1 X118.371 Y102.008 E3.25225
G1 X118.701 Y102.371 E3.28502
G1 X119.116 Y102.876 E3.32869
G1 X119.408 Y103.270 E3.36145
G1 X119.759 Y103.795 E3.40365
G1 X120.013 Y104.217 E3.43654
G1 X120.323 Y104.798 E3.48059
G1 X120.532 Y105.242 E3.51338
G1 X120.770 Y105.816 E3.55486
G1 X120.936 Y106.278 E3.58766
G1 X121.125 Y106.903 E3.63126
G1 X121.244 Y107.379 E3.66404
G1 X121.369 Y108.004 E3.70666
G1 X121.441 Y108.490 E3.73944
G1 X121.504 Y109.129 E3.78238
G1 X121.528 Y109.619 E3.81516
G1 X121.528 Y110.259 E3.85785
G1 X121.504 Y110.749 E3.89063
G1 X121.441 Y111.387 E3.93346
G1 X121.369 Y111.873 E3.96628
G1 X121.244 Y112.500 E4.00903
G1 X121.125 Y112.978 E4.04193
G1 X120.936 Y113.599 E4.08531
G1 X120.770 Y114.063 E4.11821
G1 X120.530 Y114.641 E4.16004
G1 X120.321 Y115.085 E4.19280
G1 X120.012 Y115.662 E4.23655
G1 X119.759 Y116.083 E4.26936
G1 X119.408 Y116.608 E4.31156
G1 X119.116 Y117.002 E4.34432
G1 X118.707 Y117.501 E4.38740
G1 X118.377 Y117.865 E4.42022
G1 X117.924 Y118.317 E4.46298
G1 X117.561 Y118.646 E4.49571
G1 X117.063 Y119.055 E4.53873
G1 X116.669 Y119.347 E4.57150
G1 X116.145 Y119.698 E4.61367
G1 X115.724 Y119.951 E4.64648
G1 X115.151 Y120.257 E4.68985
G1 X114.707 Y120.467 E4.72266
G1 X114.111 Y120.714 E4.76575
G1 X113.649 Y120.879 E4.79853
G1 X113.036 Y121.064 E4.84132
G1 X112.558 Y121.184 E4.87424
G1 X111.937 Y121.307 E4.91655
G1 X111.450 Y121.380 E4.94946
G1 X110.810 Y121.443 E4.99241
G1 X110.320 Y121.467 E5.02519
G1 X109.680 Y121.467 E5.06791
G1 X109.190 Y121.443 E5.10068
G1 X108.550 Y121.380 E5.14364
G1 X108.064 Y121.308 E5.17649
G1 X107.442 Y121.184 E5.21886
G1 X106.964 Y121.064 E5.25178
G1 X106.351 Y120.879 E5.29457
G1 X105.888 Y120.713 E5.32742
G1 X105.293 Y120.467 E5.37042
G1 X104.849 Y120.257 E5.40325
G1 X104.276 Y119.951 E5.44662
G1 X103.855 Y119.698 E5.47943
G1 X103.332 Y119.348 E5.52153
G1 X102.937 Y119.055 E5.55436
G1 X102.445 Y118.652 E5.59679
G1 X102.081 Y118.323 E5.62957
G1 X101.615 Y117.857 E5.67359
G1 X101.286 Y117.493 E5.70637
G1 X100.884 Y117.002 E5.74878
G1 X100.592 Y116.608 E5.78155
G1 X100.241 Y116.083 E5.82374
G1 X99.988 Y115.662 E5.85655
G1 X99.680 Y115.086 E5.90024
G1 X99.470 Y114.642 E5.93302
G1 X99.230 Y114.063 E5.97490
G1 X99.064 Y113.601 E6.00769
G1 X98.875 Y112.976 E6.05129
G1 X98.756 Y112.500 E6.08407
G1 X98.631 Y111.873 E6.12682
G1 X98.559 Y111.387 E6.15964
G1 X98.496 Y110.749 E6.20245
G1 X98.472 Y110.259 E6.23522
G1 X98.472 Y109.619 E6.27797
G1 X98.496 Y109.129 E6.31075
G1 X98.559 Y108.489 E6.35369
G1 X98.631 Y108.004 E6.38644
G1 X98.756 Y107.379 E6.42906
G1 X98.875 Y106.903 E6.46184
G1 X99.064 Y106.278 E6.50544
G1 X99.230 Y105.816 E6.53824
G1 X99.468 Y105.242 E6.57973
G1 X99.677 Y104.798 E6.61251
G1 X99.988 Y104.216 E6.65664
G1 X100.241 Y103.794 E6.68951
G1 X100.592 Y103.270 E6.73165
G1 X100.884 Y102.876 E6.76441
G1 X101.571 Y102.071 E6.83511
G1 E4.83511 F2400.00000
G92 E0
G1 X113.241 Y113.181 F7800.000
G1 E2.00000 F2400.00000
G1 F1800
G1 X112.908 Y113.483 E2.04291
G1 X112.547 Y113.751 E2.08590
G1 X112.161 Y113.982 E2.12895
G1 X111.754 Y114.175 E2.17194
G1 X111.331 Y114.326 E2.21492
G1 X110.894 Y114.435 E2.25792
G1 X110.449 Y114.501 E2.30088
G1 X110.000 Y114.523 E2.34386
G1 X109.551 Y114.501 E2.38684
G1 X109.106 Y114.435 E2.42980
G1 X108.669 Y114.326 E2.47280
G1 X108.246 Y114.175 E2.51578
G1 X107.839 Y113.982 E2.55878
G1 X107.453 Y113.751 E2.60182
G1 X107.091 Y113.483 E2.64484
G1 X106.758 Y113.181 E2.68779
G1 X106.456 Y112.848 E2.73074
G1 X106.188 Y112.486 E2.77375
G1 X105.957 Y112.100 E2.81678
G1 X105.765 Y111.694 E2.85969
G1 X105.613 Y111.270 E2.90272
G1 X105.504 Y110.834 E2.94567
G1 X105.438 Y110.388 E2.98873
G1 X105.416 Y109.939 E3.03172
G1 X105.438 Y109.490 E3.07470
G1 X105.504 Y109.045 E3.11766
G1 X105.613 Y108.609 E3.16062
G1 X105.765 Y108.185 E3.20366
G1 X105.957 Y107.778 E3.24666
G1 X106.188 Y107.392 E3.28967
G1 X106.456 Y107.031 E3.33266
G1 X106.758 Y106.698 E3.37557
G1 X107.092 Y106.395 E3.41862
G1 X107.453 Y106.128 E3.46157
G1 X107.839 Y105.896 E3.50456
G1 X108.246 Y105.704 E3.54764
G1 X108.670 Y105.552 E3.59064
G1 X109.106 Y105.443 E3.63361
G1 X109.551 Y105.377 E3.67657
G1 X110.000 Y105.355 E3.71955
G1 X110.446 Y105.376 E3.76218
G1 X110.894 Y105.443 E3.80551
G1 X111.330 Y105.552 E3.84845
G1 X111.754 Y105.704 E3.89146
G1 X112.161 Y105.896 E3.93454
G1 X112.547 Y106.128 E3.97753
G1 X112.908 Y106.395 E4.02045
G1 X113.241 Y106.698 E4.06346
G1 X113.544 Y107.031 E4.10647
G1 X113.811 Y107.392 E4.14942
G1 X114.043 Y107.778 E4.19243
G1 X114.235 Y108.185 E4.23543
G1 X114.387 Y108.609 E4.27847
G1 X114.496 Y109.045 E4.32143
G1 X114.562 Y109.490 E4.36439
G1 X114.584 Y109.939 E4.40738
G1 X114.562 Y110.388 E4.45036
G1 X114.496 Y110.834 E4.49342
G1 X114.387 Y111.270 E4.53637
G1 X114.235 Y111.694 E4.57940
G1 X114.043 Y112.100 E4.62231
G1 X113.811 Y112.486 E4.66533
G1 X113.544 Y112.847 E4.70832
G1 X113.292 Y113.126 E4.74420
G1 X113.241 Y113.181 F7800.000
G1 Z0.530 F7800.000
G1 X113.241 Y113.181 F7800.000
G1 F600
G1 X112.908 Y113.483 E4.77774
G1 X112.547 Y113.751 E4.81135
G1 X112.161 Y113.982 E4.84499
G1 X111.754 Y114.175 E4.87860
G1 X111.331 Y114.326 E4.91220
G1 X110.894 Y114.435 E4.94581
G1 X110.449 Y114.501 E4.97939
G1 X110.000 Y114.523 E5.01299
G1 X109.551 Y114.501 E5.04659
G1 X109.106 Y114.435 E5.08017
G1 X108.669 Y114.326 E5.11379
G1 X108.246 Y114.175 E5.14738
G1 X107.839 Y113.982 E5.18099
G1 X107.453 Y113.751 E5.21464
G1 X107.091 Y113.483 E5.24827
G1 X106.758 Y113.181 E5.28184
G1 X106.456 Y112.848 E5.31542
G1 X106.188 Y112.486 E5.34904
G1 X105.957 Y112.100 E5.38268
G1 X105.765 Y111.694 E5.41622
G1 X105.613 Y111.270 E5.44985
G1 X105.504 Y110.834 E5.48343
G1 X105.438 Y110.388 E5.51709
G1 X105.416 Y109.939 E5.55069
G1 X105.438 Y109.490 E5.58429
G1 X105.504 Y109.045 E5.61787
G1 X105.613 Y108.609 E5.65146
G1 X105.765 Y108.185 E5.68510
G1 X105.957 Y107.778 E5.71871
G1 X106.188 Y107.392 E5.75233
G1 X106.456 Y107.031 E5.78594
G1 X106.758 Y106.698 E5.81948
G1 X107.092 Y106.395 E5.85313
G1 X107.453 Y106.128 E5.88670
G1 X107.839 Y105.896 E5.92031
G1 X108.246 Y105.704 E5.95399
G1 X108.670 Y105.552 E5.98760
G1 X109.106 Y105.443 E6.02119
G1 X109.551 Y105.377 E6.05477
G1 X110.000 Y105.355 E6.08837
G1 X110.439 Y105.376 E6.12120
G1 X110.894 Y105.443 E6.15558
G1 X111.330 Y105.552 E6.18913
G1 X111.754 Y105.704 E6.22275
G1 X112.161 Y105.896 E6.25642
G1 X112.547 Y106.128 E6.29003
G1 X112.908 Y106.395 E6.32358
G1 X113.241 Y106.698 E6.35720
G1 X113.544 Y107.031 E6.39082
G1 X113.811 Y107.392 E6.42440
G1 X114.043 Y107.778 E6.45801
G1 X114.235 Y108.185 E6.49163
G1 X114.387 Y108.609 E6.52527
G1 X114.496 Y109.045 E6.55886
G1 X114.562 Y109.490 E6.59244
G1 X114.584 Y109.939 E6.62604
G1 X114.562 Y110.388 E6.65964
G1 X114.496 Y110.834 E6.69330
G1 X114.387 Y111.270 E6.72688
G1 X114.235 Y111.694 E6.76051
G1 X114.043 Y112.100 E6.79405
G1 X113.811 Y112.486 E6.82768
G1 X113.544 Y112.847 E6.86128
G1 X113.292 Y113.126 E6.88933
G1 X113.241 Y113.181 F7800.000
G1 Z0.760 F7800.000
G1 X113.241 Y113.181 F7800.000
G1 F600
G1 X112.908 Y113.483 E6.92288
G1 X112.547 Y113.751 E6.95648
G1 X112.161 Y113.982 E6.99013
G1 X111.754 Y114.175 E7.02374
G1 X111.331 Y114.326 E7.05733
G1 X110.894 Y114.435 E7.09095
G1 X110.449 Y114.501 E7.12453
G1 X110.000 Y114.523 E7.15813
G1 X109.551 Y114.501 E7.19172
G1 X109.106 Y114.435 E7.22531
G1 X108.669 Y114.326 E7.25892
G1 X108.246 Y114.175 E7.29251
G1 X107.839 Y113.982 E7.32612
G1 X107.453 Y113.751 E7.35977
G1 X107.091 Y113.483 E7.39340
G1 X106.758 Y113.181 E7.42697
G1 X106.456 Y112.848 E7.46055
G1 X106.188 Y112.486 E7.49417
G1 X105.957 Y112.100 E7.52781
G1 X105.765 Y111.694 E7.56135
G1 X105.613 Y111.270 E7.59498
G1 X105.504 Y110.834 E7.62856
G1 X105.438 Y110.388 E7.66222
G1 X105.416 Y109.939 E7.69582
G1 X105.438 Y109.490 E7.72942
G1 X105.504 Y109.045 E7.76300
G1 X105.613 Y108.609 E7.79659
G1 X105.765 Y108.185 E7.83023
G1 X105.957 Y107.778 E7.86384
G1 X106.188 Y107.392 E7.89746
G1 X106.456 Y107.031 E7.93107
G1 X106.758 Y106.698 E7.96461
G1 X107.092 Y106.395 E7.99826
G1 X107.453 Y106.128 E8.03183
G1 X107.839 Y105.896 E8.06544
G1 X108.246 Y105.704 E8.09912
G1 X108.670 Y105.552 E8.13273
G1 X109.106 Y105.443 E8.16632
G1 X109.551 Y105.377 E8.19990
G1 X110.000 Y105.355 E8.23350
G1 X110.433 Y105.376 E8.26590
G1 X110.895 Y105.443 E8.30072
G1 X111.330 Y105.552 E8.33426
G1 X111.754 Y105.704 E8.36788
G1 X112.161 Y105.896 E8.40155
G1 X112.547 Y106.128 E8.43516
G1 X112.908 Y106.395 E8.46871
G1 X113.241 Y106.698 E8.50233
G1 X113.544 Y107.031 E8.53595
G1 X113.811 Y107.392 E8.56952
G1 X114.043 Y107.778 E8.60314
G1 X114.235 Y108.185 E8.63676
G1 X114.387 Y108.609 E8.67040
G1 X114.496 Y109.045 E8.70398
G1 X114.562 Y109.490 E8.73757
G1 X114.584 Y109.939 E8.77117
G1 X114.562 Y110.388 E8.80477
G1 X114.496 Y110.834 E8.83842
G1 X114.387 Y111.270 E8.87200
G1 X114.235 Y111.694 E8.90564
G1 X114.043 Y112.100 E8.93918
G1 X113.811 Y112.486 E8.97281
G1 X113.544 Y112.847 E9.00641
G1 X113.292 Y113.126 E9.03446
G1 X113.241 Y113.181 F7800.000
M106 S255
G1 Z0.990 F7800.000
G1 X113.241 Y113.181 F7800.000
G1 F600
G1 X112.908 Y113.483 E9.06800
G1 X112.547 Y113.751 E9.10161
G1 X112.161 Y113.982 E9.13525
G1 X111.754 Y114.175 E9.16887
G1 X111.331 Y114.326 E9.20246
G1 X110.894 Y114.435 E9.23607
G1 X110.431 Y114.503 E9.27101
G1 X110.000 Y114.523 E9.30326
G1 X109.569 Y114.503 E9.33550
G1 X109.106 Y114.435 E9.37044
G1 X108.669 Y114.326 E9.40405
G1 X108.246 Y114.175 E9.43764
G1 X107.839 Y113.982 E9.47126
G1 X107.453 Y113.751 E9.50490
G1 X107.091 Y113.483 E9.53853
G1 X106.758 Y113.181 E9.57211
G1 X106.456 Y112.848 E9.60568
G1 X106.188 Y112.486 E9.63931
G1 X105.957 Y112.100 E9.67294
G1 X105.765 Y111.694 E9.70648
G1 X105.613 Y111.270 E9.74012
G1 X105.504 Y110.834 E9.77370
G1 X105.438 Y110.388 E9.80735
G1 X105.416 Y109.939 E9.84095
G1 X105.438 Y109.490 E9.87455
G1 X105.504 Y109.045 E9.90814
G1 X105.613 Y108.609 E9.94172
G1 X105.765 Y108.185 E9.97537
G1 X105.957 Y107.778 E10.00898
G1 X106.188 Y107.392 E10.04260
G1 X106.456 Y107.031 E10.07620
G1 X106.758 Y106.698 E10.10975
G1 X107.092 Y106.395 E10.14340
G1 X107.453 Y106.128 E10.17697
G1 X107.839 Y105.896 E10.21058
G1 X108.246 Y105.704 E10.24425
G1 X108.670 Y105.552 E10.27787
G1 X109.106 Y105.443 E10.31145
G1 X109.551 Y105.377 E10.34503
G1 X110.000 Y105.355 E10.37863
G1 X110.429 Y105.376 E10.41073
G1 X110.895 Y105.443 E10.44587
G1 X111.330 Y105.552 E10.47939
G1 X111.754 Y105.704 E10.51301
G1 X112.161 Y105.896 E10.54668
G1 X112.547 Y106.128 E10.58029
G1 X112.908 Y106.395 E10.61384
G1 X113.241 Y106.698 E10.64746
G1 X113.544 Y107.031 E10.68108
G1 X113.811 Y107.392 E10.71466
G1 X114.043 Y107.778 E10.74827
G1 X114.235 Y108.185 E10.78189
G1 X114.387 Y108.609 E10.81553
G1 X114.496 Y109.045 E10.84912
G1 X114.562 Y109.490 E10.88270
G1 X114.584 Y109.939 E10.91630
G1 X114.562 Y110.388 E10.94990
G1 X114.496 Y110.834 E10.98356
G1 X114.387 Y111.270 E11.01714
G1 X114.235 Y111.694 E11.05077
G1 X114.043 Y112.100 E11.08431
G1 X113.811 Y112.486 E11.11794
G1 X113.544 Y112.847 E11.15154
G1 X113.292 Y113.126 E11.17959
G1 X113.241 Y113.181 F7800.000
G1 Z1.220 F7800.000
G1 X113.241 Y113.181 F7800.000
G1 F600
G1 X112.908 Y113.483 E11.21314
G1 X112.547 Y113.751 E11.24674
G1 X112.161 Y113.982 E11.28039
G1 X111.754 Y114.175 E11.31400
G1 X111.331 Y114.326 E11.34759
G1 X110.894 Y114.435 E11.38121
G1 X110.449 Y114.501 E11.41479
G1 X110.000 Y114.523 E11.44839
G1 X109.551 Y114.501 E11.48199
G1 X109.106 Y114.435 E11.51557
G1 X108.669 Y114.326 E11.54918
G1 X108.246 Y114.175 E11.58277
G1 X107.839 Y113.982 E11.61639
G1 X107.453 Y113.751 E11.65003
G1 X107.091 Y113.483 E11.68366
G1 X106.758 Y113.181 E11.71723
G1 X106.456 Y112.848 E11.75081
G1 X106.188 Y112.486 E11.78444
G1 X105.957 Y112.100 E11.81807
G1 X105.765 Y111.694 E11.85161
G1 X105.613 Y111.270 E11.88525
G1 X105.504 Y110.834 E11.91882
G1 X105.438 Y110.388 E11.95248
G1 X105.416 Y109.939 E11.98608
G1 X105.438 Y109.490 E12.01968
G1 X105.504 Y109.045 E12.05327
G1 X105.613 Y108.609 E12.08685
G1 X105.765 Y108.185 E12.12050
G1 X105.957 Y107.778 E12.15411
G1 X106.188 Y107.392 E12.18773
G1 X106.456 Y107.031 E12.22133
G1 X106.758 Y106.698 E12.25488
G1 X107.092 Y106.395 E12.28852
G1 X107.453 Y106.128 E12.32210
G1 X107.839 Y105.896 E12.35571
G1 X108.246 Y105.704 E12.38938
G1 X108.670 Y105.552 E12.42300
G1 X109.106 Y105.443 E12.45658
G1 X109.551 Y105.378 E12.49016
G1 X110.000 Y105.355 E12.52376
G1 X110.429 Y105.376 E12.55586
G1 X110.895 Y105.443 E12.59101
G1 X111.330 Y105.552 E12.62452
G1 X111.754 Y105.704 E12.65813
G1 X112.161 Y105.896 E12.69181
G1 X112.547 Y106.128 E12.72542
G1 X112.908 Y106.395 E12.75897
G1 X113.241 Y106.698 E12.79258
G1 X113.544 Y107.031 E12.82620
G1 X113.811 Y107.392 E12.85978
G1 X114.043 Y107.778 E12.89340
G1 X114.235 Y108.185 E12.92701
G1 X114.387 Y108.609 E12.96066
G1 X114.496 Y109.045 E12.99424
G1 X114.562 Y109.490 E13.02782
G1 X114.584 Y109.939 E13.06142
G1 X114.562 Y110.388 E13.09503
G1 X114.496 Y110.834 E13.12868
G1 X114.387 Y111.270 E13.16226
G1 X114.235 Y111.694 E13.19589
G1 X114.043 Y112.100 E13.22944
G1 X113.811 Y112.486 E13.26307
G1 X113.544 Y112.847 E13.29667
G1 X113.292 Y113.126 E13.32472
G1 X113.241 Y113.181 F7800.000
G1 Z1.450 F7800.000
G1 X113.241 Y113.181 F7800.000
G1 F600
G1 X112.908 Y113.483 E13.35826
G1 X112.547 Y113.751 E13.39187
G1 X112.161 Y113.982 E13.42551
G1 X111.754 Y114.175 E13.45913
G1 X111.331 Y114.326 E13.49272
G1 X110.894 Y114.435 E13.52633
G1 X110.449 Y114.501 E13.55991
G1 X110.000 Y114.523 E13.59351
G1 X109.551 Y114.501 E13.62711
G1 X109.106 Y114.435 E13.66069
G1 X108.669 Y114.326 E13.69431
G1 X108.246 Y114.175 E13.72790
G1 X107.839 Y113.982 E13.76151
G1 X107.453 Y113.751 E13.79516
G1 X107.091 Y113.483 E13.82878
G1 X106.758 Y113.181 E13.86236
G1 X106.456 Y112.848 E13.89594
G1 X106.188 Y112.486 E13.92956
G1 X105.957 Y112.100 E13.96319
G1 X105.765 Y111.694 E13.99674
G1 X105.613 Y111.270 E14.03037
