; generated by Slic3r 1.3.1-dev on 2021-01-21 at 13:58:10

; external perimeters extrusion width = 0.55mm (3.45mm^3/s)
; perimeters extrusion width = 0.70mm (8.98mm^3/s)
; infill extrusion width = 0.63mm (10.59mm^3/s)
; solid infill extrusion width = 0.70mm (2.99mm^3/s)
; top infill extrusion width = 0.70mm (2.24mm^3/s)

M107
M190 S60 ; set bed temperature and wait for it to be reached
M104 S200 ; set temperature
G28 ; home all axes
G1 Z5 F5000 ; lift nozzle

; Filament gcode

M109 S200 ; set temperature and wait for it to be reached
G21 ; set units to millimeters
G90 ; use absolute coordinates
M82 ; use absolute distances for extrusion
G92 E0
G92 E0
G1 Z0.300 F7800.000
G1 E-2.00000 F2400.00000
G92 E0
G1 X57.504 Y69.288 F7800.000
G1 E2.00000 F2400.00000
G1 F1800
G1 X59.253 Y67.829 E2.15217
G1 X62.500 Y66.965 E2.37660
G1 X157.500 Y66.965 E8.72311
G1 X159.743 Y67.362 E8.87529
G1 X161.713 Y68.505 E9.02746
G1 X163.172 Y70.254 E9.17963
G1 X164.036 Y73.501 E9.40406
G1 X164.036 Y138.501 E13.74641
G1 X163.639 Y140.744 E13.89858
G1 X162.496 Y142.714 E14.05075
G1 X160.747 Y144.173 E14.20292
G1 X157.500 Y145.037 E14.42735
G1 X62.500 Y145.037 E20.77387
G1 X60.257 Y144.640 E20.92604
G1 X58.287 Y143.497 E21.07821
G1 X56.828 Y141.748 E21.23038
G1 X55.964 Y138.501 E21.45481
G1 X55.964 Y73.501 E25.79716
G1 X56.361 Y71.258 E25.94933
G1 X57.466 Y69.352 E26.09649
G1 E24.09649 F2400.00000
G92 E0
G1 X107.839 Y137.340 F7800.000
G1 E2.00000 F2400.00000
G1 F1800
G1 X82.161 Y137.340 E3.71538
G1 X82.161 Y132.090 E4.06611
G1 X70.411 Y132.090 E4.85107
G1 X70.411 Y81.662 E8.21988
G1 X149.339 Y81.662 E13.49265
G1 X149.339 Y132.090 E16.86146
G1 X107.839 Y132.090 E19.63388
G1 X107.839 Y137.265 E19.97960
G1 X107.303 Y136.804 F7800.000
G1 F1800
G1 X82.697 Y136.804 E21.62342
G1 X82.697 Y131.554 E21.97414
G1 X70.947 Y131.554 E22.75911
G1 X70.947 Y82.198 E26.05636
G1 X148.803 Y82.198 E31.25756
G1 X148.803 Y131.554 E34.55480
G1 X107.303 Y131.554 E37.32723
G1 X107.303 Y136.729 E37.67295
G1 X107.071 Y137.247 F7800.000
G1 E35.67295 F2400.00000
G92 E0
G1 X69.876 Y132.625 F7800.000
G1 E2.00000 F2400.00000
G1 F1800
G1 X81.626 Y132.625 E2.78496
G1 X81.626 Y137.130 E3.08589
G1 X63.871 Y137.130 E4.27199
G1 X63.871 Y74.872 E8.43113
G1 X156.129 Y74.872 E14.59443
G1 X156.129 Y137.130 E18.75357
G1 X108.374 Y137.130 E21.94383
G1 X108.374 Y132.625 E22.24475
G1 X149.874 Y132.625 E25.01718
G1 X149.874 Y81.127 E28.45755
G1 X69.876 Y81.127 E33.80188
G1 X69.876 Y132.550 E37.23725
G1 E35.23725 F2400.00000
G92 E0
G1 X63.336 Y137.665 F7800.000
G1 E2.00000 F2400.00000
G1 F1800
G1 X63.336 Y74.337 E6.23070
G1 X156.664 Y74.337 E12.46557
G1 X156.664 Y137.665 E16.69627
G1 X63.411 Y137.665 E22.92613
G1 X62.800 Y138.201 F7800.000
G1 F1800
G1 X62.800 Y73.801 E27.22840
G1 X157.200 Y73.801 E33.53483
G1 X157.200 Y138.201 E37.83710
G1 X62.875 Y138.201 E44.13852
G1 X62.959 Y137.727 F7800.000
G1 E42.13852 F2400.00000
G92 E0
G1 X64.112 Y136.245 F7800.000
G1 E2.00000 F2400.00000
G1 F1800
G1 X81.385 Y136.245 E3.15390
G1 X81.385 Y135.710 F7800.000
G1 F1800
G1 X64.112 Y135.710 E4.30779
G1 X64.112 Y135.174 F7800.000
G1 F1800
G1 X81.385 Y135.174 E5.46169
G1 X81.385 Y134.638 F7800.000
G1 F1800
G1 X64.112 Y134.638 E6.61559
G1 X64.112 Y134.103 F7800.000
G1 F1800
G1 X81.385 Y134.103 E7.76949
G1 X81.385 Y133.567 F7800.000
G1 F1800
G1 X64.112 Y133.567 E8.92338
G1 X64.112 Y133.032 F7800.000
G1 F1800
G1 X69.635 Y133.032 E9.29232
G1 X69.635 Y132.496 F7800.000
G1 F1800
G1 X64.112 Y132.496 E9.66125
G1 X64.112 Y131.960 F7800.000
G1 F1800
G1 X69.635 Y131.960 E10.03018
G1 X69.635 Y131.425 F7800.000
G1 F1800
G1 X64.112 Y131.425 E10.39912
G1 X64.112 Y130.889 F7800.000
G1 F1800
G1 X69.635 Y130.889 E10.76805
G1 X69.635 Y130.354 F7800.000
G1 F1800
G1 X64.112 Y130.354 E11.13698
G1 X64.112 Y129.818 F7800.000
G1 F1800
G1 X69.635 Y129.818 E11.50592
G1 X69.635 Y129.282 F7800.000
G1 F1800
G1 X64.112 Y129.282 E11.87485
G1 X64.199 Y128.532 F7800.000
G1 F1800
G1 X69.548 Y123.182 E12.38030
G1 X69.548 Y122.425 F7800.000
G1 F1800
G1 X64.199 Y127.775 E12.88575
G1 X64.199 Y127.017 F7800.000
G1 F1800
G1 X69.548 Y121.667 E13.39119
G1 X69.548 Y120.910 F7800.000
G1 F1800
G1 X64.199 Y126.260 E13.89664
G1 X64.199 Y125.502 F7800.000
G1 F1800
G1 X69.548 Y120.152 E14.40209
G1 X69.548 Y119.395 F7800.000
G1 F1800
G1 X64.199 Y124.745 E14.90754
G1 X64.199 Y123.987 F7800.000
G1 F1800
G1 X69.548 Y118.637 E15.41298
G1 X69.548 Y117.880 F7800.000
G1 F1800
G1 X64.199 Y123.230 E15.91843
G1 X64.199 Y122.472 F7800.000
G1 F1800
G1 X69.548 Y117.122 E16.42388
G1 X69.548 Y116.365 F7800.000
G1 F1800
G1 X64.199 Y121.715 E16.92932
G1 X64.199 Y120.957 F7800.000
G1 F1800
G1 X69.548 Y115.607 E17.43477
G1 X69.548 Y114.850 F7800.000
G1 F1800
G1 X64.199 Y120.200 E17.94022
G1 X64.199 Y119.442 F7800.000
G1 F1800
G1 X69.548 Y114.093 E18.44567
G1 X69.548 Y113.335 F7800.000
G1 F1800
G1 X64.199 Y118.685 E18.95111
G1 X64.199 Y117.927 F7800.000
G1 F1800
G1 X69.548 Y112.578 E19.45656
G1 X69.548 Y111.820 F7800.000
G1 F1800
G1 X64.199 Y117.170 E19.96201
G1 X64.199 Y116.413 F7800.000
G1 F1800
G1 X69.548 Y111.063 E20.46746
G1 X69.548 Y110.305 F7800.000
G1 F1800
G1 X64.199 Y115.655 E20.97290
G1 X64.199 Y114.898 F7800.000
G1 F1800
G1 X69.096 Y110.000 E21.43561
G1 X64.199 Y105.102 E21.89832
G1 X64.199 Y104.345 F7800.000
G1 F1800
G1 X69.548 Y109.695 E22.40377
G1 X69.548 Y108.937 F7800.000
G1 F1800
G1 X64.199 Y103.587 E22.90921
G1 X64.199 Y102.830 F7800.000
G1 F1800
G1 X69.548 Y108.180 E23.41466
G1 X69.548 Y107.422 F7800.000
G1 F1800
G1 X64.199 Y102.073 E23.92011
G1 X64.199 Y101.315 F7800.000
G1 F1800
G1 X69.548 Y106.665 E24.42556
G1 X69.548 Y105.907 F7800.000
G1 F1800
G1 X64.199 Y100.558 E24.93100
G1 X64.199 Y99.800 F7800.000
G1 F1800
G1 X69.548 Y105.150 E25.43645
G1 X69.548 Y104.393 F7800.000
G1 F1800
G1 X64.199 Y99.043 E25.94190
G1 X64.199 Y98.285 F7800.000
G1 F1800
G1 X69.548 Y103.635 E26.44734
G1 X69.548 Y102.878 F7800.000
G1 F1800
G1 X64.199 Y97.528 E26.95279
G1 X64.199 Y96.770 F7800.000
G1 F1800
G1 X69.548 Y102.120 E27.45824
G1 X69.548 Y101.363 F7800.000
G1 F1800
G1 X64.199 Y96.013 E27.96369
G1 X64.199 Y95.255 F7800.000
G1 F1800
G1 X69.548 Y100.605 E28.46913
G1 X69.548 Y99.848 F7800.000
G1 F1800
G1 X64.199 Y94.498 E28.97458
G1 X64.199 Y93.740 F7800.000
G1 F1800
G1 X69.548 Y99.090 E29.48003
G1 X69.548 Y98.333 F7800.000
G1 F1800
G1 X64.199 Y92.983 E29.98548
G1 X64.199 Y92.225 F7800.000
G1 F1800
G1 X69.548 Y97.575 E30.49092
G1 X69.548 Y96.818 F7800.000
G1 F1800
G1 X64.199 Y91.468 E30.99637
G1 X64.112 Y90.718 F7800.000
G1 F1800
G1 X69.635 Y90.718 E31.36530
G1 X69.635 Y90.182 F7800.000
G1 F1800
G1 X64.112 Y90.182 E31.73424
G1 X64.112 Y89.646 F7800.000
G1 F1800
G1 X69.635 Y89.646 E32.10317
G1 X69.635 Y89.111 F7800.000
G1 F1800
G1 X64.112 Y89.111 E32.47210
G1 X64.112 Y88.575 F7800.000
G1 F1800
G1 X69.635 Y88.575 E32.84104
G1 X69.635 Y88.040 F7800.000
G1 F1800
G1 X64.112 Y88.040 E33.20997
G1 X64.112 Y87.504 F7800.000
G1 F1800
G1 X69.635 Y87.504 E33.57891
G1 X69.635 Y86.968 F7800.000
G1 F1800
G1 X64.112 Y86.968 E33.94784
G1 X64.112 Y86.433 F7800.000
G1 F1800
G1 X69.635 Y86.433 E34.31677
G1 X69.635 Y85.897 F7800.000
G1 F1800
G1 X64.112 Y85.897 E34.68571
G1 X64.112 Y85.362 F7800.000
G1 F1800
G1 X69.635 Y85.362 E35.05464
G1 X69.635 Y84.826 F7800.000
G1 F1800
G1 X64.112 Y84.826 E35.42357
G1 X64.112 Y84.290 F7800.000
G1 F1800
G1 X69.635 Y84.290 E35.79251
G1 X69.635 Y83.755 F7800.000
G1 F1800
G1 X64.112 Y83.755 E36.16144
G1 X64.112 Y83.219 F7800.000
G1 F1800
G1 X69.635 Y83.219 E36.53037
G1 X69.635 Y82.683 F7800.000
G1 F1800
G1 X64.112 Y82.683 E36.89931
G1 X64.112 Y82.148 F7800.000
G1 F1800
G1 X69.635 Y82.148 E37.26824
G1 X69.635 Y81.612 F7800.000
G1 F1800
G1 X64.112 Y81.612 E37.63717
G1 X64.112 Y81.077 F7800.000
G1 F1800
G1 X69.635 Y81.077 E38.00611
G1 E36.00611 F2400.00000
G92 E0
G1 X64.112 Y80.541 F7800.000
G1 E2.00000 F2400.00000
G1 F1800
G1 X80.541 Y80.541 E3.09753
G1 X80.541 Y75.113 E3.46013
G1 X81.077 Y75.113 F7800.000
G1 F1800
G1 X81.077 Y80.886 E3.84576
G1 X81.612 Y80.886 F7800.000
G1 F1800
G1 X81.612 Y75.113 E4.23140
G1 X82.148 Y75.113 F7800.000
G1 F1800
G1 X82.148 Y80.886 E4.61703
G1 X82.683 Y80.886 F7800.000
G1 F1800
G1 X82.683 Y75.113 E5.00267
G1 X83.219 Y75.113 F7800.000
G1 F1800
G1 X83.219 Y80.886 E5.38830
G1 X83.755 Y80.886 F7800.000
G1 F1800
G1 X83.755 Y75.113 E5.77394
G1 X84.290 Y75.113 F7800.000
G1 F1800
G1 X84.290 Y80.886 E6.15957
G1 X84.826 Y80.886 F7800.000
G1 F1800
G1 X84.826 Y75.113 E6.54521
G1 X85.362 Y75.113 F7800.000
G1 F1800
G1 X85.362 Y80.886 E6.93084
G1 X85.897 Y80.886 F7800.000
G1 F1800
G1 X85.897 Y75.113 E7.31648
G1 X86.433 Y75.113 F7800.000
G1 F1800
G1 X86.433 Y80.886 E7.70211
G1 X86.968 Y80.886 F7800.000
G1 F1800
G1 X86.968 Y75.113 E8.08775
G1 X87.504 Y75.113 F7800.000
G1 F1800
G1 X87.504 Y80.886 E8.47338
G1 X88.040 Y80.886 F7800.000
G1 F1800
G1 X88.040 Y75.113 E8.85902
G1 X88.575 Y75.113 F7800.000
G1 F1800
G1 X88.575 Y80.886 E9.24465
G1 X89.111 Y80.886 F7800.000
G1 F1800
G1 X89.111 Y75.113 E9.63029
G1 X89.646 Y75.113 F7800.000
G1 F1800
G1 X89.646 Y80.886 E10.01592
G1 X90.182 Y80.886 F7800.000
G1 F1800
G1 X90.182 Y75.113 E10.40156
G1 X90.718 Y75.113 F7800.000
G1 F1800
G1 X90.718 Y80.886 E10.78719
G1 X91.253 Y80.886 F7800.000
G1 F1800
G1 X91.253 Y75.113 E11.17283
G1 X91.789 Y75.113 F7800.000
G1 F1800
G1 X91.789 Y80.886 E11.55846
G1 X92.325 Y80.886 F7800.000
G1 F1800
G1 X92.325 Y75.113 E11.94409
G1 X92.860 Y75.113 F7800.000
G1 F1800
G1 X92.860 Y80.886 E12.32973
G1 X93.396 Y80.886 F7800.000
G1 F1800
G1 X93.396 Y75.113 E12.71536
G1 X93.931 Y75.113 F7800.000
G1 F1800
G1 X93.931 Y80.886 E13.10100
G1 X94.467 Y80.886 F7800.000
G1 F1800
G1 X94.467 Y75.113 E13.48663
G1 X95.003 Y75.113 F7800.000
G1 F1800
G1 X95.003 Y80.886 E13.87227
G1 X95.538 Y80.886 F7800.000
G1 F1800
G1 X95.538 Y75.113 E14.25790
G1 X95.651 Y75.200 F7800.000
G1 F1800
G1 X101.251 Y80.799 E14.78697
G1 X100.494 Y80.799 F7800.000
G1 F1800
G1 X96.074 Y76.379 E15.20456
G1 X96.074 Y80.886 E15.50561
G1 X96.610 Y80.886 F7800.000
G1 F1800
G1 X96.610 Y77.673 E15.72027
G1 X99.736 Y80.799 E16.01569
G1 X98.979 Y80.799 F7800.000
G1 F1800
G1 X97.145 Y78.966 E16.18895
G1 X97.145 Y80.886 E16.31722
G1 X97.681 Y80.886 F7800.000
G1 F1800
G1 X97.681 Y80.259 E16.35911
G1 X98.222 Y80.799 E16.41020
G1 E14.41020 F2400.00000
G92 E0
G1 X102.009 Y80.799 F7800.000
G1 E2.00000 F2400.00000
G1 F1800
G1 X96.409 Y75.200 E2.52907
G1 X97.166 Y75.200 F7800.000
G1 F1800
G1 X102.766 Y80.799 E3.05813
G1 X103.524 Y80.799 F7800.000
G1 F1800
G1 X97.924 Y75.200 E3.58720
G1 X98.681 Y75.200 F7800.000
G1 F1800
G1 X104.281 Y80.799 E4.11627
G1 X105.039 Y80.799 F7800.000
G1 F1800
G1 X99.439 Y75.200 E4.64533
G1 X100.196 Y75.200 F7800.000
G1 F1800
G1 X105.796 Y80.799 E5.17440
G1 X106.554 Y80.799 F7800.000
G1 F1800
G1 X100.954 Y75.200 E5.70347
G1 X101.711 Y75.200 F7800.000
G1 F1800
G1 X107.311 Y80.799 E6.23253
G1 X108.069 Y80.799 F7800.000
G1 F1800
G1 X102.469 Y75.200 E6.76160
G1 X103.226 Y75.200 F7800.000
G1 F1800
G1 X108.826 Y80.799 E7.29067
G1 X109.584 Y80.799 F7800.000
G1 F1800
G1 X103.984 Y75.200 E7.81973
G1 X104.741 Y75.200 F7800.000
G1 F1800
G1 X110.000 Y80.458 E8.31657
G1 X115.259 Y75.200 E8.81340
G1 X116.016 Y75.200 F7800.000
G1 F1800
G1 X110.416 Y80.799 E9.34247
G1 X111.174 Y80.799 F7800.000
G1 F1800
G1 X116.774 Y75.200 E9.87153
G1 X117.531 Y75.200 F7800.000
G1 F1800
G1 X111.931 Y80.799 E10.40060
G1 X112.689 Y80.799 F7800.000
G1 F1800
G1 X118.289 Y75.200 E10.92967
G1 X119.046 Y75.200 F7800.000
G1 F1800
G1 X113.446 Y80.799 E11.45873
G1 X114.204 Y80.799 F7800.000
G1 F1800
G1 X119.804 Y75.200 E11.98780
G1 X120.561 Y75.200 F7800.000
G1 F1800
G1 X114.961 Y80.799 E12.51687
G1 X115.719 Y80.799 F7800.000
G1 F1800
G1 X121.319 Y75.200 E13.04593
G1 X122.076 Y75.200 F7800.000
G1 F1800
G1 X116.476 Y80.799 E13.57500
G1 X117.234 Y80.799 F7800.000
G1 F1800
G1 X122.834 Y75.200 E14.10406
G1 X123.591 Y75.200 F7800.000
G1 F1800
G1 X117.991 Y80.799 E14.63313
G1 X118.749 Y80.799 F7800.000
G1 F1800
G1 X124.349 Y75.200 E15.16220
G1 X124.462 Y75.113 F7800.000
G1 F1800
G1 X124.462 Y80.886 E15.54783
G1 X123.926 Y80.886 F7800.000
G1 F1800
G1 X123.926 Y76.379 E15.84888
G1 X119.506 Y80.799 E16.26647
G1 X120.264 Y80.799 F7800.000
G1 F1800
G1 X123.390 Y77.673 E16.56190
G1 X123.390 Y80.886 E16.77656
G1 X122.855 Y80.886 F7800.000
G1 F1800
G1 X122.855 Y78.966 E16.90483
G1 X121.021 Y80.799 E17.07809
G1 X121.778 Y80.799 F7800.000
G1 F1800
G1 X122.319 Y80.259 E17.12917
G1 X122.319 Y80.886 E17.17106
G1 E15.17106 F2400.00000
G92 E0
G1 X124.997 Y80.886 F7800.000
G1 E2.00000 F2400.00000
G1 F1800
G1 X124.997 Y75.113 E2.38563
G1 X125.533 Y75.113 F7800.000
G1 F1800
G1 X125.533 Y80.886 E2.77127
G1 X126.069 Y80.886 F7800.000
G1 F1800
G1 X126.069 Y75.113 E3.15690
G1 X126.604 Y75.113 F7800.000
G1 F1800
G1 X126.604 Y80.886 E3.54254
G1 X127.140 Y80.886 F7800.000
G1 F1800
G1 X127.140 Y75.113 E3.92817
G1 X127.675 Y75.113 F7800.000
G1 F1800
G1 X127.675 Y80.886 E4.31381
G1 X128.211 Y80.886 F7800.000
G1 F1800
G1 X128.211 Y75.113 E4.69944
G1 X128.747 Y75.113 F7800.000
G1 F1800
G1 X128.747 Y80.886 E5.08508
G1 X129.282 Y80.886 F7800.000
G1 F1800
G1 X129.282 Y75.113 E5.47071
G1 X129.818 Y75.113 F7800.000
G1 F1800
G1 X129.818 Y80.886 E5.85635
G1 X130.354 Y80.886 F7800.000
G1 F1800
G1 X130.354 Y75.113 E6.24198
G1 X130.889 Y75.113 F7800.000
G1 F1800
G1 X130.889 Y80.886 E6.62762
G1 X131.425 Y80.886 F7800.000
G1 F1800
G1 X131.425 Y75.113 E7.01325
G1 X131.960 Y75.113 F7800.000
G1 F1800
G1 X131.960 Y80.886 E7.39889
G1 X132.496 Y80.886 F7800.000
G1 F1800
G1 X132.496 Y75.113 E7.78452
G1 X133.032 Y75.113 F7800.000
G1 F1800
G1 X133.032 Y80.886 E8.17016
G1 X133.567 Y80.886 F7800.000
G1 F1800
G1 X133.567 Y75.113 E8.55579
G1 X134.103 Y75.113 F7800.000
G1 F1800
G1 X134.103 Y80.886 E8.94143
G1 X134.638 Y80.886 F7800.000
G1 F1800
G1 X134.638 Y75.113 E9.32706
G1 X135.174 Y75.113 F7800.000
G1 F1800
G1 X135.174 Y80.886 E9.71270
G1 X135.710 Y80.886 F7800.000
G1 F1800
G1 X135.710 Y75.113 E10.09833
G1 X136.245 Y75.113 F7800.000
G1 F1800
G1 X136.245 Y80.886 E10.48397
G1 X136.781 Y80.886 F7800.000
G1 F1800
G1 X136.781 Y75.113 E10.86960
G1 X137.317 Y75.113 F7800.000
G1 F1800
G1 X137.317 Y80.886 E11.25524
G1 X137.852 Y80.886 F7800.000
G1 F1800
G1 X137.852 Y75.113 E11.64087
G1 X138.388 Y75.113 F7800.000
G1 F1800
G1 X138.388 Y80.886 E12.02651
G1 X138.923 Y80.886 F7800.000
G1 F1800
G1 X138.923 Y75.113 E12.41214
G1 X139.459 Y75.113 F7800.000
G1 F1800
G1 X139.459 Y80.541 E12.77474
G1 X155.888 Y80.541 E13.87227
G1 X155.888 Y81.077 F7800.000
G1 F1800
G1 X150.115 Y81.077 E14.25790
G1 X150.115 Y81.612 F7800.000
G1 F1800
G1 X155.888 Y81.612 E14.64354
G1 X155.888 Y82.148 F7800.000
G1 F1800
G1 X150.115 Y82.148 E15.02918
G1 X150.115 Y82.683 F7800.000
G1 F1800
G1 X155.888 Y82.683 E15.41481
G1 X155.888 Y83.219 F7800.000
G1 F1800
G1 X150.115 Y83.219 E15.80045
G1 X150.115 Y83.755 F7800.000
G1 F1800
G1 X155.888 Y83.755 E16.18608
G1 X155.888 Y84.290 F7800.000
G1 F1800
G1 X150.115 Y84.290 E16.57172
G1 X150.115 Y84.826 F7800.000
G1 F1800
G1 X155.888 Y84.826 E16.95735
G1 X155.888 Y85.362 F7800.000
G1 F1800
G1 X150.115 Y85.362 E17.34299
G1 X150.115 Y85.897 F7800.000
G1 F1800
G1 X155.888 Y85.897 E17.72862
G1 X155.888 Y86.433 F7800.000
G1 F1800
G1 X150.115 Y86.433 E18.11426
G1 X150.115 Y86.968 F7800.000
G1 F1800
G1 X155.888 Y86.968 E18.49989
G1 X155.888 Y87.504 F7800.000
G1 F1800
G1 X150.115 Y87.504 E18.88553
G1 X150.115 Y88.040 F7800.000
G1 F1800
G1 X155.888 Y88.040 E19.27116
