; generated by Slic3r 1.3.1-dev on 2021-01-19 at 22:39:51

; external perimeters extrusion width = 0.55mm (3.45mm^3/s)
; perimeters extrusion width = 0.70mm (8.98mm^3/s)
; infill extrusion width = 0.63mm (10.59mm^3/s)
; solid infill extrusion width = 0.70mm (2.99mm^3/s)
; top infill extrusion width = 0.70mm (2.24mm^3/s)

M107
M190 S60 ; set bed temperature and wait for it to be reached
M104 S200 ; set temperature
G28 ; home all axes
G1 Z5 F5000 ; lift nozzle

; Filament gcode

M109 S200 ; set temperature and wait for it to be reached
G21 ; set units to millimeters
G90 ; use absolute coordinates
M82 ; use absolute distances for extrusion
G92 E0
G92 E0
G1 Z0.300 F7800.000
G1 E-2.00000 F2400.00000
G92 E0
G1 X81.818 Y73.067 F7800.000
G1 E2.00000 F2400.00000
G1 F1800
G1 X83.522 Y71.816 E2.14120
G1 X94.672 Y66.135 E2.97719
G1 X96.616 Y65.503 E3.11378
G1 X108.977 Y63.545 E3.94986
G1 X111.022 Y63.545 E4.08647
G1 X123.384 Y65.503 E4.92256
G1 X125.328 Y66.135 E5.05914
G1 X136.478 Y71.816 E5.89514
G1 X138.132 Y73.018 E6.03174
G1 X146.982 Y81.868 E6.86787
G1 X148.184 Y83.522 E7.00448
G1 X153.865 Y94.672 E7.84047
G1 X154.497 Y96.617 E7.97706
G1 X156.455 Y108.978 E8.81314
G1 X156.455 Y111.022 E8.94975
G1 X154.497 Y123.384 E9.78584
G1 X153.865 Y125.328 E9.92242
G1 X148.184 Y136.478 E10.75841
G1 X146.982 Y138.132 E10.89502
G1 X138.132 Y146.982 E11.73115
G1 X136.478 Y148.184 E11.86775
G1 X125.328 Y153.865 E12.70375
G1 X123.383 Y154.497 E12.84034
G1 X111.022 Y156.455 E13.67642
G1 X108.978 Y156.455 E13.81303
G1 X96.617 Y154.497 E14.64911
G1 X94.672 Y153.865 E14.78570
G1 X83.522 Y148.184 E15.62169
G1 X81.868 Y146.982 E15.75830
G1 X73.018 Y138.132 E16.59443
G1 X71.816 Y136.478 E16.73103
G1 X66.135 Y125.328 E17.56703
G1 X65.503 Y123.384 E17.70362
G1 X63.545 Y111.022 E18.53970
G1 X63.545 Y108.978 E18.67630
G1 X65.503 Y96.616 E19.51239
G1 X66.135 Y94.672 E19.64898
G1 X71.816 Y83.522 E20.48497
G1 X73.018 Y81.868 E20.62158
G1 X81.765 Y73.120 E21.44805
G1 E19.44805 F2400.00000
G92 E0
G1 X141.238 Y132.695 F7800.000
G1 E2.00000 F2400.00000
G1 F1800
G1 X132.695 Y141.238 E2.80710
G1 X121.932 Y146.722 E3.61408
G1 X110.000 Y148.612 E4.42114
G1 X98.068 Y146.722 E5.22820
G1 X87.305 Y141.238 E6.03517
G1 X78.762 Y132.695 E6.84227
G1 X73.278 Y121.932 E7.64925
G1 X71.388 Y110.000 E8.45631
G1 X73.278 Y98.068 E9.26337
G1 X78.762 Y87.305 E10.07034
G1 X87.305 Y78.762 E10.87745
G1 X98.068 Y73.278 E11.68442
G1 X110.000 Y71.388 E12.49148
G1 X121.932 Y73.278 E13.29854
G1 X132.695 Y78.762 E14.10552
G1 X141.238 Y87.305 E14.91262
G1 X146.722 Y98.068 E15.71959
G1 X148.612 Y110.000 E16.52665
G1 X146.722 Y121.932 E17.33371
G1 X141.272 Y132.628 E18.13568
G1 X141.617 Y133.074 F7800.000
G1 F1800
G1 X133.014 Y141.677 E18.94845
G1 X122.100 Y147.237 E19.76676
G1 X110.000 Y149.154 E20.58515
G1 X97.900 Y147.237 E21.40355
G1 X86.986 Y141.677 E22.22186
G1 X78.323 Y133.014 E23.04029
G1 X72.763 Y122.100 E23.85860
G1 X70.846 Y110.000 E24.67700
G1 X72.763 Y97.900 E25.49539
G1 X78.323 Y86.986 E26.31370
G1 X86.986 Y78.323 E27.13214
G1 X97.900 Y72.763 E27.95045
G1 X110.000 Y70.846 E28.76884
G1 X122.100 Y72.763 E29.58724
G1 X133.014 Y78.323 E30.40555
G1 X141.677 Y86.986 E31.22399
G1 X147.237 Y97.900 E32.04230
G1 X149.154 Y110.000 E32.86069
G1 X147.237 Y122.100 E33.67908
G1 X141.670 Y133.021 E34.49802
G1 X141.995 Y133.452 F7800.000
G1 F1800
G1 X133.332 Y142.115 E35.31646
G1 X122.267 Y147.753 E36.14610
G1 X110.000 Y149.696 E36.97583
G1 X97.733 Y147.753 E37.80556
G1 X86.668 Y142.115 E38.63520
G1 X77.885 Y133.332 E39.46498
G1 X72.247 Y122.267 E40.29462
G1 X70.304 Y110.000 E41.12435
G1 X72.247 Y97.733 E41.95408
G1 X77.885 Y86.668 E42.78372
G1 X86.668 Y77.885 E43.61349
G1 X97.733 Y72.247 E44.44314
G1 X110.000 Y70.304 E45.27287
G1 X122.267 Y72.247 E46.10260
G1 X133.332 Y77.885 E46.93224
G1 X142.115 Y86.668 E47.76201
G1 X147.753 Y97.733 E48.59166
G1 X149.696 Y110.000 E49.42139
G1 X147.753 Y122.267 E50.25112
G1 X142.115 Y133.332 E51.08076
G1 X142.048 Y133.399 E51.08708
G1 X141.502 Y133.374 F7800.000
G1 X140.974 Y132.496 F7800.000
G1 F1800
G1 X132.496 Y132.496 E51.65345
G1 X132.496 Y140.974 E52.21982
G1 X131.960 Y141.306 F7800.000
G1 F1800
G1 X131.960 Y131.960 E52.84413
G1 X141.306 Y131.960 E53.46844
G1 X141.578 Y131.425 F7800.000
G1 F1800
G1 X131.425 Y131.425 E54.14676
G1 X131.425 Y141.578 E54.82508
G1 X130.889 Y141.851 F7800.000
G1 F1800
G1 X130.889 Y130.889 E55.55742
G1 X141.851 Y130.889 E56.28975
G1 X142.124 Y130.354 F7800.000
G1 F1800
G1 X130.354 Y130.354 E57.07610
G1 X130.354 Y142.124 E57.86245
G1 X129.818 Y142.397 F7800.000
G1 F1800
G1 X129.818 Y129.818 E58.70282
G1 X142.397 Y129.818 E59.54318
G1 X142.670 Y129.282 F7800.000
G1 F1800
G1 X129.282 Y129.282 E60.43755
G1 X129.282 Y142.670 E61.33193
G1 X128.747 Y142.943 F7800.000
G1 F1800
G1 X128.747 Y128.747 E62.28032
G1 X142.943 Y128.747 E63.22871
G1 X143.216 Y128.211 F7800.000
G1 F1800
G1 X128.211 Y128.211 E64.23111
G1 X128.211 Y143.216 E65.23352
G1 X127.675 Y143.489 F7800.000
G1 F1800
G1 X127.675 Y127.675 E66.28993
G1 X143.489 Y127.675 E67.34635
G1 X143.762 Y127.140 F7800.000
G1 F1800
G1 X127.140 Y127.140 E68.45678
G1 X127.140 Y143.762 E69.56721
G1 X126.604 Y144.035 F7800.000
G1 F1800
G1 X126.604 Y126.604 E70.73166
G1 X144.035 Y126.604 E71.89610
G1 X144.307 Y126.069 F7800.000
G1 F1800
G1 X126.069 Y126.069 E73.11456
G1 X126.069 Y144.307 E74.33302
G1 X125.533 Y144.580 F7800.000
G1 F1800
G1 X125.533 Y125.533 E75.60549
G1 X144.580 Y125.533 E76.87796
G1 X144.853 Y124.997 F7800.000
G1 F1800
G1 X124.997 Y124.997 E78.20444
G1 X124.997 Y144.853 E79.53093
G1 X124.616 Y145.068 F7800.000
G1 F1800
G1 X110.000 Y130.452 E80.91177
G1 X95.384 Y145.068 E82.29262
G1 X95.003 Y144.853 F7800.000
G1 F1800
G1 X95.003 Y124.997 E83.61910
G1 X75.147 Y124.997 E84.94559
G1 X74.932 Y124.616 F7800.000
G1 F1800
G1 X89.548 Y110.000 E86.32643
G1 X74.932 Y95.384 E87.70728
G1 X74.874 Y95.538 F7800.000
G1 F1800
G1 X95.538 Y95.538 E89.08778
G1 X95.538 Y74.874 E90.46828
G1 X95.384 Y74.932 F7800.000
G1 F1800
G1 X110.000 Y89.548 E91.84912
G1 X124.616 Y74.932 E93.22997
G1 X124.462 Y74.874 F7800.000
G1 F1800
G1 X124.462 Y95.538 E94.61046
G1 X145.126 Y95.538 E95.99096
G1 X145.068 Y95.384 F7800.000
G1 F1800
G1 X130.452 Y110.000 E97.37181
G1 X145.068 Y124.616 E98.75265
G1 X145.126 Y124.462 F7800.000
G1 F1800
G1 X124.462 Y124.462 E100.13315
G1 X124.462 Y145.126 E101.51365
G1 X124.114 Y145.323 F7800.000
G1 F1800
G1 X110.000 Y131.209 E102.84708
G1 X95.886 Y145.323 E104.18052
G1 X96.388 Y145.579 F7800.000
G1 F1800
G1 X110.000 Y131.967 E105.46655
G1 X123.612 Y145.579 E106.75257
G1 X123.110 Y145.835 F7800.000
G1 F1800
G1 X110.000 Y132.724 E107.99119
G1 X96.890 Y145.835 E109.22981
G1 X97.392 Y146.090 F7800.000
G1 F1800
G1 X110.000 Y133.482 E110.42102
G1 X122.608 Y146.090 E111.61222
G1 X122.107 Y146.346 F7800.000
G1 F1800
G1 X110.000 Y134.239 E112.75602
G1 X97.893 Y146.346 E113.89982
G1 X98.507 Y146.490 F7800.000
G1 F1800
G1 X110.000 Y134.997 E114.98568
G1 X121.493 Y146.490 E116.07153
G1 X120.839 Y146.594 F7800.000
G1 F1800
G1 X110.000 Y135.754 E117.09561
G1 X99.161 Y146.594 E118.11968
G1 X99.814 Y146.697 F7800.000
G1 F1800
G1 X110.000 Y136.512 E119.08198
G1 X120.186 Y146.697 E120.04428
G1 X119.532 Y146.801 F7800.000
G1 F1800
G1 X110.000 Y137.269 E120.94480
G1 X100.468 Y146.801 E121.84532
G1 X101.122 Y146.904 F7800.000
G1 F1800
G1 X110.000 Y138.027 E122.68406
G1 X118.878 Y146.904 E123.52280
G1 X118.224 Y147.008 F7800.000
G1 F1800
G1 X110.000 Y138.784 E124.29976
G1 X101.776 Y147.008 E125.07672
G1 X102.430 Y147.112 F7800.000
G1 F1800
G1 X110.000 Y139.542 E125.79190
G1 X117.570 Y147.112 E126.50709
G1 X116.916 Y147.215 F7800.000
G1 F1800
G1 X110.000 Y140.299 E127.16049
G1 X103.084 Y147.215 E127.81389
G1 X103.738 Y147.319 F7800.000
G1 F1800
G1 X110.000 Y141.057 E128.40552
G1 X116.262 Y147.319 E128.99715
G1 X115.608 Y147.422 F7800.000
G1 F1800
G1 X110.000 Y141.814 E129.52699
G1 X104.392 Y147.422 E130.05684
G1 X105.046 Y147.526 F7800.000
G1 F1800
G1 X110.000 Y142.572 E130.52491
G1 X114.954 Y147.526 E130.99298
G1 X114.300 Y147.630 F7800.000
G1 F1800
G1 X110.000 Y143.329 E131.39926
G1 X105.700 Y147.630 E131.80555
G1 X106.353 Y147.733 F7800.000
G1 F1800
G1 X110.000 Y144.087 E132.15006
G1 X113.646 Y147.733 E132.49458
G1 X112.993 Y147.837 F7800.000
G1 F1800
G1 X110.000 Y144.844 E132.77731
G1 X107.007 Y147.837 E133.06004
G1 X107.661 Y147.940 F7800.000
G1 F1800
G1 X110.000 Y145.602 E133.28099
G1 X112.339 Y147.940 E133.50195
G1 X111.685 Y148.044 F7800.000
G1 F1800
G1 X110.000 Y146.359 E133.66112
G1 X108.315 Y148.044 E133.82030
G1 X108.969 Y148.147 F7800.000
G1 F1800
G1 X110.000 Y147.117 E133.91769
G1 X111.031 Y148.147 E134.01509
G1 X110.377 Y148.251 F7800.000
G1 F1800
G1 X110.000 Y147.874 E134.05070
G1 X109.623 Y148.251 E134.08632
G1 E132.08632 F2400.00000
G92 E0
G1 X94.467 Y144.580 F7800.000
G1 E2.00000 F2400.00000
G1 F1800
G1 X94.467 Y125.533 E3.27247
G1 X75.420 Y125.533 E4.54494
G1 X75.693 Y126.069 F7800.000
G1 F1800
G1 X93.931 Y126.069 E5.76340
G1 X93.931 Y144.307 E6.98186
G1 X93.396 Y144.035 F7800.000
G1 F1800
G1 X93.396 Y126.604 E8.14630
G1 X75.965 Y126.604 E9.31075
G1 X76.238 Y127.140 F7800.000
G1 F1800
G1 X92.860 Y127.140 E10.42118
G1 X92.860 Y143.762 E11.53161
G1 X92.325 Y143.489 F7800.000
G1 F1800
G1 X92.325 Y127.675 E12.58803
G1 X76.511 Y127.675 E13.64444
G1 X76.784 Y128.211 F7800.000
G1 F1800
G1 X91.789 Y128.211 E14.64685
G1 X91.789 Y143.216 E15.64925
G1 X91.253 Y142.943 F7800.000
G1 F1800
G1 X91.253 Y128.747 E16.59764
G1 X77.057 Y128.747 E17.54603
G1 X77.330 Y129.282 F7800.000
G1 F1800
G1 X90.718 Y129.282 E18.44041
G1 X90.718 Y142.670 E19.33478
G1 X90.182 Y142.397 F7800.000
G1 F1800
G1 X90.182 Y129.818 E20.17515
G1 X77.603 Y129.818 E21.01551
G1 X77.876 Y130.354 F7800.000
G1 F1800
G1 X89.646 Y130.354 E21.80186
G1 X89.646 Y142.124 E22.58821
G1 X89.111 Y141.851 F7800.000
G1 F1800
G1 X89.111 Y130.889 E23.32055
G1 X78.149 Y130.889 E24.05288
G1 X78.422 Y131.425 F7800.000
G1 F1800
G1 X88.575 Y131.425 E24.73120
G1 X88.575 Y141.578 E25.40953
G1 X88.040 Y141.306 F7800.000
G1 F1800
G1 X88.040 Y131.960 E26.03383
G1 X78.694 Y131.960 E26.65814
G1 X79.026 Y132.496 F7800.000
G1 F1800
G1 X87.504 Y132.496 E27.22451
G1 X87.504 Y140.974 E27.79088
G1 X86.968 Y140.438 F7800.000
G1 F1800
G1 X86.968 Y133.032 E28.28569
G1 X79.562 Y133.032 E28.78050
G1 X80.097 Y133.567 F7800.000
G1 F1800
G1 X86.433 Y133.567 E29.20374
G1 X86.433 Y139.903 E29.62698
G1 X85.897 Y139.367 F7800.000
G1 F1800
G1 X85.897 Y134.103 E29.97866
G1 X80.633 Y134.103 E30.33034
G1 X81.169 Y134.638 F7800.000
G1 F1800
G1 X85.362 Y134.638 E30.61045
G1 X85.362 Y138.831 E30.89056
G1 X84.826 Y138.296 F7800.000
G1 F1800
G1 X84.826 Y135.174 E31.09911
G1 X81.704 Y135.174 E31.30766
G1 X82.240 Y135.710 F7800.000
G1 F1800
G1 X84.290 Y135.710 E31.44464
G1 X84.290 Y137.760 E31.58162
G1 X83.755 Y137.225 F7800.000
G1 F1800
G1 X83.755 Y136.245 E31.64704
G1 X82.775 Y136.245 E31.71246
G1 E29.71246 F2400.00000
G92 E0
G1 X74.874 Y124.462 F7800.000
G1 E2.00000 F2400.00000
G1 F1800
G1 X95.538 Y124.462 E3.38050
G1 X95.538 Y144.156 E4.69620
G1 X110.000 Y129.694 E6.06250
G1 X123.926 Y143.621 E7.37819
G1 X123.926 Y123.926 E8.69389
G1 X143.621 Y123.926 E10.00959
G1 X129.694 Y110.000 E11.32529
G1 X143.621 Y96.074 E12.64098
G1 X123.926 Y96.074 E13.95668
G1 X123.926 Y76.379 E15.27238
G1 X110.000 Y90.306 E16.58807
G1 X96.074 Y76.379 E17.90377
G1 X96.074 Y96.074 E19.21947
G1 X76.379 Y96.074 E20.53517
G1 X90.306 Y110.000 E21.85086
G1 X76.379 Y123.926 E23.16656
G1 X96.074 Y123.926 E24.48226
G1 X96.074 Y142.863 E25.74735
G1 X110.000 Y128.937 E27.06305
G1 X123.390 Y142.327 E28.32814
G1 X123.390 Y123.390 E29.59324
G1 X142.327 Y123.390 E30.85833
G1 X128.937 Y110.000 E32.12342
G1 X142.327 Y96.610 E33.38852
G1 X123.390 Y96.610 E34.65361
G1 X123.390 Y77.673 E35.91870
G1 X110.000 Y91.063 E37.18380
G1 X96.610 Y77.673 E38.44889
G1 X96.610 Y96.610 E39.71398
G1 X77.673 Y96.610 E40.97908
G1 X91.063 Y110.000 E42.24417
G1 X77.673 Y123.390 E43.50926
G1 X96.610 Y123.390 E44.77436
G1 X96.610 Y141.570 E45.98885
G1 X110.000 Y128.180 E47.25394
G1 X122.855 Y141.034 E48.46843
G1 X122.855 Y122.855 E49.68292
G1 X141.034 Y122.855 E50.89741
G1 X128.180 Y110.000 E52.11190
G1 X141.034 Y97.145 E53.32639
G1 X122.855 Y97.145 E54.54088
G1 X122.855 Y78.966 E55.75537
G1 X110.000 Y91.820 E56.96986
G1 X97.145 Y78.966 E58.18435
G1 X97.145 Y97.145 E59.39884
G1 X78.966 Y97.145 E60.61333
G1 X91.820 Y110.000 E61.82782
G1 X78.966 Y122.855 E63.04231
G1 X97.145 Y122.855 E64.25680
G1 X97.145 Y140.277 E65.42068
G1 X110.000 Y127.422 E66.63517
G1 X122.319 Y139.741 E67.79906
G1 X122.319 Y122.319 E68.96294
G1 X139.741 Y122.319 E70.12683
G1 X127.422 Y110.000 E71.29072
G1 X139.741 Y97.681 E72.45460
G1 X122.319 Y97.681 E73.61849
G1 X122.319 Y80.259 E74.78237
G1 X110.000 Y92.578 E75.94626
G1 X97.681 Y80.259 E77.11015
G1 X97.681 Y97.681 E78.27403
G1 X80.259 Y97.681 E79.43792
G1 X92.578 Y110.000 E80.60180
G1 X80.259 Y122.319 E81.76569
G1 X97.681 Y122.319 E82.92958
G1 X97.681 Y138.984 E84.04286
G1 X110.000 Y126.665 E85.20674
G1 X121.784 Y138.448 E86.32003
G1 X121.784 Y121.784 E87.43331
G1 X138.448 Y121.784 E88.54659
G1 X126.665 Y110.000 E89.65987
G1 X138.448 Y98.216 E90.77316
G1 X121.784 Y98.216 E91.88644
G1 X121.784 Y81.552 E92.99972
G1 X110.000 Y93.335 E94.11300
G1 X98.216 Y81.552 E95.22628
G1 X98.216 Y98.216 E96.33957
G1 X81.552 Y98.216 E97.45285
G1 X93.335 Y110.000 E98.56613
G1 X81.552 Y121.784 E99.67941
G1 X98.216 Y121.784 E100.79270
G1 X98.216 Y137.691 E101.85537
G1 X110.000 Y125.907 E102.96866
G1 X121.248 Y137.155 E104.03133
G1 X121.248 Y121.248 E105.09401
G1 X137.155 Y121.248 E106.15669
G1 X125.907 Y110.000 E107.21937
G1 X137.155 Y98.752 E108.28205
G1 X121.248 Y98.752 E109.34473
G1 X121.248 Y82.845 E110.40741
G1 X110.000 Y94.093 E111.47008
G1 X98.752 Y82.845 E112.53276
G1 X98.752 Y98.752 E113.59544
G1 X82.845 Y98.752 E114.65812
G1 X94.093 Y110.000 E115.72080
G1 X82.845 Y121.248 E116.78348
G1 X98.752 Y121.248 E117.84615
G1 X98.752 Y136.398 E118.85823
G1 X110.000 Y125.150 E119.92091
G1 X120.712 Y135.862 E120.93298
G1 X120.712 Y120.712 E121.94506
G1 X135.862 Y120.712 E122.95713
G1 X125.150 Y110.000 E123.96921
G1 X135.862 Y99.288 E124.98128
G1 X120.712 Y99.288 E125.99336
G1 X120.712 Y84.138 E127.00543
G1 X110.000 Y94.850 E128.01751
G1 X99.288 Y84.138 E129.02958
G1 X99.288 Y99.288 E130.04166
G1 X84.138 Y99.288 E131.05373
G1 X94.850 Y110.000 E132.06581
G1 X84.138 Y120.712 E133.07788
G1 X99.288 Y120.712 E134.08996
G1 X99.288 Y135.104 E135.05143
G1 X110.000 Y124.392 E136.06350
G1 X120.177 Y134.569 E137.02497
G1 X120.177 Y120.177 E137.98644
G1 X134.569 Y120.177 E138.94791
G1 X124.392 Y110.000 E139.90938
G1 X134.569 Y99.823 E140.87086
G1 X120.177 Y99.823 E141.83233
G1 X120.177 Y85.431 E142.79380
G1 X110.000 Y95.608 E143.75527
G1 X99.823 Y85.431 E144.71674
G1 X99.823 Y99.823 E145.67821
G1 X85.431 Y99.823 E146.63968
G1 X95.608 Y110.000 E147.60115
G1 X85.431 Y120.177 E148.56262
G1 X99.823 Y120.177 E149.52410
G1 X99.823 Y133.811 E150.43496
G1 X110.000 Y123.635 E151.39643
G1 X119.641 Y133.276 E152.30730
G1 X119.641 Y119.641 E153.21817
G1 X133.276 Y119.641 E154.12904
G1 X123.635 Y110.000 E155.03990
G1 X133.276 Y100.359 E155.95077
G1 X119.641 Y100.359 E156.86164
G1 X119.641 Y86.724 E157.77250
G1 X110.000 Y96.365 E158.68337
G1 X100.359 Y86.724 E159.59424
G1 X100.359 Y100.359 E160.50511
G1 X86.724 Y100.359 E161.41597
G1 X96.365 Y110.000 E162.32684
G1 X86.724 Y119.641 E163.23771
G1 X100.359 Y119.641 E164.14858
G1 X100.359 Y132.518 E165.00884
G1 X110.000 Y122.877 E165.91971
