; generated by Slic3r 1.3.1-dev on 2021-01-20 at 00:53:12

; external perimeters extrusion width = 0.55mm (3.45mm^3/s)
; perimeters extrusion width = 0.70mm (8.98mm^3/s)
; infill extrusion width = 0.63mm (10.59mm^3/s)
; solid infill extrusion width = 0.70mm (2.99mm^3/s)
; top infill extrusion width = 0.70mm (2.24mm^3/s)

M107
M190 S60 ; set bed temperature and wait for it to be reached
M104 S200 ; set temperature
G28 ; home all axes
G1 Z5 F5000 ; lift nozzle

; Filament gcode

M109 S200 ; set temperature and wait for it to be reached
G21 ; set units to millimeters
G90 ; use absolute coordinates
M82 ; use absolute distances for extrusion
G92 E0
G92 E0
G1 Z0.300 F7800.000
G1 E-2.00000 F2400.00000
G92 E0
G1 X82.015 Y73.220 F7800.000
G1 E2.00000 F2400.00000
G1 F1800
G1 X83.669 Y72.018 E2.13661
G1 X94.749 Y66.372 E2.96738
G1 X96.694 Y65.741 E3.10396
G1 X108.977 Y63.795 E3.93482
G1 X111.023 Y63.795 E4.07144
G1 X123.306 Y65.741 E4.90229
G1 X125.251 Y66.372 E5.03888
G1 X136.331 Y72.018 E5.86965
G1 X137.985 Y73.220 E6.00625
G1 X146.780 Y82.015 E6.83715
G1 X147.982 Y83.669 E6.97376
G1 X153.628 Y94.749 E7.80453
G1 X154.259 Y96.694 E7.94112
G1 X156.205 Y108.978 E8.77198
G1 X156.205 Y111.023 E8.90859
G1 X154.259 Y123.306 E9.73944
G1 X153.628 Y125.251 E9.87603
G1 X147.982 Y136.331 E10.70680
G1 X146.780 Y137.985 E10.84341
G1 X137.985 Y146.780 E11.67432
G1 X136.331 Y147.982 E11.81091
G1 X125.251 Y153.628 E12.64169
G1 X123.306 Y154.259 E12.77827
G1 X111.023 Y156.205 E13.60912
G1 X108.977 Y156.205 E13.74574
G1 X96.694 Y154.259 E14.57659
G1 X94.749 Y153.628 E14.71318
G1 X83.669 Y147.982 E15.54395
G1 X82.015 Y146.780 E15.68056
G1 X73.220 Y137.985 E16.51146
G1 X72.018 Y136.331 E16.64806
G1 X66.372 Y125.251 E17.47883
G1 X65.741 Y123.306 E17.61542
G1 X63.795 Y111.023 E18.44627
G1 X63.795 Y108.977 E18.58289
G1 X65.741 Y96.694 E19.41375
G1 X66.372 Y94.749 E19.55033
G1 X72.018 Y83.669 E20.38110
G1 X73.220 Y82.015 E20.51771
G1 X81.962 Y73.273 E21.34360
G1 E19.34360 F2400.00000
G92 E0
G1 X141.036 Y132.548 F7800.000
G1 E2.00000 F2400.00000
G1 F1800
G1 X132.548 Y141.036 E2.80188
G1 X121.855 Y146.484 E3.60363
G1 X110.000 Y148.362 E4.40546
G1 X98.145 Y146.484 E5.20729
G1 X87.452 Y141.036 E6.00904
G1 X78.964 Y132.548 E6.81092
G1 X73.516 Y121.855 E7.61267
G1 X71.638 Y110.000 E8.41451
G1 X73.516 Y98.145 E9.21634
G1 X78.964 Y87.452 E10.01809
G1 X87.452 Y78.964 E10.81997
G1 X98.145 Y73.516 E11.62172
G1 X110.000 Y71.638 E12.42355
G1 X121.855 Y73.516 E13.22539
G1 X132.548 Y78.964 E14.02714
G1 X141.036 Y87.452 E14.82901
G1 X146.484 Y98.145 E15.63076
G1 X148.362 Y110.000 E16.43260
G1 X146.484 Y121.855 E17.23443
G1 X141.070 Y132.481 E18.03117
G1 X141.414 Y132.927 F7800.000
G1 F1800
G1 X132.867 Y141.474 E18.83871
G1 X122.022 Y147.000 E19.65180
G1 X110.000 Y148.904 E20.46497
G1 X97.978 Y147.000 E21.27814
G1 X87.133 Y141.474 E22.09122
G1 X78.526 Y132.867 E22.90443
G1 X73.000 Y122.022 E23.71752
G1 X71.096 Y110.000 E24.53069
G1 X73.000 Y97.978 E25.34386
G1 X78.526 Y87.133 E26.15694
G1 X87.133 Y78.526 E26.97015
G1 X97.978 Y73.000 E27.78324
G1 X110.000 Y71.096 E28.59641
G1 X122.022 Y73.000 E29.40957
G1 X132.867 Y78.526 E30.22266
G1 X141.474 Y87.133 E31.03587
G1 X147.000 Y97.978 E31.84896
G1 X148.904 Y110.000 E32.66212
G1 X147.000 Y122.022 E33.47529
G1 X141.467 Y132.874 E34.28900
G1 X141.793 Y133.306 F7800.000
G1 F1800
G1 X133.186 Y141.913 E35.10221
G1 X122.190 Y147.515 E35.92663
G1 X110.000 Y149.446 E36.75114
G1 X97.810 Y147.515 E37.57564
G1 X86.814 Y141.913 E38.40006
G1 X78.087 Y133.186 E39.22461
G1 X72.485 Y122.190 E40.04903
G1 X70.554 Y110.000 E40.87353
G1 X72.485 Y97.810 E41.69803
G1 X78.087 Y86.814 E42.52245
G1 X86.814 Y78.087 E43.34700
G1 X97.810 Y72.485 E44.17142
G1 X110.000 Y70.554 E44.99592
G1 X122.190 Y72.485 E45.82043
G1 X133.186 Y78.087 E46.64485
G1 X141.913 Y86.814 E47.46939
G1 X147.515 Y97.810 E48.29381
G1 X149.446 Y110.000 E49.11832
G1 X147.515 Y122.190 E49.94282
G1 X141.913 Y133.186 E50.76724
G1 X141.846 Y133.252 E50.77356
G1 X141.299 Y133.227 F7800.000
G1 X140.625 Y132.496 F7800.000
G1 F1800
G1 X132.496 Y132.496 E51.31660
G1 X132.496 Y140.625 E51.85965
G1 X131.960 Y141.028 F7800.000
G1 F1800
G1 X131.960 Y131.960 E52.46544
G1 X141.028 Y131.960 E53.07124
G1 X141.301 Y131.425 F7800.000
G1 F1800
G1 X131.425 Y131.425 E53.73104
G1 X131.425 Y141.301 E54.39085
G1 X130.889 Y141.574 F7800.000
G1 F1800
G1 X130.889 Y130.889 E55.10467
G1 X141.574 Y130.889 E55.81850
G1 X141.847 Y130.354 F7800.000
G1 F1800
G1 X130.354 Y130.354 E56.58633
G1 X130.354 Y141.847 E57.35417
G1 X129.818 Y142.120 F7800.000
G1 F1800
G1 X129.818 Y129.818 E58.17602
G1 X142.120 Y129.818 E58.99786
G1 X142.393 Y129.282 F7800.000
G1 F1800
G1 X129.282 Y129.282 E59.87373
G1 X129.282 Y142.393 E60.74959
G1 X128.747 Y142.666 F7800.000
G1 F1800
G1 X128.747 Y128.747 E61.67946
G1 X142.666 Y128.747 E62.60934
G1 X142.939 Y128.211 F7800.000
G1 F1800
G1 X128.211 Y128.211 E63.59323
G1 X128.211 Y142.939 E64.57712
G1 X127.675 Y143.212 F7800.000
G1 F1800
G1 X127.675 Y127.675 E65.61502
G1 X143.212 Y127.675 E66.65293
G1 X143.485 Y127.140 F7800.000
G1 F1800
G1 X127.140 Y127.140 E67.74484
G1 X127.140 Y143.485 E68.83676
G1 X126.604 Y143.757 F7800.000
G1 F1800
G1 X126.604 Y126.604 E69.98269
G1 X143.757 Y126.604 E71.12862
G1 X144.030 Y126.069 F7800.000
G1 F1800
G1 X126.069 Y126.069 E72.32856
G1 X126.069 Y144.030 E73.52851
G1 X125.533 Y144.303 F7800.000
G1 F1800
G1 X125.533 Y125.533 E74.78246
G1 X144.303 Y125.533 E76.03642
G1 X144.576 Y124.997 F7800.000
G1 F1800
G1 X124.997 Y124.997 E77.34439
G1 X124.997 Y144.576 E78.65236
G1 X124.462 Y144.849 F7800.000
G1 F1800
G1 X124.462 Y124.462 E80.01435
G1 X144.849 Y124.462 E81.37633
G1 X144.884 Y124.432 F7800.000
G1 F1800
G1 X130.452 Y110.000 E82.73983
G1 X144.884 Y95.568 E84.10333
G1 X144.849 Y95.538 F7800.000
G1 F1800
G1 X124.462 Y95.538 E85.46532
G1 X124.462 Y75.151 E86.82730
G1 X124.432 Y75.116 F7800.000
G1 F1800
G1 X110.000 Y89.548 E88.19080
G1 X95.568 Y75.116 E89.55430
G1 X95.538 Y75.151 F7800.000
G1 F1800
G1 X95.538 Y95.538 E90.91629
G1 X75.151 Y95.538 E92.27827
G1 X75.116 Y95.568 F7800.000
G1 F1800
G1 X89.548 Y110.000 E93.64177
G1 X75.116 Y124.432 E95.00527
G1 X75.151 Y124.462 F7800.000
G1 F1800
G1 X95.538 Y124.462 E96.36726
G1 X95.538 Y144.156 E97.68296
G1 X110.000 Y129.694 E99.04926
G1 X123.926 Y143.621 E100.36495
G1 X123.926 Y123.926 E101.68065
G1 X143.621 Y123.926 E102.99635
G1 X129.694 Y110.000 E104.31205
G1 X143.621 Y96.074 E105.62774
G1 X123.926 Y96.074 E106.94344
G1 X123.926 Y76.379 E108.25914
G1 X110.000 Y90.306 E109.57483
G1 X96.074 Y76.379 E110.89053
G1 X96.074 Y96.074 E112.20623
G1 X76.379 Y96.074 E113.52193
G1 X90.306 Y110.000 E114.83762
G1 X76.379 Y123.926 E116.15332
G1 X96.074 Y123.926 E117.46902
G1 X96.074 Y142.863 E118.73411
G1 X110.000 Y128.937 E120.04981
G1 X123.390 Y142.327 E121.31490
G1 X123.390 Y123.390 E122.58000
G1 X142.327 Y123.390 E123.84509
G1 X128.937 Y110.000 E125.11018
G1 X142.327 Y96.610 E126.37528
G1 X123.390 Y96.610 E127.64037
G1 X123.390 Y77.673 E128.90546
G1 X110.000 Y91.063 E130.17056
G1 X96.610 Y77.673 E131.43565
G1 X96.610 Y96.610 E132.70074
G1 X77.673 Y96.610 E133.96584
G1 X91.063 Y110.000 E135.23093
G1 X77.673 Y123.390 E136.49602
G1 X96.610 Y123.390 E137.76112
G1 X96.610 Y141.570 E138.97561
G1 X110.000 Y128.180 E140.24070
G1 X122.855 Y141.034 E141.45519
G1 X122.855 Y122.855 E142.66968
G1 X141.034 Y122.855 E143.88417
G1 X128.180 Y110.000 E145.09866
G1 X141.034 Y97.145 E146.31315
G1 X122.855 Y97.145 E147.52764
G1 X122.855 Y78.966 E148.74213
G1 X110.000 Y91.820 E149.95662
G1 X97.145 Y78.966 E151.17111
G1 X97.145 Y97.145 E152.38560
G1 X78.966 Y97.145 E153.60009
G1 X91.820 Y110.000 E154.81458
G1 X78.966 Y122.855 E156.02907
G1 X97.145 Y122.855 E157.24356
G1 X97.145 Y140.277 E158.40744
G1 X110.000 Y127.422 E159.62193
G1 X122.319 Y139.741 E160.78582
G1 X122.319 Y122.319 E161.94970
G1 X139.741 Y122.319 E163.11359
G1 X127.422 Y110.000 E164.27748
G1 X139.741 Y97.681 E165.44136
G1 X122.319 Y97.681 E166.60525
G1 X122.319 Y80.259 E167.76913
G1 X110.000 Y92.578 E168.93302
G1 X97.681 Y80.259 E170.09691
G1 X97.681 Y97.681 E171.26079
G1 X80.259 Y97.681 E172.42468
G1 X92.578 Y110.000 E173.58856
G1 X80.259 Y122.319 E174.75245
G1 X97.681 Y122.319 E175.91634
G1 X97.681 Y138.984 E177.02962
G1 X110.000 Y126.665 E178.19350
G1 X121.784 Y138.448 E179.30679
G1 X121.784 Y121.784 E180.42007
G1 X138.448 Y121.784 E181.53335
G1 X126.665 Y110.000 E182.64663
G1 X138.448 Y98.216 E183.75992
G1 X121.784 Y98.216 E184.87320
G1 X121.784 Y81.552 E185.98648
G1 X110.000 Y93.335 E187.09976
G1 X98.216 Y81.552 E188.21304
G1 X98.216 Y98.216 E189.32633
G1 X81.552 Y98.216 E190.43961
G1 X93.335 Y110.000 E191.55289
G1 X81.552 Y121.784 E192.66617
G1 X98.216 Y121.784 E193.77946
G1 X98.216 Y137.691 E194.84213
G1 X110.000 Y125.907 E195.95542
G1 X121.248 Y137.155 E197.01809
G1 X121.248 Y121.248 E198.08077
G1 X137.155 Y121.248 E199.14345
G1 X125.907 Y110.000 E200.20613
G1 X137.155 Y98.752 E201.26881
G1 X121.248 Y98.752 E202.33149
G1 X121.248 Y82.845 E203.39417
G1 X110.000 Y94.093 E204.45684
G1 X98.752 Y82.845 E205.51952
G1 X98.752 Y98.752 E206.58220
G1 X82.845 Y98.752 E207.64488
G1 X94.093 Y110.000 E208.70756
G1 X82.845 Y121.248 E209.77024
G1 X98.752 Y121.248 E210.83292
G1 X98.752 Y136.398 E211.84499
G1 X110.000 Y125.150 E212.90767
G1 X120.712 Y135.862 E213.91974
G1 X120.712 Y120.712 E214.93182
G1 X135.862 Y120.712 E215.94389
G1 X125.150 Y110.000 E216.95597
G1 X135.862 Y99.288 E217.96804
G1 X120.712 Y99.288 E218.98012
G1 X120.712 Y84.138 E219.99219
G1 X110.000 Y94.850 E221.00427
G1 X99.288 Y84.138 E222.01634
G1 X99.288 Y99.288 E223.02842
G1 X84.138 Y99.288 E224.04049
G1 X94.850 Y110.000 E225.05257
G1 X84.138 Y120.712 E226.06464
G1 X99.288 Y120.712 E227.07672
G1 X99.288 Y135.104 E228.03819
G1 X110.000 Y124.392 E229.05026
G1 X120.177 Y134.569 E230.01173
G1 X120.177 Y120.177 E230.97320
G1 X134.569 Y120.177 E231.93467
G1 X124.392 Y110.000 E232.89615
G1 X134.569 Y99.823 E233.85762
G1 X120.177 Y99.823 E234.81909
G1 X120.177 Y85.431 E235.78056
G1 X110.000 Y95.608 E236.74203
G1 X99.823 Y85.431 E237.70350
G1 X99.823 Y99.823 E238.66497
G1 X85.431 Y99.823 E239.62644
G1 X95.608 Y110.000 E240.58791
G1 X85.431 Y120.177 E241.54938
G1 X99.823 Y120.177 E242.51086
G1 X99.823 Y133.811 E243.42172
G1 X110.000 Y123.635 E244.38319
G1 X119.641 Y133.276 E245.29406
G1 X119.641 Y119.641 E246.20493
G1 X133.276 Y119.641 E247.11580
G1 X123.635 Y110.000 E248.02666
G1 X133.276 Y100.359 E248.93753
G1 X119.641 Y100.359 E249.84840
G1 X119.641 Y86.724 E250.75926
G1 X110.000 Y96.365 E251.67013
G1 X100.359 Y86.724 E252.58100
G1 X100.359 Y100.359 E253.49187
G1 X86.724 Y100.359 E254.40273
G1 X96.365 Y110.000 E255.31360
G1 X86.724 Y119.641 E256.22447
G1 X100.359 Y119.641 E257.13534
G1 X100.359 Y132.518 E257.99560
G1 X110.000 Y122.877 E258.90647
G1 X119.106 Y131.983 E259.76673
G1 X119.106 Y119.106 E260.62699
G1 X131.983 Y119.106 E261.48726
G1 X122.877 Y110.000 E262.34752
G1 X131.983 Y100.894 E263.20778
G1 X119.106 Y100.894 E264.06805
G1 X119.106 Y88.017 E264.92831
G1 X110.000 Y97.123 E265.78858
G1 X100.894 Y88.017 E266.64884
G1 X100.894 Y100.894 E267.50910
G1 X88.017 Y100.894 E268.36937
G1 X97.123 Y110.000 E269.22963
G1 X88.017 Y119.106 E270.08989
G1 X100.894 Y119.106 E270.95016
G1 X100.894 Y131.225 E271.75982
G1 X110.000 Y122.120 E272.62008
G1 X118.570 Y130.690 E273.42974
G1 X118.570 Y118.570 E274.23940
G1 X130.690 Y118.570 E275.04906
G1 X122.120 Y110.000 E275.85872
G1 X130.690 Y101.430 E276.66838
G1 X118.570 Y101.430 E277.47804
G1 X118.570 Y89.310 E278.28770
G1 X110.000 Y97.880 E279.09736
G1 X101.430 Y89.310 E279.90702
G1 X101.430 Y101.430 E280.71668
G1 X89.310 Y101.430 E281.52634
G1 X97.880 Y110.000 E282.33600
G1 X89.310 Y118.570 E283.14566
G1 X101.430 Y118.570 E283.95532
G1 X101.430 Y129.932 E284.71437
G1 X110.000 Y121.362 E285.52403
G1 X118.034 Y129.396 E286.28309
G1 X118.034 Y118.034 E287.04215
G1 X129.396 Y118.034 E287.80120
G1 X121.362 Y110.000 E288.56026
G1 X129.396 Y101.966 E289.31931
G1 X118.034 Y101.966 E290.07837
G1 X118.034 Y90.604 E290.83743
G1 X110.000 Y98.638 E291.59648
G1 X101.966 Y90.604 E292.35554
G1 X101.966 Y101.966 E293.11459
G1 X90.604 Y101.966 E293.87365
G1 X98.638 Y110.000 E294.63271
G1 X90.604 Y118.034 E295.39176
G1 X101.966 Y118.034 E296.15082
G1 X101.966 Y128.639 E296.85927
G1 X110.000 Y120.605 E297.61833
G1 X117.499 Y128.103 E298.32678
G1 X117.499 Y117.499 E299.03523
G1 X128.103 Y117.499 E299.74368
G1 X120.605 Y110.000 E300.45214
G1 X128.103 Y102.501 E301.16059
G1 X117.499 Y102.501 E301.86904
G1 X117.499 Y91.897 E302.57749
G1 X110.000 Y99.395 E303.28595
G1 X102.501 Y91.897 E303.99440
G1 X102.501 Y102.501 E304.70285
G1 X91.897 Y102.501 E305.41130
G1 X99.395 Y110.000 E306.11975
G1 X91.897 Y117.499 E306.82821
G1 X102.501 Y117.499 E307.53666
G1 X102.501 Y127.346 E308.19451
G1 X110.000 Y119.847 E308.90296
G1 X116.963 Y126.810 E309.56081
G1 X116.963 Y116.963 E310.21866
G1 X126.810 Y116.963 E310.87651
G1 X119.847 Y110.000 E311.53435
G1 X126.810 Y103.037 E312.19220
G1 X116.963 Y103.037 E312.85005
G1 X116.963 Y93.190 E313.50790
G1 X110.000 Y100.153 E314.16575
G1 X103.037 Y93.190 E314.82360
G1 X103.037 Y103.037 E315.48145
G1 X93.190 Y103.037 E316.13930
G1 X100.153 Y110.000 E316.79714
G1 X93.190 Y116.963 E317.45499
G1 X103.037 Y116.963 E318.11284
G1 X103.037 Y126.053 E318.72009
G1 X110.000 Y119.090 E319.37793
G1 X116.427 Y125.517 E319.98518
G1 X116.427 Y116.427 E320.59242
G1 X125.517 Y116.427 E321.19967
G1 X119.090 Y110.000 E321.80691
G1 X125.517 Y103.573 E322.41416
G1 X116.427 Y103.573 E323.02140
G1 X116.427 Y94.483 E323.62865
G1 X110.000 Y100.910 E324.23589
G1 X103.573 Y94.483 E324.84314
G1 X103.573 Y103.573 E325.45038
G1 X94.483 Y103.573 E326.05763
G1 X100.910 Y110.000 E326.66487
G1 X94.483 Y116.427 E327.27212
G1 X103.573 Y116.427 E327.87936
G1 X103.573 Y124.760 E328.43600
G1 X110.000 Y118.332 E329.04325
G1 X115.892 Y124.224 E329.59989
G1 X115.892 Y115.892 E330.15653
G1 X124.224 Y115.892 E330.71317
G1 X118.332 Y110.000 E331.26981
G1 X124.224 Y104.108 E331.82645
G1 X115.892 Y104.108 E332.38310
G1 X115.892 Y95.776 E332.93974
G1 X110.000 Y101.668 E333.49638
G1 X104.108 Y95.776 E334.05302
G1 X104.108 Y104.108 E334.60966
G1 X95.776 Y104.108 E335.16630
G1 X101.668 Y110.000 E335.72294
G1 X95.776 Y115.892 E336.27958
G1 X104.108 Y115.892 E336.83622
G1 X104.108 Y123.467 E337.34226
G1 X110.000 Y117.575 E337.89890
G1 X115.356 Y122.931 E338.40494
G1 X115.356 Y115.356 E338.91098
G1 X122.931 Y115.356 E339.41701
G1 X117.575 Y110.000 E339.92305
G1 X122.931 Y104.644 E340.42909
G1 X115.356 Y104.644 E340.93513
G1 X115.356 Y97.069 E341.44116
G1 X110.000 Y102.425 E341.94720
G1 X104.644 Y97.069 E342.45324
G1 X104.644 Y104.644 E342.95928
G1 X97.069 Y104.644 E343.46531
G1 X102.425 Y110.000 E343.97135
G1 X97.069 Y115.356 E344.47739
G1 X104.644 Y115.356 E344.98343
G1 X104.644 Y122.174 E345.43886
G1 X110.000 Y116.817 E345.94490
G1 X114.821 Y121.638 E346.40033
G1 X114.821 Y114.821 E346.85576
G1 X121.638 Y114.821 E347.31120
G1 X116.817 Y110.000 E347.76663
G1 X121.638 Y105.179 E348.22207
G1 X114.821 Y105.179 E348.67750
G1 X114.821 Y98.362 E349.13293
G1 X110.000 Y103.183 E349.58837
G1 X105.179 Y98.362 E350.04380
G1 X105.179 Y105.179 E350.49923
G1 X98.362 Y105.179 E350.95467
G1 X103.183 Y110.000 E351.41010
G1 X98.362 Y114.821 E351.86553
G1 X105.179 Y114.821 E352.32097
G1 X105.179 Y120.880 E352.72580
G1 X110.000 Y116.060 E353.18123
G1 X114.285 Y120.345 E353.58606
G1 X114.285 Y114.285 E353.99089
G1 X120.345 Y114.285 E354.39572
G1 X116.060 Y110.000 E354.80055
G1 X120.345 Y105.715 E355.20538
