; generated by Slic3r 1.3.1-dev on 2021-01-12 at 00:16:28

; external perimeters extrusion width = 0.55mm (3.45mm^3/s)
; perimeters extrusion width = 0.70mm (8.98mm^3/s)
; infill extrusion width = 0.63mm (10.59mm^3/s)
; solid infill extrusion width = 0.70mm (2.99mm^3/s)
; top infill extrusion width = 0.70mm (2.24mm^3/s)

M107
M190 S60 ; set bed temperature and wait for it to be reached
M104 S200 ; set temperature
G28 ; home all axes
G1 Z5 F5000 ; lift nozzle

; Filament gcode

M109 S200 ; set temperature and wait for it to be reached
G21 ; set units to millimeters
G90 ; use absolute coordinates
M82 ; use absolute distances for extrusion
G92 E0
G92 E0
G1 Z0.300 F7800.000
G1 E-2.00000 F2400.00000
G92 E0
G1 X86.276 Y79.086 F7800.000
G1 E2.00000 F2400.00000
G1 F1800
G1 X87.930 Y77.884 E2.13661
G1 X96.990 Y73.268 E2.81590
G1 X98.934 Y72.636 E2.95248
G1 X108.977 Y71.045 E3.63177
G1 X111.023 Y71.045 E3.76840
G1 X121.066 Y72.636 E4.44770
G1 X123.010 Y73.268 E4.58427
G1 X132.070 Y77.884 E5.26356
G1 X133.724 Y79.086 E5.40018
G1 X140.914 Y86.276 E6.07947
G1 X142.116 Y87.930 E6.21608
G1 X146.732 Y96.990 E6.89537
G1 X147.364 Y98.934 E7.03194
G1 X148.955 Y108.977 E7.71124
G1 X148.955 Y111.023 E7.84787
G1 X147.364 Y121.066 E8.52716
G1 X146.732 Y123.010 E8.66374
G1 X142.116 Y132.070 E9.34303
G1 X140.914 Y133.724 E9.47964
G1 X133.724 Y140.914 E10.15893
G1 X132.070 Y142.116 E10.29555
G1 X123.010 Y146.732 E10.97483
G1 X121.066 Y147.364 E11.11141
G1 X111.023 Y148.955 E11.79071
G1 X108.977 Y148.955 E11.92734
G1 X98.934 Y147.364 E12.60663
G1 X96.990 Y146.732 E12.74321
G1 X87.930 Y142.116 E13.42249
G1 X86.276 Y140.914 E13.55911
G1 X79.086 Y133.724 E14.23840
G1 X77.884 Y132.070 E14.37501
G1 X73.268 Y123.010 E15.05430
G1 X72.636 Y121.066 E15.19088
G1 X71.045 Y111.023 E15.87017
G1 X71.045 Y108.977 E16.00680
G1 X72.636 Y98.934 E16.68610
G1 X73.268 Y96.990 E16.82267
G1 X77.884 Y87.930 E17.50196
G1 X79.086 Y86.276 E17.63858
G1 X86.223 Y79.139 E18.31286
G1 E16.31286 F2400.00000
G92 E0
G1 X105.597 Y116.520 F7800.000
G1 E2.00000 F2400.00000
G1 F1800
G1 X103.520 Y118.597 E2.19623
G1 X100.902 Y119.931 E2.39255
G1 X98.000 Y120.390 E2.58882
G1 X95.098 Y119.931 E2.78509
G1 X92.480 Y118.597 E2.98140
G1 X90.403 Y116.520 E3.17764
G1 X89.069 Y113.902 E3.37395
G1 X88.610 Y111.000 E3.57022
G1 X89.069 Y108.098 E3.76649
G1 X90.403 Y105.480 E3.96281
G1 X92.480 Y103.403 E4.15904
G1 X95.098 Y102.069 E4.35533
G1 X98.000 Y101.609 E4.55163
G1 X100.902 Y102.069 E4.74793
G1 X103.520 Y103.403 E4.94423
G1 X105.597 Y105.480 E5.14046
G1 X106.931 Y108.098 E5.33676
G1 X107.391 Y111.000 E5.53306
G1 X106.931 Y113.902 E5.72936
G1 X105.631 Y116.453 E5.92064
G1 X105.158 Y116.201 F7800.000
G1 F1800
G1 X103.201 Y118.158 E6.10555
G1 X100.734 Y119.416 E6.29052
G1 X98.000 Y119.848 E6.47546
G1 X95.266 Y119.416 E6.66040
G1 X92.799 Y118.158 E6.84537
G1 X90.842 Y116.201 E7.03027
G1 X89.584 Y113.734 E7.21525
G1 X89.152 Y111.000 E7.40019
G1 X89.584 Y108.266 E7.58513
G1 X90.842 Y105.799 E7.77010
G1 X92.799 Y103.842 E7.95500
G1 X95.265 Y102.584 E8.13997
G1 X98.000 Y102.151 E8.32493
G1 X100.735 Y102.584 E8.50989
G1 X103.201 Y103.842 E8.69485
G1 X105.158 Y105.799 E8.87975
G1 X106.416 Y108.265 E9.06472
G1 X106.849 Y111.000 E9.24968
G1 X106.416 Y113.735 E9.43464
G1 X105.192 Y116.134 E9.61459
G1 X104.720 Y115.883 F7800.000
G1 F1800
G1 X102.883 Y117.720 E9.78816
G1 X100.567 Y118.900 E9.96180
G1 X98.000 Y119.306 E10.13540
G1 X95.433 Y118.900 E10.30901
G1 X93.117 Y117.720 E10.48265
G1 X91.280 Y115.883 E10.65622
G1 X90.100 Y113.567 E10.82985
G1 X89.694 Y111.000 E11.00346
G1 X90.100 Y108.433 E11.17707
G1 X91.280 Y106.117 E11.35070
G1 X93.117 Y104.280 E11.52427
G1 X95.433 Y103.100 E11.69790
G1 X98.000 Y102.693 E11.87153
G1 X100.567 Y103.100 E12.04515
G1 X102.883 Y104.280 E12.21878
G1 X104.720 Y106.117 E12.39235
G1 X105.900 Y108.433 E12.56598
G1 X106.307 Y111.000 E12.73960
G1 X105.900 Y113.567 E12.91323
G1 X104.754 Y115.816 E13.08185
G1 X104.720 Y115.883 F7800.000
G1 E11.08185 F2400.00000
G92 E0
G1 X115.069 Y113.902 F7800.000
G1 E2.00000 F2400.00000
G1 F1800
G1 X114.610 Y111.000 E2.19627
G1 X115.069 Y108.098 E2.39254
G1 X116.403 Y105.480 E2.58886
G1 X118.480 Y103.403 E2.78509
G1 X121.098 Y102.069 E2.98138
G1 X124.000 Y101.609 E3.17768
G1 X126.902 Y102.069 E3.37399
G1 X129.520 Y103.403 E3.57028
G1 X131.597 Y105.480 E3.76651
G1 X132.931 Y108.098 E3.96281
G1 X133.391 Y111.000 E4.15911
G1 X132.931 Y113.902 E4.35541
G1 X131.597 Y116.520 E4.55170
G1 X129.520 Y118.597 E4.74794
G1 X126.902 Y119.931 E4.94425
G1 X124.000 Y120.390 E5.14052
G1 X121.098 Y119.931 E5.33679
G1 X118.480 Y118.597 E5.53311
G1 X116.403 Y116.520 E5.72934
G1 X115.103 Y113.969 E5.92064
G1 X115.584 Y113.734 F7800.000
G1 F1800
G1 X115.152 Y111.000 E6.10558
G1 X115.584 Y108.266 E6.29052
G1 X116.842 Y105.799 E6.47550
G1 X118.799 Y103.842 E6.66040
G1 X121.265 Y102.584 E6.84536
G1 X124.000 Y102.151 E7.03032
G1 X126.735 Y102.584 E7.21528
G1 X129.201 Y103.842 E7.40025
G1 X131.158 Y105.799 E7.58515
G1 X132.416 Y108.265 E7.77011
G1 X132.849 Y111.000 E7.95507
G1 X132.416 Y113.735 E8.14003
G1 X131.158 Y116.201 E8.32500
G1 X129.201 Y118.158 E8.50990
G1 X126.734 Y119.416 E8.69487
G1 X124.000 Y119.848 E8.87981
G1 X121.266 Y119.416 E9.06475
G1 X118.799 Y118.158 E9.24973
G1 X116.842 Y116.201 E9.43463
G1 X115.618 Y113.801 E9.61459
G1 X116.100 Y113.567 F7800.000
G1 F1800
G1 X115.694 Y111.000 E9.78820
G1 X116.100 Y108.433 E9.96181
G1 X117.280 Y106.117 E10.13544
G1 X119.117 Y104.280 E10.30901
G1 X121.433 Y103.100 E10.48264
G1 X124.000 Y102.693 E10.65627
G1 X126.567 Y103.100 E10.82989
G1 X128.883 Y104.280 E11.00352
G1 X130.720 Y106.117 E11.17709
G1 X131.900 Y108.433 E11.35072
G1 X132.307 Y111.000 E11.52434
G1 X131.900 Y113.567 E11.69797
G1 X130.720 Y115.883 E11.87160
G1 X128.883 Y117.720 E12.04517
G1 X126.567 Y118.900 E12.21880
G1 X124.000 Y119.306 E12.39241
G1 X121.433 Y118.900 E12.56602
G1 X119.117 Y117.720 E12.73965
G1 X117.280 Y115.883 E12.91322
G1 X116.134 Y113.634 E13.08185
G1 X116.100 Y113.567 F7800.000
G1 E11.08185 F2400.00000
G92 E0
G1 X137.194 Y124.314 F7800.000
G1 E2.00000 F2400.00000
G1 F1800
G1 X135.170 Y128.287 E2.29788
G1 X128.287 Y135.170 E2.94815
G1 X119.614 Y139.589 E3.59842
G1 X110.000 Y141.112 E4.24869
G1 X100.386 Y139.589 E4.89897
G1 X91.713 Y135.170 E5.54924
G1 X84.830 Y128.287 E6.19951
G1 X80.411 Y119.614 E6.84978
G1 X78.888 Y110.000 E7.50006
G1 X80.411 Y100.386 E8.15033
G1 X84.830 Y91.713 E8.80060
G1 X91.713 Y84.830 E9.45087
G1 X100.386 Y80.411 E10.10114
G1 X110.000 Y78.888 E10.75142
G1 X119.614 Y80.411 E11.40169
G1 X128.287 Y84.830 E12.05196
G1 X135.170 Y91.713 E12.70223
G1 X139.589 Y100.386 E13.35250
G1 X141.112 Y110.000 E14.00278
G1 X139.589 Y119.614 E14.65305
G1 X137.228 Y124.247 E15.00043
G1 X137.671 Y124.557 F7800.000
G1 F1800
G1 X135.609 Y128.606 E15.30398
G1 X128.606 Y135.609 E15.96559
G1 X119.782 Y140.104 E16.62719
G1 X110.000 Y141.654 E17.28880
G1 X100.218 Y140.104 E17.95041
G1 X91.394 Y135.609 E18.61201
G1 X84.391 Y128.606 E19.27362
G1 X79.896 Y119.782 E19.93522
G1 X78.346 Y110.000 E20.59683
G1 X79.896 Y100.218 E21.25844
G1 X84.391 Y91.394 E21.92005
G1 X91.394 Y84.391 E22.58165
G1 X100.218 Y79.896 E23.24326
G1 X110.000 Y78.346 E23.90487
G1 X119.782 Y79.896 E24.56648
G1 X128.606 Y84.391 E25.22808
G1 X135.609 Y91.394 E25.88969
G1 X140.104 Y100.218 E26.55129
G1 X141.654 Y110.000 E27.21290
G1 X140.104 Y119.782 E27.87451
G1 X137.705 Y124.490 E28.22756
G1 X138.148 Y124.800 F7800.000
G1 F1800
G1 X136.047 Y128.924 E28.53677
G1 X128.924 Y136.047 E29.20972
G1 X119.949 Y140.620 E29.88265
G1 X110.000 Y142.196 E30.55560
G1 X100.051 Y140.620 E31.22854
G1 X91.076 Y136.047 E31.90148
G1 X83.953 Y128.924 E32.57442
G1 X79.380 Y119.949 E33.24736
G1 X77.804 Y110.000 E33.92031
G1 X79.380 Y100.051 E34.59325
G1 X83.953 Y91.076 E35.26619
G1 X91.076 Y83.953 E35.93913
G1 X100.051 Y79.380 E36.61207
G1 X110.000 Y77.804 E37.28502
G1 X119.949 Y79.380 E37.95796
G1 X128.924 Y83.953 E38.63090
G1 X136.047 Y91.076 E39.30384
G1 X140.620 Y100.051 E39.97678
G1 X142.196 Y110.000 E40.64972
G1 X140.620 Y119.949 E41.32267
G1 X138.183 Y124.733 E41.68138
G1 X137.652 Y124.860 F7800.000
G1 X137.085 Y123.926 F7800.000
G1 F1800
G1 X123.926 Y123.926 E42.56047
G1 X123.926 Y137.085 E43.43957
G1 X123.390 Y137.358 F7800.000
G1 F1800
G1 X123.390 Y123.390 E44.37268
G1 X137.358 Y123.390 E45.30578
G1 X137.631 Y122.855 F7800.000
G1 F1800
G1 X122.855 Y122.855 E46.29290
G1 X122.855 Y137.631 E47.28002
G1 X122.319 Y137.904 F7800.000
G1 F1800
G1 X122.319 Y122.319 E48.32115
G1 X137.904 Y122.319 E49.36229
G1 X138.177 Y121.784 F7800.000
G1 F1800
G1 X121.784 Y121.784 E50.45743
G1 X121.784 Y138.177 E51.55258
G1 X121.617 Y138.281 F7800.000
G1 F1800
G1 X110.000 Y126.665 E52.65011
G1 X98.383 Y138.281 E53.74764
G1 X98.885 Y138.537 F7800.000
G1 F1800
G1 X110.000 Y127.422 E54.79777
G1 X121.115 Y138.537 E55.84789
G1 X120.613 Y138.793 F7800.000
G1 F1800
G1 X110.000 Y128.180 E56.85060
G1 X99.387 Y138.793 E57.85332
G1 X99.889 Y139.048 F7800.000
G1 F1800
G1 X110.000 Y128.937 E58.80862
G1 X120.111 Y139.048 E59.76392
G1 X119.596 Y139.290 F7800.000
G1 F1800
G1 X110.000 Y129.694 E60.67053
G1 X100.404 Y139.290 E61.57713
G1 X101.058 Y139.394 F7800.000
G1 F1800
G1 X110.000 Y130.452 E62.42196
G1 X118.942 Y139.394 E63.26679
G1 X118.288 Y139.498 F7800.000
G1 F1800
G1 X110.000 Y131.209 E64.04984
G1 X101.712 Y139.498 E64.83289
G1 X102.366 Y139.601 F7800.000
G1 F1800
G1 X110.000 Y131.967 E65.55416
G1 X117.634 Y139.601 E66.27543
G1 X116.980 Y139.705 F7800.000
G1 F1800
G1 X110.000 Y132.724 E66.93492
G1 X103.020 Y139.705 E67.59442
G1 X103.673 Y139.808 F7800.000
G1 F1800
G1 X110.000 Y133.482 E68.19213
G1 X116.327 Y139.808 E68.78985
G1 X115.673 Y139.912 F7800.000
G1 F1800
G1 X110.000 Y134.239 E69.32579
G1 X104.327 Y139.912 E69.86172
G1 X104.981 Y140.016 F7800.000
G1 F1800
G1 X110.000 Y134.997 E70.33588
G1 X115.019 Y140.016 E70.81005
G1 X114.365 Y140.119 F7800.000
G1 F1800
G1 X110.000 Y135.754 E71.22243
G1 X105.635 Y140.119 E71.63481
G1 X106.289 Y140.223 F7800.000
G1 F1800
G1 X110.000 Y136.512 E71.98542
G1 X113.711 Y140.223 E72.33602
G1 X113.057 Y140.326 F7800.000
G1 F1800
G1 X110.000 Y137.269 E72.62485
G1 X106.943 Y140.326 E72.91368
G1 X107.597 Y140.430 F7800.000
G1 F1800
G1 X110.000 Y138.027 E73.14073
G1 X112.403 Y140.430 E73.36778
G1 X111.749 Y140.534 F7800.000
G1 F1800
G1 X110.000 Y138.784 E73.53305
G1 X108.251 Y140.534 E73.69832
G1 X108.905 Y140.637 F7800.000
G1 F1800
G1 X110.000 Y139.542 E73.80181
G1 X111.095 Y140.637 E73.90531
G1 X110.442 Y140.741 F7800.000
G1 F1800
G1 X110.000 Y140.299 E73.94702
G1 X109.558 Y140.741 E73.98874
G1 E71.98874 F2400.00000
G92 E0
G1 X97.681 Y137.904 F7800.000
G1 E2.00000 F2400.00000
G1 F1800
G1 X97.681 Y122.319 E3.04113
G1 X82.096 Y122.319 E4.08227
G1 X82.369 Y122.855 F7800.000
G1 F1800
G1 X97.145 Y122.855 E5.06939
G1 X97.145 Y137.631 E6.05651
G1 X96.610 Y137.358 F7800.000
G1 F1800
G1 X96.610 Y123.390 E6.98961
G1 X82.642 Y123.390 E7.92272
G1 X82.915 Y123.926 F7800.000
G1 F1800
G1 X96.074 Y123.926 E8.80181
G1 X96.074 Y137.085 E9.68091
G1 X95.538 Y136.812 F7800.000
G1 F1800
G1 X95.538 Y124.462 E10.50599
G1 X83.188 Y124.462 E11.33107
G1 X83.461 Y124.997 F7800.000
G1 F1800
G1 X95.003 Y124.997 E12.10214
G1 X95.003 Y136.539 E12.87321
G1 X94.467 Y136.266 F7800.000
G1 F1800
G1 X94.467 Y125.533 E13.59026
G1 X83.734 Y125.533 E14.30732
G1 X84.006 Y126.069 F7800.000
G1 F1800
G1 X93.931 Y126.069 E14.97036
G1 X93.931 Y135.994 E15.63340
G1 X93.396 Y135.721 F7800.000
G1 F1800
G1 X93.396 Y126.604 E16.24243
G1 X84.279 Y126.604 E16.85146
G1 X84.552 Y127.140 F7800.000
G1 F1800
G1 X92.860 Y127.140 E17.40647
G1 X92.860 Y135.448 E17.96149
G1 X92.325 Y135.175 F7800.000
G1 F1800
G1 X92.325 Y127.675 E18.46249
G1 X84.825 Y127.675 E18.96349
G1 X85.217 Y128.211 F7800.000
G1 F1800
G1 X91.789 Y128.211 E19.40253
G1 X91.789 Y134.783 E19.84156
G1 X91.253 Y134.247 F7800.000
G1 F1800
G1 X91.253 Y128.747 E20.20903
G1 X85.753 Y128.747 E20.57650
G1 X86.288 Y129.282 F7800.000
G1 F1800
G1 X90.718 Y129.282 E20.87240
G1 X90.718 Y133.712 E21.16831
G1 X90.182 Y133.176 F7800.000
G1 F1800
G1 X90.182 Y129.818 E21.39265
G1 X86.824 Y129.818 E21.61699
G1 X87.360 Y130.354 F7800.000
G1 F1800
G1 X89.646 Y130.354 E21.76976
G1 X89.646 Y132.640 E21.92254
G1 X89.111 Y132.105 F7800.000
G1 F1800
G1 X89.111 Y130.889 E22.00375
G1 X87.895 Y130.889 E22.08496
G1 E20.08496 F2400.00000
G92 E0
G1 X81.823 Y121.784 F7800.000
G1 E2.00000 F2400.00000
G1 F1800
G1 X98.216 Y121.784 E3.09515
G1 X98.216 Y137.691 E4.15782
G1 X110.000 Y125.907 E5.27111
G1 X121.248 Y137.155 E6.33379
G1 X121.248 Y121.248 E7.39646
G1 X137.155 Y121.248 E8.45914
G1 X132.067 Y116.160 E8.93983
G1 X131.804 Y116.654 F7800.000
G1 F1800
G1 X135.862 Y120.712 E9.32323
G1 X125.098 Y120.712 E10.04234
G1 E8.04234 F2400.00000
G92 E0
G1 X122.902 Y120.712 F7800.000
G1 E2.00000 F2400.00000
G1 F1800
G1 X120.712 Y120.712 E2.14630
G1 X120.712 Y135.862 E3.15837
G1 X110.000 Y125.150 E4.17045
G1 X98.752 Y136.398 E5.23312
G1 X98.752 Y121.248 E6.24520
G1 X82.845 Y121.248 E7.30788
G1 X89.258 Y114.835 E7.91373
G1 X89.002 Y114.334 F7800.000
G1 F1800
G1 X81.719 Y121.617 E8.60183
G1 X81.463 Y121.115 F7800.000
G1 F1800
G1 X88.755 Y113.823 E9.29078
G1 X88.652 Y113.169 F7800.000
G1 F1800
G1 X81.207 Y120.613 E9.99411
G1 X80.952 Y120.111 F7800.000
G1 F1800
G1 X88.548 Y112.515 E10.71182
G1 X88.445 Y111.861 F7800.000
G1 F1800
G1 X80.709 Y119.596 E11.44263
G1 X80.606 Y118.942 F7800.000
G1 F1800
G1 X88.341 Y111.207 E12.17346
G1 X88.328 Y110.463 F7800.000
G1 F1800
G1 X80.502 Y118.288 E12.91278
G1 X80.399 Y117.634 F7800.000
G1 F1800
G1 X88.033 Y110.000 E13.63406
G1 X80.399 Y102.366 E14.35533
G1 X80.295 Y103.020 F7800.000
G1 F1800
G1 X87.276 Y110.000 E15.01482
G1 X80.295 Y116.980 E15.67432
G1 X80.192 Y116.327 F7800.000
G1 F1800
G1 X86.518 Y110.000 E16.27203
G1 X80.192 Y103.673 E16.86975
G1 X80.088 Y104.327 F7800.000
G1 F1800
G1 X85.761 Y110.000 E17.40569
G1 X80.088 Y115.673 E17.94163
G1 X79.984 Y115.019 F7800.000
G1 F1800
G1 X85.003 Y110.000 E18.41579
G1 X79.984 Y104.981 E18.88995
G1 X79.881 Y105.635 F7800.000
G1 F1800
G1 X84.246 Y110.000 E19.30233
G1 X79.881 Y114.365 E19.71472
G1 X79.777 Y113.711 F7800.000
G1 F1800
G1 X83.488 Y110.000 E20.06532
G1 X79.777 Y106.289 E20.41593
G1 X79.674 Y106.943 F7800.000
G1 F1800
G1 X82.731 Y110.000 E20.70476
G1 X79.674 Y113.057 E20.99359
G1 X79.570 Y112.403 F7800.000
G1 F1800
G1 X81.973 Y110.000 E21.22064
G1 X79.570 Y107.597 E21.44769
G1 X79.466 Y108.251 F7800.000
G1 F1800
G1 X81.216 Y110.000 E21.61296
G1 X79.466 Y111.749 E21.77823
G1 X79.363 Y111.095 F7800.000
G1 F1800
G1 X80.458 Y110.000 E21.88173
G1 X79.363 Y108.905 E21.98522
G1 X79.259 Y109.558 F7800.000
G1 F1800
G1 X79.701 Y110.000 E22.02694
G1 X79.259 Y110.442 E22.06865
G1 E20.06865 F2400.00000
G92 E0
G1 X80.502 Y101.712 F7800.000
G1 E2.00000 F2400.00000
G1 F1800
G1 X88.511 Y109.720 E2.75664
G1 X88.614 Y109.066 F7800.000
G1 F1800
G1 X80.606 Y101.058 E3.51326
G1 X80.709 Y100.404 F7800.000
G1 F1800
G1 X88.718 Y108.412 E4.26987
G1 X88.910 Y107.847 F7800.000
G1 F1800
G1 X80.952 Y99.889 E5.02175
G1 X81.207 Y99.387 F7800.000
G1 F1800
G1 X89.166 Y107.345 E5.77364
G1 X89.421 Y106.843 F7800.000
G1 F1800
G1 X81.463 Y98.885 E6.52553
G1 X81.719 Y98.383 F7800.000
G1 F1800
G1 X89.677 Y106.342 E7.27743
G1 X89.933 Y105.840 F7800.000
G1 F1800
G1 X82.845 Y98.752 E7.94707
G1 X98.752 Y98.752 E9.00975
G1 X98.752 Y82.845 E10.07242
G1 X110.000 Y94.093 E11.13510
G1 X121.248 Y82.845 E12.19778
G1 X121.248 Y98.752 E13.26046
G1 X137.155 Y98.752 E14.32314
