; generated by Slic3r 1.3.1-dev on 2020-12-19 at 23:11:25

; external perimeters extrusion width = 0.55mm (3.45mm^3/s)
; perimeters extrusion width = 0.70mm (8.98mm^3/s)
; infill extrusion width = 0.63mm (10.59mm^3/s)
; solid infill extrusion width = 0.70mm (2.99mm^3/s)
; top infill extrusion width = 0.70mm (2.24mm^3/s)

M107
M190 S60 ; set bed temperature and wait for it to be reached
M104 S200 ; set temperature
G28 ; home all axes
G1 Z5 F5000 ; lift nozzle

; Filament gcode

M109 S200 ; set temperature and wait for it to be reached
G21 ; set units to millimeters
G90 ; use absolute coordinates
M82 ; use absolute distances for extrusion
G92 E0
G92 E0
G1 Z0.300 F7800.000
G1 E-2.00000 F2400.00000
G92 E0
G1 X95.828 Y95.842 F7800.000
G1 E2.00000 F2400.00000
G1 F1800
G1 X96.874 Y94.922 E2.09307
G1 X97.741 Y94.200 E2.16847
G1 X98.346 Y93.754 E2.21869
G1 X98.920 Y93.396 E2.26382
G1 X101.047 Y92.198 E2.42698
G1 X101.649 Y91.893 E2.47205
G1 X102.336 Y91.609 E2.52167
G1 X103.408 Y91.238 E2.59746
G1 X104.747 Y90.814 E2.69129
G1 X106.055 Y90.542 E2.78057
G1 X107.455 Y90.398 E2.87459
G1 X108.122 Y90.364 E2.91920
G1 X111.878 Y90.364 E3.17011
G1 X112.545 Y90.398 E3.21472
G1 X113.945 Y90.542 E3.30874
G1 X115.253 Y90.814 E3.39802
G1 X116.767 Y91.296 E3.50414
G1 X117.664 Y91.609 E3.56764
G1 X118.580 Y92.003 E3.63421
G1 X121.081 Y93.396 E3.82547
G1 X121.442 Y93.616 E3.85370
G1 X122.257 Y94.198 E3.92065
G1 X123.126 Y94.922 E3.99623
G1 X124.173 Y95.842 E4.08929
G1 X125.101 Y96.848 E4.18074
G1 X125.928 Y97.960 E4.27331
G1 X126.311 Y98.535 E4.31948
G1 X128.189 Y101.709 E4.56586
G1 X128.510 Y102.324 E4.61219
G1 X129.083 Y103.579 E4.70435
G1 X129.523 Y104.901 E4.79742
G1 X129.815 Y106.245 E4.88932
G1 X130.025 Y107.349 E4.96438
G1 X130.122 Y108.113 E5.01581
G1 X130.153 Y108.801 E5.06185
G1 X130.153 Y111.199 E5.22204
G1 X130.122 Y111.887 E5.26808
G1 X130.025 Y112.651 E5.31951
G1 X129.815 Y113.755 E5.39457
G1 X129.523 Y115.099 E5.48647
G1 X129.083 Y116.421 E5.57954
G1 X128.510 Y117.676 E5.67169
G1 X128.189 Y118.291 E5.71803
G1 X126.311 Y121.465 E5.96441
G1 X125.928 Y122.040 E6.01058
G1 X125.101 Y123.152 E6.10315
G1 X124.173 Y124.158 E6.19460
G1 X123.126 Y125.078 E6.28766
G1 X122.257 Y125.802 E6.36324
G1 X121.442 Y126.384 E6.43019
G1 X121.081 Y126.604 E6.45842
G1 X118.580 Y127.997 E6.64967
G1 X117.664 Y128.391 E6.71625
G1 X116.767 Y128.704 E6.77975
G1 X115.253 Y129.186 E6.88587
G1 X113.945 Y129.458 E6.97515
G1 X112.545 Y129.602 E7.06917
G1 X111.878 Y129.636 E7.11378
G1 X108.122 Y129.636 E7.36469
G1 X107.455 Y129.602 E7.40930
G1 X106.055 Y129.458 E7.50332
G1 X104.747 Y129.186 E7.59260
G1 X103.408 Y128.762 E7.68643
G1 X102.336 Y128.391 E7.76222
G1 X101.649 Y128.107 E7.81184
G1 X101.047 Y127.802 E7.85691
G1 X98.920 Y126.604 E8.02007
G1 X98.346 Y126.246 E8.06520
G1 X97.741 Y125.800 E8.11542
G1 X96.874 Y125.077 E8.19082
G1 X95.828 Y124.158 E8.28389
G1 X94.899 Y123.150 E8.37546
G1 X94.072 Y122.039 E8.46801
G1 X93.690 Y121.466 E8.51400
G1 X91.812 Y118.291 E8.76040
G1 X91.490 Y117.676 E8.80679
G1 X90.918 Y116.421 E8.89894
G1 X90.478 Y115.099 E8.99201
G1 X90.185 Y113.755 E9.08391
G1 X89.975 Y112.649 E9.15909
G1 X89.879 Y111.885 E9.21056
G1 X89.848 Y111.199 E9.25644
G1 X89.848 Y108.801 E9.41663
G1 X89.879 Y108.115 E9.46250
G1 X89.975 Y107.351 E9.51397
G1 X90.185 Y106.245 E9.58916
G1 X90.478 Y104.901 E9.68105
G1 X90.918 Y103.579 E9.77413
G1 X91.490 Y102.324 E9.86628
G1 X91.812 Y101.709 E9.91266
G1 X93.690 Y98.534 E10.15906
G1 X94.072 Y97.961 E10.20506
G1 X94.899 Y96.850 E10.29760
G1 X95.777 Y95.897 E10.38417
G1 E8.38417 F2400.00000
G92 E0
G1 X118.845 Y118.314 F7800.000
G1 E2.00000 F2400.00000
G1 F1800
G1 X117.922 Y119.125 E2.08211
G1 X117.271 Y119.665 E2.13860
G1 X115.110 Y120.892 E2.30463
G1 X114.990 Y120.950 E2.31354
G1 X114.184 Y121.231 E2.37054
G1 X112.998 Y121.607 E2.45366
G1 X111.808 Y121.729 E2.53359
G1 X108.192 Y121.729 E2.77513
G1 X107.002 Y121.607 E2.85505
G1 X105.816 Y121.231 E2.93817
G1 X105.010 Y120.950 E2.99517
G1 X104.890 Y120.892 E3.00407
G1 X102.839 Y119.737 E3.16134
G1 X102.729 Y119.665 E3.17013
G1 X102.079 Y119.125 E3.22659
G1 X101.155 Y118.314 E3.30869
G1 X100.458 Y117.376 E3.38675
G1 X98.654 Y114.327 E3.62344
G1 X98.172 Y113.272 E3.70091
G1 X97.915 Y112.092 E3.78162
G1 X97.763 Y111.276 E3.83704
G1 X97.754 Y111.153 E3.84530
G1 X97.763 Y108.724 E4.00761
G1 X97.915 Y107.908 E4.06303
G1 X98.172 Y106.728 E4.14375
G1 X98.654 Y105.673 E4.22121
G1 X100.458 Y102.623 E4.45790
G1 X101.155 Y101.686 E4.53596
G1 X102.079 Y100.875 E4.61807
G1 X102.729 Y100.335 E4.67452
G1 X102.839 Y100.263 E4.68331
G1 X104.890 Y99.108 E4.84058
G1 X105.010 Y99.050 E4.84948
G1 X105.816 Y98.769 E4.90648
G1 X107.002 Y98.393 E4.98960
G1 X108.192 Y98.271 E5.06952
G1 X111.808 Y98.271 E5.31106
G1 X112.998 Y98.393 E5.39099
G1 X114.184 Y98.769 E5.47411
G1 X114.990 Y99.050 E5.53112
G1 X115.110 Y99.108 E5.54002
G1 X117.271 Y100.335 E5.70605
G1 X117.922 Y100.875 E5.76255
G1 X118.845 Y101.686 E5.84465
G1 X119.543 Y102.624 E5.92272
G1 X121.347 Y105.673 E6.15939
G1 X121.828 Y106.728 E6.23685
G1 X122.086 Y107.908 E6.31758
G1 X122.238 Y108.724 E6.37302
G1 X122.246 Y108.847 E6.38127
G1 X122.238 Y111.276 E6.54353
G1 X122.086 Y112.092 E6.59897
G1 X121.828 Y113.272 E6.67970
G1 X121.347 Y114.327 E6.75717
G1 X119.543 Y117.376 E6.99383
G1 X118.890 Y118.254 E7.06689
G1 X119.275 Y118.634 F7800.000
G1 F1800
G1 X118.270 Y119.532 E7.15697
G1 X117.589 Y120.097 E7.21603
G1 X115.358 Y121.367 E7.38756
G1 X115.195 Y121.446 E7.39966
G1 X114.353 Y121.739 E7.45920
G1 X113.107 Y122.134 E7.54650
G1 X111.835 Y122.264 E7.63194
G1 X108.165 Y122.264 E7.87714
G1 X106.893 Y122.134 E7.96257
G1 X105.647 Y121.739 E8.04987
G1 X104.805 Y121.446 E8.10941
G1 X104.642 Y121.367 E8.12150
G1 X102.561 Y120.195 E8.28106
G1 X102.411 Y120.097 E8.29307
G1 X101.731 Y119.532 E8.35209
G1 X100.759 Y118.679 E8.43848
G1 X100.011 Y117.674 E8.52220
G1 X98.178 Y114.576 E8.76268
G1 X97.661 Y113.443 E8.84588
G1 X97.390 Y112.198 E8.93096
G1 X97.230 Y111.344 E8.98903
G1 X97.219 Y111.171 E9.00060
G1 X97.230 Y108.656 E9.16860
G1 X97.390 Y107.802 E9.22667
G1 X97.661 Y106.557 E9.31175
G1 X98.178 Y105.424 E9.39495
G1 X100.011 Y102.326 E9.63544
G1 X100.759 Y101.321 E9.71915
G1 X101.731 Y100.468 E9.80554
G1 X102.411 Y99.903 E9.86456
G1 X102.561 Y99.805 E9.87657
G1 X104.642 Y98.633 E10.03614
G1 X104.805 Y98.554 E10.04822
G1 X105.647 Y98.261 E10.10776
G1 X106.893 Y97.866 E10.19506
G1 X108.165 Y97.736 E10.28050
G1 X111.835 Y97.736 E10.52570
G1 X113.107 Y97.866 E10.61113
G1 X114.353 Y98.261 E10.69843
G1 X115.195 Y98.554 E10.75798
G1 X115.358 Y98.633 E10.77007
G1 X117.589 Y99.903 E10.94161
G1 X118.270 Y100.468 E11.00067
G1 X119.241 Y101.321 E11.08705
G1 X119.990 Y102.326 E11.17078
G1 X121.822 Y105.424 E11.41125
G1 X122.339 Y106.557 E11.49445
G1 X122.611 Y107.802 E11.57954
G1 X122.770 Y108.657 E11.63762
G1 X122.782 Y108.829 E11.64918
G1 X122.770 Y111.343 E11.81715
G1 X122.611 Y112.198 E11.87524
G1 X122.339 Y113.443 E11.96032
G1 X121.822 Y114.576 E12.04353
G1 X119.990 Y117.674 E12.28399
G1 X119.320 Y118.573 E12.35894
G1 X119.704 Y118.953 F7800.000
G1 F1800
G1 X119.637 Y119.044 E12.36648
G1 X118.618 Y119.940 E12.45715
G1 X117.907 Y120.529 E12.51877
G1 X117.717 Y120.653 E12.53398
G1 X115.606 Y121.842 E12.69585
G1 X115.400 Y121.942 E12.71113
G1 X114.522 Y122.247 E12.77321
G1 X113.217 Y122.661 E12.86469
G1 X111.863 Y122.800 E12.95563
G1 X108.137 Y122.800 E13.20449
G1 X106.783 Y122.661 E13.29543
G1 X105.478 Y122.247 E13.38692
G1 X104.600 Y121.942 E13.44900
G1 X104.394 Y121.842 E13.46427
G1 X102.283 Y120.653 E13.62614
G1 X102.093 Y120.529 E13.64136
G1 X101.383 Y119.940 E13.70295
G1 X100.364 Y119.044 E13.79362
G1 X99.565 Y117.971 E13.88299
G1 X97.703 Y114.824 E14.12727
G1 X97.150 Y113.613 E14.21621
G1 X96.865 Y112.304 E14.30566
G1 X96.698 Y111.411 E14.36637
G1 X96.683 Y111.189 E14.38125
G1 X96.683 Y108.811 E14.54009
G1 X96.698 Y108.589 E14.55497
G1 X96.865 Y107.696 E14.61568
G1 X97.150 Y106.387 E14.70513
G1 X97.703 Y105.176 E14.79407
G1 X99.565 Y102.029 E15.03835
G1 X100.364 Y100.956 E15.12772
G1 X101.383 Y100.060 E15.21839
G1 X102.093 Y99.471 E15.27999
G1 X102.283 Y99.347 E15.29520
G1 X104.394 Y98.158 E15.45707
G1 X104.600 Y98.058 E15.47235
G1 X105.478 Y97.753 E15.53442
G1 X106.783 Y97.339 E15.62591
G1 X108.137 Y97.200 E15.71685
G1 X111.863 Y97.200 E15.96571
G1 X113.217 Y97.339 E16.05665
G1 X114.522 Y97.753 E16.14813
G1 X115.400 Y98.058 E16.21021
G1 X115.606 Y98.158 E16.22549
G1 X117.717 Y99.347 E16.38736
G1 X117.907 Y99.471 E16.40257
G1 X118.618 Y100.060 E16.46419
G1 X119.637 Y100.956 E16.55486
G1 X120.436 Y102.029 E16.64426
G1 X122.298 Y105.176 E16.88852
G1 X122.851 Y106.387 E16.97746
G1 X123.136 Y107.696 E17.06691
G1 X123.303 Y108.589 E17.12763
G1 X123.318 Y108.811 E17.14250
G1 X123.318 Y111.189 E17.30134
G1 X123.303 Y111.411 E17.31621
G1 X123.136 Y112.304 E17.37694
G1 X122.851 Y113.613 E17.46639
G1 X122.298 Y114.824 E17.55533
G1 X120.436 Y117.971 E17.79959
G1 X119.749 Y118.893 E17.87643
G1 X119.592 Y118.943 F7800.000
G1 X118.646 Y118.034 F7800.000
G1 F1800
G1 X118.034 Y118.034 E17.91732
G1 X118.034 Y118.608 E17.95564
G1 X117.499 Y119.075 F7800.000
G1 F1800
G1 X117.499 Y117.499 E18.06093
G1 X119.079 Y117.499 E18.16649
G1 X119.460 Y116.963 F7800.000
G1 F1800
G1 X116.963 Y116.963 E18.33330
G1 X116.963 Y119.518 E18.50400
G1 X116.427 Y119.822 F7800.000
G1 F1800
G1 X116.427 Y116.427 E18.73080
G1 X119.777 Y116.427 E18.95456
G1 X120.094 Y115.892 F7800.000
G1 F1800
G1 X115.892 Y115.892 E19.23527
G1 X115.892 Y120.127 E19.51818
G1 X115.356 Y120.431 F7800.000
G1 F1800
G1 X115.356 Y115.356 E19.85719
G1 X120.411 Y115.356 E20.19485
G1 X120.727 Y114.821 F7800.000
G1 F1800
G1 X114.821 Y114.821 E20.58946
G1 X114.821 Y120.732 E20.98435
G1 X114.140 Y120.957 F7800.000
G1 F1800
G1 X110.000 Y116.817 E21.37546
G1 X105.860 Y120.957 E21.76658
G1 X105.296 Y120.763 F7800.000
G1 F1800
G1 X110.000 Y116.060 E22.21095
G1 X114.285 Y120.345 E22.61578
G1 X114.285 Y114.285 E23.02061
G1 X120.345 Y114.285 E23.42544
G1 X116.060 Y110.000 E23.83027
G1 X120.345 Y105.715 E24.23510
G1 X114.285 Y105.715 E24.63993
G1 X114.285 Y99.655 E25.04476
G1 X110.000 Y103.940 E25.44959
G1 X105.715 Y99.655 E25.85442
G1 X105.715 Y105.715 E26.25925
G1 X99.655 Y105.715 E26.66408
G1 X103.940 Y110.000 E27.06891
G1 X99.655 Y114.285 E27.47374
G1 X105.715 Y114.285 E27.87857
G1 X105.715 Y119.587 E28.23280
G1 X110.000 Y115.302 E28.63763
G1 X113.749 Y119.052 E28.99186
G1 X113.749 Y113.749 E29.34608
G1 X119.052 Y113.749 E29.70031
G1 X115.302 Y110.000 E30.05453
G1 X119.052 Y106.251 E30.40876
G1 X113.749 Y106.251 E30.76299
G1 X113.749 Y100.948 E31.11721
G1 X110.000 Y104.698 E31.47144
G1 X106.251 Y100.948 E31.82566
G1 X106.251 Y106.251 E32.17989
G1 X100.948 Y106.251 E32.53412
G1 X104.698 Y110.000 E32.88834
G1 X100.948 Y113.749 E33.24257
G1 X106.251 Y113.749 E33.59680
G1 X106.251 Y118.294 E33.90042
G1 X110.000 Y114.545 E34.25464
G1 X113.214 Y117.759 E34.55827
G1 X113.214 Y113.214 E34.86189
G1 X117.759 Y113.214 E35.16551
G1 X114.545 Y110.000 E35.46913
G1 X117.759 Y106.786 E35.77276
G1 X113.214 Y106.786 E36.07638
G1 X113.214 Y102.241 E36.38000
G1 X110.000 Y105.455 E36.68362
G1 X106.786 Y102.241 E36.98725
G1 X106.786 Y106.786 E37.29087
G1 X102.241 Y106.786 E37.59449
G1 X105.455 Y110.000 E37.89811
G1 X102.241 Y113.214 E38.20174
G1 X106.786 Y113.214 E38.50536
G1 X106.786 Y117.001 E38.75838
G1 X110.000 Y113.787 E39.06200
G1 X112.678 Y116.465 E39.31502
G1 X112.678 Y112.678 E39.56804
G1 X116.465 Y112.678 E39.82106
G1 X113.787 Y110.000 E40.07407
G1 X116.465 Y107.322 E40.32709
G1 X112.678 Y107.322 E40.58011
G1 X112.678 Y103.535 E40.83313
G1 X110.000 Y106.213 E41.08615
G1 X107.322 Y103.535 E41.33917
G1 X107.322 Y107.322 E41.59219
G1 X103.535 Y107.322 E41.84521
G1 X106.213 Y110.000 E42.09822
G1 X103.535 Y112.678 E42.35124
G1 X107.322 Y112.678 E42.60426
G1 X107.322 Y115.708 E42.80668
G1 X110.000 Y113.030 E43.05969
G1 X112.142 Y115.172 E43.26211
G1 X112.142 Y112.142 E43.46452
G1 X115.172 Y112.142 E43.66694
G1 X113.030 Y110.000 E43.86935
G1 X115.172 Y107.858 E44.07177
G1 X112.142 Y107.858 E44.27418
G1 X112.142 Y104.828 E44.47660
G1 X110.000 Y106.970 E44.67901
G1 X107.858 Y104.828 E44.88143
G1 X107.858 Y107.858 E45.08384
G1 X104.828 Y107.858 E45.28626
G1 X106.970 Y110.000 E45.48867
G1 X104.828 Y112.142 E45.69109
G1 X107.858 Y112.142 E45.89350
G1 X107.858 Y114.415 E46.04532
G1 X110.000 Y112.272 E46.24773
G1 X111.607 Y113.879 E46.39954
G1 X111.607 Y111.607 E46.55135
G1 X113.879 Y111.607 E46.70316
G1 X112.272 Y110.000 E46.85498
G1 X113.879 Y108.393 E47.00679
G1 X111.607 Y108.393 E47.15860
G1 X111.607 Y106.121 E47.31041
G1 X110.000 Y107.728 E47.46222
G1 X108.393 Y106.121 E47.61403
G1 X108.393 Y108.393 E47.76584
G1 X106.121 Y108.393 E47.91765
G1 X107.728 Y110.000 E48.06947
G1 X106.121 Y111.607 E48.22128
G1 X108.393 Y111.607 E48.37309
G1 X108.393 Y113.122 E48.47430
G1 X110.000 Y111.515 E48.62611
G1 X111.071 Y112.586 E48.72731
G1 X111.071 Y111.071 E48.82852
G1 X112.586 Y111.071 E48.92973
G1 X111.515 Y110.000 E49.03094
G1 X112.586 Y108.929 E49.13214
G1 X111.071 Y108.929 E49.23335
G1 X111.071 Y107.414 E49.33456
G1 X110.000 Y108.485 E49.43577
G1 X108.929 Y107.414 E49.53697
G1 X108.929 Y108.929 E49.63818
G1 X107.414 Y108.929 E49.73939
G1 X108.485 Y110.000 E49.84060
G1 X107.414 Y111.071 E49.94180
G1 X108.929 Y111.071 E50.04301
G1 X108.929 Y111.829 E50.09361
G1 X110.000 Y110.757 E50.19482
G1 X110.536 Y111.293 E50.24543
G1 X110.536 Y110.536 E50.29603
G1 X111.293 Y110.536 E50.34663
G1 X110.757 Y110.000 E50.39724
G1 X111.293 Y109.464 E50.44784
G1 X110.536 Y109.464 E50.49844
G1 X110.536 Y108.707 E50.54905
G1 X110.000 Y109.243 E50.59965
G1 X109.464 Y108.707 E50.65026
G1 X109.464 Y109.464 E50.70086
G1 X108.707 Y109.464 E50.75146
G1 X109.243 Y110.000 E50.80207
G1 X108.707 Y110.536 E50.85267
G1 X109.464 Y110.536 E50.90327
G1 X110.208 Y109.792 E50.97356
G1 E48.97356 F2400.00000
G92 E0
G1 X110.797 Y98.599 F7800.000
G1 E2.00000 F2400.00000
G1 F1800
G1 X110.000 Y99.395 E2.07528
G1 X109.203 Y98.599 E2.15055
G1 X108.446 Y98.599 F7800.000
G1 F1800
G1 X110.000 Y100.153 E2.29739
G1 X111.554 Y98.599 E2.44423
G1 X112.282 Y98.629 F7800.000
G1 F1800
G1 X110.000 Y100.910 E2.65979
G1 X107.718 Y98.629 E2.87536
G1 X107.031 Y98.699 F7800.000
G1 F1800
G1 X110.000 Y101.668 E3.15583
G1 X112.969 Y98.699 E3.43630
G1 X113.565 Y98.861 F7800.000
G1 F1800
G1 X110.000 Y102.425 E3.77309
G1 X106.435 Y98.861 E4.10987
G1 X105.860 Y99.043 F7800.000
G1 F1800
G1 X110.000 Y103.183 E4.50098
G1 X114.140 Y99.043 E4.89210
G1 X114.821 Y99.274 F7800.000
G1 F1800
G1 X114.821 Y105.179 E5.28658
G1 X120.727 Y105.179 E5.68119
G1 X120.411 Y104.644 F7800.000
G1 F1800
G1 X115.356 Y104.644 E6.01885
G1 X115.356 Y99.574 E6.35756
G1 X115.892 Y99.873 F7800.000
G1 F1800
G1 X115.892 Y104.108 E6.64048
G1 X120.094 Y104.108 E6.92119
G1 X119.777 Y103.573 F7800.000
G1 F1800
G1 X116.427 Y103.573 E7.14494
G1 X116.427 Y100.173 E7.37208
G1 X116.963 Y100.481 F7800.000
G1 F1800
G1 X116.963 Y103.037 E7.54282
G1 X119.460 Y103.037 E7.70963
G1 X119.079 Y102.501 F7800.000
G1 F1800
G1 X117.499 Y102.501 E7.81519
G1 X117.499 Y100.925 E7.92049
G1 X118.034 Y101.392 F7800.000
G1 F1800
G1 X118.034 Y101.966 E7.95880
G1 X118.646 Y101.966 E7.99969
G1 E5.99969 F2400.00000
G92 E0
G1 X121.088 Y105.730 F7800.000
G1 E2.00000 F2400.00000
G1 F1800
G1 X116.817 Y110.000 E2.40345
G1 X121.088 Y114.270 E2.80689
G1 X121.325 Y113.750 F7800.000
G1 F1800
G1 X117.575 Y110.000 E3.16120
G1 X121.325 Y106.250 E3.51550
G1 X121.547 Y106.786 F7800.000
G1 F1800
G1 X118.332 Y110.000 E3.81918
