; generated by Slic3r 1.3.1-dev on 2020-12-27 at 02:37:20

; external perimeters extrusion width = 0.55mm (3.45mm^3/s)
; perimeters extrusion width = 0.70mm (8.98mm^3/s)
; infill extrusion width = 0.63mm (10.59mm^3/s)
; solid infill extrusion width = 0.70mm (2.99mm^3/s)
; top infill extrusion width = 0.70mm (2.24mm^3/s)

M107
M190 S60 ; set bed temperature and wait for it to be reached
M104 S200 ; set temperature
G28 ; home all axes
G1 Z5 F5000 ; lift nozzle

; Filament gcode

M109 S200 ; set temperature and wait for it to be reached
G21 ; set units to millimeters
G90 ; use absolute coordinates
M82 ; use absolute distances for extrusion
G92 E0
G92 E0
G1 Z0.300 F7800.000
G1 E-2.00000 F2400.00000
G92 E0
G1 X74.364 Y103.212 F7800.000
G1 E2.00000 F2400.00000
G1 F1800
G1 X76.017 Y102.010 E2.13652
G1 X79.501 Y100.234 E2.39777
G1 X81.073 Y99.672 E2.50929
G1 X113.015 Y92.687 E4.69361
G1 X113.750 Y92.570 E4.74333
G1 X115.090 Y92.433 E4.83332
G1 X115.751 Y92.400 E4.87756
G1 X119.520 Y92.400 E5.12935
G1 X120.182 Y92.433 E5.17363
G1 X121.521 Y92.570 E5.26355
G1 X122.838 Y92.843 E5.35337
G1 X124.119 Y93.250 E5.44321
G1 X125.194 Y93.621 E5.51915
G1 X125.877 Y93.904 E5.56857
G1 X126.484 Y94.212 E5.61400
G1 X128.912 Y95.597 E5.80077
G1 X129.729 Y96.179 E5.86776
G1 X130.605 Y96.908 E5.94390
G1 X131.606 Y97.787 E6.03293
G1 X132.536 Y98.794 E6.12450
G1 X133.328 Y99.858 E6.21309
G1 X133.711 Y100.434 E6.25929
G1 X135.595 Y103.619 E6.50650
G1 X135.917 Y104.236 E6.55304
G1 X136.464 Y105.437 E6.64121
G1 X136.902 Y106.750 E6.73364
G1 X137.183 Y108.036 E6.82155
G1 X137.394 Y109.151 E6.89736
G1 X137.507 Y110.152 E6.96467
G1 X137.523 Y110.601 E6.99472
G1 X137.523 Y112.943 E7.15119
G1 X137.490 Y113.644 E7.19801
G1 X137.394 Y114.394 E7.24855
G1 X137.183 Y115.509 E7.32436
G1 X136.902 Y116.794 E7.41227
G1 X136.465 Y118.105 E7.50458
G1 X135.918 Y119.307 E7.59280
G1 X135.595 Y119.926 E7.63941
G1 X133.710 Y123.112 E7.88674
G1 X133.326 Y123.690 E7.93307
G1 X132.534 Y124.752 E8.02161
G1 X131.606 Y125.758 E8.11299
G1 X130.605 Y126.637 E8.20202
G1 X129.729 Y127.366 E8.27816
G1 X129.131 Y127.806 E8.32778
G1 X128.561 Y128.161 E8.37264
G1 X126.484 Y129.333 E8.53196
G1 X125.881 Y129.639 E8.57709
G1 X125.197 Y129.922 E8.62658
G1 X124.119 Y130.296 E8.70277
G1 X122.838 Y130.703 E8.79260
G1 X121.985 Y130.912 E8.85125
G1 X91.321 Y136.273 E10.93086
G1 X87.356 Y136.902 E11.19904
G1 X85.311 Y136.902 E11.33568
G1 X81.447 Y136.290 E11.59703
G1 X79.501 Y135.658 E11.73371
G1 X76.017 Y133.882 E11.99496
G1 X74.364 Y132.681 E12.13148
G1 X71.598 Y129.915 E12.39281
G1 X70.397 Y128.261 E12.52933
G1 X68.621 Y124.777 E12.79058
G1 X67.988 Y122.828 E12.92748
G1 X67.378 Y118.964 E13.18881
G1 X67.378 Y116.926 E13.32501
G1 X67.988 Y113.064 E13.58621
G1 X68.621 Y111.115 E13.72308
G1 X70.397 Y107.631 E13.98433
G1 X71.598 Y105.978 E14.12085
G1 X74.311 Y103.265 E14.37716
G1 E12.37716 F2400.00000
G92 E0
G1 X124.637 Y121.297 F7800.000
G1 E2.00000 F2400.00000
G1 F1800
G1 X122.516 Y122.483 E2.16237
G1 X121.707 Y122.766 E2.21960
G1 X120.579 Y123.124 E2.29869
G1 X119.450 Y123.240 E2.37450
G1 X115.821 Y123.240 E2.61693
G1 X114.691 Y123.124 E2.69280
G1 X113.563 Y122.766 E2.77189
G1 X112.754 Y122.483 E2.82914
G1 X110.633 Y121.297 E2.99148
G1 X110.522 Y121.224 E3.00037
G1 X109.868 Y120.683 E3.05710
G1 X108.990 Y119.912 E3.13514
G1 X108.328 Y119.023 E3.20917
G1 X106.518 Y115.964 E3.44660
G1 X106.062 Y114.962 E3.52019
G1 X105.816 Y113.839 E3.59695
G1 X105.663 Y113.021 E3.65260
G1 X105.663 Y110.524 E3.81938
G1 X105.816 Y109.705 E3.87503
G1 X106.062 Y108.583 E3.95178
G1 X106.518 Y107.581 E4.02530
G1 X108.328 Y104.522 E4.26277
G1 X108.990 Y103.633 E4.33685
G1 X109.868 Y102.862 E4.41487
G1 X110.522 Y102.321 E4.47156
G1 X112.753 Y101.062 E4.64274
G1 X113.563 Y100.780 E4.70001
G1 X114.691 Y100.421 E4.77909
G1 X115.821 Y100.307 E4.85496
G1 X119.451 Y100.307 E5.09745
G1 X120.580 Y100.421 E5.17326
G1 X121.708 Y100.780 E5.25233
G1 X122.517 Y101.062 E5.30959
G1 X122.637 Y101.120 E5.31849
G1 X124.749 Y102.321 E5.48083
G1 X125.403 Y102.862 E5.53750
G1 X126.280 Y103.633 E5.61551
G1 X126.943 Y104.522 E5.68959
G1 X128.752 Y107.581 E5.92707
G1 X129.209 Y108.583 E6.00059
G1 X129.454 Y109.705 E6.07734
G1 X129.607 Y110.525 E6.13303
G1 X129.607 Y113.020 E6.29972
G1 X129.454 Y113.839 E6.35542
G1 X129.209 Y114.962 E6.43218
G1 X128.752 Y115.964 E6.50577
G1 X126.943 Y119.023 E6.74319
G1 X126.280 Y119.912 E6.81723
G1 X125.403 Y120.683 E6.89527
G1 X124.700 Y121.256 E6.95584
G1 X124.900 Y121.763 F7800.000
G1 F1800
G1 X122.721 Y122.979 E7.12254
G1 X121.877 Y123.274 E7.18232
G1 X120.689 Y123.652 E7.26560
G1 X119.478 Y123.776 E7.34693
G1 X115.794 Y123.776 E7.59301
G1 X114.582 Y123.652 E7.67440
G1 X113.394 Y123.274 E7.75768
G1 X112.549 Y122.979 E7.81747
G1 X110.355 Y121.755 E7.98530
G1 X110.204 Y121.656 E7.99737
G1 X109.520 Y121.090 E8.05665
G1 X108.594 Y120.277 E8.13898
G1 X107.881 Y119.321 E8.21868
G1 X106.043 Y116.212 E8.45993
G1 X105.551 Y115.132 E8.53924
G1 X105.291 Y113.946 E8.62035
G1 X105.131 Y113.088 E8.67864
G1 X105.131 Y110.456 E8.85445
G1 X105.291 Y109.599 E8.91274
G1 X105.551 Y108.413 E8.99385
G1 X106.043 Y107.333 E9.07309
G1 X107.881 Y104.225 E9.31437
G1 X108.594 Y103.267 E9.39412
G1 X109.520 Y102.454 E9.47644
G1 X110.204 Y101.889 E9.53570
G1 X112.548 Y100.566 E9.71554
G1 X113.394 Y100.272 E9.77533
G1 X114.582 Y99.894 E9.85861
G1 X115.794 Y99.771 E9.94000
G1 X119.478 Y99.771 E10.18612
G1 X120.689 Y99.894 E10.26744
G1 X121.877 Y100.272 E10.35072
G1 X122.722 Y100.566 E10.41050
G1 X124.915 Y101.790 E10.57832
G1 X125.067 Y101.889 E10.59040
G1 X125.750 Y102.454 E10.64964
G1 X126.676 Y103.267 E10.73196
G1 X127.389 Y104.225 E10.81171
G1 X129.228 Y107.333 E11.05298
G1 X129.720 Y108.413 E11.13223
G1 X129.979 Y109.599 E11.21334
G1 X130.140 Y110.457 E11.27165
G1 X130.140 Y113.088 E11.44741
G1 X129.979 Y113.946 E11.50573
G1 X129.720 Y115.132 E11.58684
G1 X129.228 Y116.212 E11.66615
G1 X127.389 Y119.321 E11.90740
G1 X126.676 Y120.277 E11.98710
G1 X125.750 Y121.090 E12.06943
G1 X124.964 Y121.723 E12.13687
G1 X125.164 Y122.230 F7800.000
G1 F1800
G1 X123.133 Y123.375 E12.29262
G1 X122.927 Y123.475 E12.30792
G1 X122.046 Y123.782 E12.37023
G1 X120.798 Y124.179 E12.45771
G1 X119.505 Y124.311 E12.54456
G1 X115.767 Y124.311 E12.79430
G1 X114.472 Y124.179 E12.88121
G1 X113.224 Y123.782 E12.96869
G1 X112.344 Y123.475 E13.03101
G1 X112.137 Y123.375 E13.04632
G1 X110.077 Y122.213 E13.20435
G1 X109.886 Y122.088 E13.21960
G1 X109.173 Y121.498 E13.28143
G1 X108.198 Y120.642 E13.36805
G1 X107.435 Y119.618 E13.45342
G1 X105.567 Y116.460 E13.69850
G1 X105.040 Y115.302 E13.78352
G1 X104.766 Y114.052 E13.86899
G1 X104.599 Y113.156 E13.92992
G1 X104.584 Y112.933 E13.94481
G1 X104.584 Y110.612 E14.09992
G1 X104.599 Y110.389 E14.11483
G1 X104.766 Y109.492 E14.17576
G1 X105.040 Y108.243 E14.26122
G1 X105.567 Y107.085 E14.34619
G1 X107.435 Y103.928 E14.59127
G1 X108.198 Y102.902 E14.67669
G1 X109.173 Y102.047 E14.76331
G1 X109.886 Y101.457 E14.82514
G1 X110.077 Y101.332 E14.84037
G1 X112.137 Y100.170 E14.99840
G1 X112.344 Y100.070 E15.01370
G1 X113.224 Y99.763 E15.07602
G1 X114.472 Y99.367 E15.16350
G1 X115.766 Y99.235 E15.25040
G1 X119.505 Y99.235 E15.50015
G1 X120.798 Y99.367 E15.58699
G1 X122.046 Y99.763 E15.67447
G1 X122.927 Y100.070 E15.73678
G1 X123.133 Y100.170 E15.75207
G1 X125.193 Y101.332 E15.91011
G1 X125.385 Y101.457 E15.92536
G1 X126.098 Y102.047 E15.98718
G1 X127.072 Y102.902 E16.07380
G1 X127.836 Y103.928 E16.15922
G1 X129.703 Y107.085 E16.40430
G1 X130.231 Y108.243 E16.48926
G1 X130.504 Y109.492 E16.57473
G1 X130.672 Y110.389 E16.63567
G1 X130.687 Y110.612 E16.65058
G1 X130.687 Y112.933 E16.80567
G1 X130.672 Y113.156 E16.82056
G1 X130.504 Y114.052 E16.88150
G1 X130.231 Y115.302 E16.96697
G1 X129.703 Y116.460 E17.05200
G1 X127.836 Y119.618 E17.29707
G1 X127.072 Y120.642 E17.38244
G1 X126.098 Y121.498 E17.46906
G1 X125.385 Y122.088 E17.53089
G1 X125.227 Y122.190 E17.54342
G1 X124.721 Y121.997 F7800.000
G1 X124.599 Y120.947 F7800.000
G1 F1800
G1 X124.599 Y118.736 E17.69111
G1 X126.783 Y118.736 E17.83700
G1 X127.102 Y118.201 F7800.000
G1 F1800
G1 X124.064 Y118.201 E18.03996
G1 X124.064 Y121.292 E18.24647
G1 X123.528 Y121.597 F7800.000
G1 F1800
G1 X123.528 Y117.665 E18.50912
G1 X127.419 Y117.665 E18.76903
G1 X127.736 Y117.129 F7800.000
G1 F1800
G1 X122.992 Y117.129 E19.08590
G1 X122.992 Y121.901 E19.40468
G1 X122.457 Y122.206 F7800.000
G1 F1800
G1 X122.457 Y116.594 E19.77961
G1 X128.052 Y116.594 E20.15341
G1 X128.522 Y115.842 F7800.000
G1 F1800
G1 X124.454 Y111.773 E20.53783
G1 X128.523 Y107.704 E20.92228
G1 X128.760 Y108.224 F7800.000
G1 F1800
G1 X125.211 Y111.773 E21.25757
G1 X128.759 Y115.322 E21.59281
G1 X128.958 Y114.763 F7800.000
G1 F1800
G1 X125.969 Y111.773 E21.87523
G1 X128.958 Y108.784 E22.15768
G1 X129.094 Y109.405 F7800.000
G1 F1800
G1 X126.726 Y111.773 E22.38142
G1 X129.094 Y114.141 E22.60512
G1 X129.213 Y113.502 F7800.000
G1 F1800
G1 X127.483 Y111.773 E22.76848
G1 X129.219 Y110.038 E22.93242
G1 X129.289 Y110.726 F7800.000
G1 F1800
G1 X128.241 Y111.773 E23.03140
G1 X129.289 Y112.821 E23.13037
G1 X129.289 Y112.063 F7800.000
G1 F1800
G1 X128.998 Y111.773 E23.15778
G1 X129.289 Y111.483 E23.18520
G1 E21.18520 F2400.00000
G92 E0
G1 X128.053 Y106.953 F7800.000
G1 E2.00000 F2400.00000
G1 F1800
G1 X122.457 Y106.953 E2.37384
G1 X122.457 Y101.347 E2.74830
G1 X122.992 Y101.647 F7800.000
G1 F1800
G1 X122.992 Y106.417 E3.06696
G1 X127.736 Y106.417 E3.38384
G1 X127.419 Y105.881 F7800.000
G1 F1800
G1 X123.528 Y105.881 E3.64378
G1 X123.528 Y101.947 E3.90664
G1 X124.064 Y102.247 F7800.000
G1 F1800
G1 X124.064 Y105.346 E4.11369
G1 X127.102 Y105.346 E4.31668
G1 X126.784 Y104.810 F7800.000
G1 F1800
G1 X124.599 Y104.810 E4.46263
G1 X124.599 Y102.598 E4.61044
G1 X125.135 Y103.045 F7800.000
G1 F1800
G1 X125.135 Y104.275 E4.69260
G1 X126.385 Y104.275 E4.77612
G1 E2.77612 F2400.00000
G92 E0
G1 X121.569 Y101.023 F7800.000
G1 E2.00000 F2400.00000
G1 F1800
G1 X117.636 Y104.956 E2.37156
G1 X113.703 Y101.023 E2.74316
G1 X114.278 Y100.840 F7800.000
G1 F1800
G1 X117.636 Y104.198 E3.06045
G1 X120.994 Y100.841 E3.37769
G1 X120.368 Y100.709 F7800.000
G1 F1800
G1 X117.636 Y103.441 E3.63582
G1 X114.904 Y100.709 E3.89396
G1 X115.591 Y100.639 F7800.000
G1 F1800
G1 X117.636 Y102.684 E4.08715
G1 X119.681 Y100.639 E4.28033
G1 X118.928 Y100.634 F7800.000
G1 F1800
G1 X117.636 Y101.926 E4.40242
G1 X116.344 Y100.634 E4.52450
G1 X117.101 Y100.634 F7800.000
G1 F1800
G1 X117.636 Y101.169 E4.57503
G1 X118.171 Y100.634 E4.62555
G1 E2.62555 F2400.00000
G92 E0
G1 X112.816 Y101.338 F7800.000
G1 E2.00000 F2400.00000
G1 F1800
G1 X112.816 Y106.953 E2.37512
G1 X107.218 Y106.953 E2.74909
G1 X107.535 Y106.417 F7800.000
G1 F1800
G1 X112.280 Y106.417 E3.06611
G1 X112.280 Y101.642 E3.38509
G1 X111.744 Y101.947 F7800.000
G1 F1800
G1 X111.744 Y105.881 E3.64794
G1 X107.851 Y105.881 E3.90801
G1 X108.168 Y105.346 F7800.000
G1 F1800
G1 X111.209 Y105.346 E4.11113
G1 X111.209 Y102.252 E4.31784
G1 X110.673 Y102.596 F7800.000
G1 F1800
G1 X110.673 Y104.810 E4.46576
G1 X108.486 Y104.810 E4.61185
G1 X108.885 Y104.275 F7800.000
G1 F1800
G1 X110.138 Y104.275 E4.69550
G1 X110.138 Y103.043 E4.77778
G1 E2.77778 F2400.00000
G92 E0
G1 X106.748 Y107.703 F7800.000
G1 E2.00000 F2400.00000
G1 F1800
G1 X110.819 Y111.773 E2.38458
G1 X106.749 Y115.844 E2.76912
G1 X106.512 Y115.323 F7800.000
G1 F1800
G1 X110.061 Y111.773 E3.10449
G1 X106.511 Y108.223 E3.43990
G1 X106.313 Y108.782 F7800.000
G1 F1800
G1 X109.304 Y111.773 E3.72251
G1 X106.313 Y114.764 E4.00508
G1 X106.177 Y114.143 F7800.000
G1 F1800
G1 X108.546 Y111.773 E4.22893
G1 X106.177 Y109.404 E4.45282
G1 X106.052 Y110.036 F7800.000
G1 F1800
G1 X107.789 Y111.773 E4.61692
G1 X106.052 Y113.510 E4.78099
G1 X105.982 Y112.823 F7800.000
G1 F1800
G1 X107.032 Y111.773 E4.88012
G1 X105.982 Y110.724 E4.97926
G1 X105.982 Y111.481 F7800.000
G1 F1800
G1 X106.274 Y111.773 E5.00683
G1 X105.982 Y112.065 E5.03441
G1 E3.03441 F2400.00000
G92 E0
G1 X107.218 Y116.594 F7800.000
G1 E2.00000 F2400.00000
G1 F1800
G1 X112.816 Y116.594 E2.37393
G1 X112.816 Y122.199 E2.74836
G1 X113.138 Y122.331 F7800.000
G1 F1800
G1 X117.636 Y117.833 E3.17333
G1 X121.921 Y122.118 E3.57816
G1 X121.921 Y116.058 E3.98299
G1 X127.981 Y116.058 E4.38782
G1 X123.696 Y111.773 E4.79265
G1 X127.981 Y107.488 E5.19748
G1 X121.921 Y107.488 E5.60231
G1 X121.921 Y101.428 E6.00714
G1 X117.636 Y105.713 E6.41197
G1 X113.351 Y101.428 E6.81680
G1 X113.351 Y107.488 E7.22163
G1 X107.291 Y107.488 E7.62646
G1 X111.576 Y111.773 E8.03129
G1 X107.291 Y116.058 E8.43612
G1 X113.351 Y116.058 E8.84095
G1 X113.351 Y121.361 E9.19517
G1 X117.636 Y117.076 E9.60000
G1 X121.386 Y120.825 E9.95423
G1 X121.386 Y115.523 E10.30845
G1 X126.688 Y115.523 E10.66268
G1 X122.939 Y111.773 E11.01691
G1 X126.688 Y108.024 E11.37113
G1 X121.386 Y108.024 E11.72536
G1 X121.386 Y102.722 E12.07958
G1 X117.636 Y106.471 E12.43381
G1 X113.887 Y102.722 E12.78804
G1 X113.887 Y108.024 E13.14226
G1 X108.585 Y108.024 E13.49649
G1 X112.334 Y111.773 E13.85072
G1 X108.585 Y115.523 E14.20494
G1 X113.887 Y115.523 E14.55917
G1 X113.887 Y120.067 E14.86279
G1 X117.636 Y116.318 E15.21702
G1 X120.850 Y119.532 E15.52064
G1 X120.850 Y114.987 E15.82426
G1 X125.395 Y114.987 E16.12788
G1 X122.181 Y111.773 E16.43151
G1 X125.395 Y108.560 E16.73513
G1 X120.850 Y108.560 E17.03875
G1 X120.850 Y104.015 E17.34237
G1 X117.636 Y107.228 E17.64600
G1 X114.423 Y104.015 E17.94962
G1 X114.423 Y108.560 E18.25324
G1 X109.878 Y108.560 E18.55686
G1 X113.091 Y111.773 E18.86049
G1 X109.878 Y114.987 E19.16411
G1 X114.423 Y114.987 E19.46773
G1 X114.423 Y118.774 E19.72075
G1 X117.636 Y115.561 E20.02437
G1 X120.314 Y118.239 E20.27739
G1 X120.314 Y114.451 E20.53041
G1 X124.102 Y114.451 E20.78343
G1 X121.424 Y111.773 E21.03645
G1 X124.102 Y109.095 E21.28947
G1 X120.314 Y109.095 E21.54248
G1 X120.314 Y105.308 E21.79550
G1 X117.636 Y107.986 E22.04852
G1 X114.958 Y105.308 E22.30154
G1 X114.958 Y109.095 E22.55456
G1 X111.171 Y109.095 E22.80758
G1 X113.849 Y111.773 E23.06060
G1 X111.171 Y114.451 E23.31361
G1 X114.958 Y114.451 E23.56663
G1 X114.958 Y117.481 E23.76905
G1 X117.636 Y114.803 E24.02207
G1 X119.779 Y116.946 E24.22448
G1 X119.779 Y113.916 E24.42690
G1 X122.809 Y113.916 E24.62931
G1 X120.666 Y111.773 E24.83173
G1 X122.809 Y109.631 E25.03414
G1 X119.779 Y109.631 E25.23656
G1 X119.779 Y106.601 E25.43897
G1 X117.636 Y108.743 E25.64139
G1 X115.494 Y106.601 E25.84380
G1 X115.494 Y109.631 E26.04622
G1 X112.464 Y109.631 E26.24863
G1 X114.606 Y111.773 E26.45105
G1 X112.464 Y113.916 E26.65346
G1 X115.494 Y113.916 E26.85588
G1 X115.494 Y116.188 E27.00769
G1 X117.636 Y114.046 E27.21010
G1 X119.243 Y115.653 E27.36191
G1 X119.243 Y113.380 E27.51373
G1 X121.516 Y113.380 E27.66554
G1 X119.909 Y111.773 E27.81735
G1 X121.516 Y110.166 E27.96916
G1 X119.243 Y110.166 E28.12097
G1 X119.243 Y107.894 E28.27278
G1 X117.636 Y109.501 E28.42459
G1 X116.029 Y107.894 E28.57640
G1 X116.029 Y110.166 E28.72821
G1 X113.757 Y110.166 E28.88003
G1 X115.364 Y111.773 E29.03184
G1 X113.757 Y113.380 E29.18365
G1 X116.029 Y113.380 E29.33546
G1 X116.029 Y114.895 E29.43667
G1 X117.636 Y113.288 E29.58848
G1 X118.707 Y114.359 E29.68969
G1 X118.707 Y112.845 E29.79089
G1 X120.222 Y112.845 E29.89210
G1 X119.151 Y111.773 E29.99331
G1 X120.222 Y110.702 E30.09452
G1 X118.707 Y110.702 E30.19572
G1 X118.707 Y109.187 E30.29693
G1 X117.636 Y110.258 E30.39814
G1 X116.565 Y109.187 E30.49935
G1 X116.565 Y110.702 E30.60055
G1 X115.050 Y110.702 E30.70176
G1 X116.121 Y111.773 E30.80297
