; generated by Slic3r 1.3.1-dev on 2021-01-15 at 00:45:30

; external perimeters extrusion width = 0.55mm (3.45mm^3/s)
; perimeters extrusion width = 0.70mm (8.98mm^3/s)
; infill extrusion width = 0.63mm (10.59mm^3/s)
; solid infill extrusion width = 0.70mm (2.99mm^3/s)
; top infill extrusion width = 0.70mm (2.24mm^3/s)

M107
M190 S60 ; set bed temperature and wait for it to be reached
M104 S200 ; set temperature
G28 ; home all axes
G1 Z5 F5000 ; lift nozzle

; Filament gcode

M109 S200 ; set temperature and wait for it to be reached
G21 ; set units to millimeters
G90 ; use absolute coordinates
M82 ; use absolute distances for extrusion
G92 E0
G92 E0
G1 Z0.300 F7800.000
G1 E-2.00000 F2400.00000
G92 E0
G1 X94.504 Y84.787 F7800.000
G1 E2.00000 F2400.00000
G1 F1800
G1 X96.253 Y83.328 E2.15217
G1 X99.500 Y82.464 E2.37660
G1 X120.500 Y82.464 E3.77951
G1 X122.743 Y82.861 E3.93169
G1 X124.713 Y84.004 E4.08386
G1 X126.172 Y85.753 E4.23603
G1 X127.036 Y89.000 E4.46046
G1 X127.036 Y131.000 E7.26628
G1 X126.639 Y133.243 E7.41846
G1 X125.496 Y135.213 E7.57063
G1 X123.747 Y136.672 E7.72280
G1 X120.500 Y137.536 E7.94723
G1 X99.500 Y137.536 E9.35014
G1 X97.257 Y137.139 E9.50231
G1 X95.287 Y135.996 E9.65448
G1 X93.828 Y134.247 E9.80665
G1 X92.964 Y131.000 E10.03108
G1 X92.964 Y89.000 E12.83691
G1 X93.361 Y86.757 E12.98908
G1 X94.466 Y84.851 E13.13624
G1 E11.13624 F2400.00000
G92 E0
G1 X111.531 Y122.110 F7800.000
G1 E2.00000 F2400.00000
G1 F1800
G1 X111.110 Y122.531 E2.03978
G1 X110.584 Y122.798 E2.07916
G1 X110.000 Y122.892 E2.11870
G1 X109.416 Y122.798 E2.15825
G1 X108.890 Y122.531 E2.19762
G1 X108.469 Y122.110 E2.23740
G1 X108.200 Y121.581 E2.27707
G1 X108.110 Y121.000 E2.31631
G1 X108.200 Y120.419 E2.35556
G1 X108.469 Y119.890 E2.39522
G1 X108.910 Y119.449 E2.43693
G1 X109.471 Y119.192 E2.47810
G1 X110.000 Y119.110 E2.51387
G1 X110.581 Y119.200 E2.55312
G1 X111.110 Y119.469 E2.59278
G1 X111.531 Y119.890 E2.63256
G1 X111.798 Y120.416 E2.67194
G1 X111.892 Y121.000 E2.71149
G1 X111.798 Y121.584 E2.75103
G1 X111.565 Y122.043 E2.78540
G1 X111.092 Y121.792 F7800.000
G1 F1800
G1 X110.792 Y122.092 E2.81377
G1 X110.417 Y122.282 E2.84186
G1 X110.000 Y122.349 E2.87006
G1 X109.583 Y122.282 E2.89825
G1 X109.208 Y122.092 E2.92634
G1 X108.908 Y121.792 E2.95472
G1 X108.717 Y121.414 E2.98299
G1 X108.652 Y121.000 E3.01100
G1 X108.717 Y120.586 E3.03900
G1 X108.908 Y120.208 E3.06727
G1 X109.221 Y119.896 E3.09682
G1 X109.626 Y119.710 E3.12660
G1 X110.000 Y119.652 E3.15187
G1 X110.414 Y119.717 E3.17988
G1 X110.792 Y119.908 E3.20815
G1 X111.092 Y120.208 E3.23652
G1 X111.282 Y120.583 E3.26461
G1 X111.349 Y121.000 E3.29281
G1 X111.282 Y121.417 E3.32101
G1 X111.126 Y121.725 E3.34409
G1 X110.249 Y121.767 F7800.000
G1 F1800
G1 X110.000 Y121.807 E3.36093
G1 X109.751 Y121.767 E3.37778
G1 X109.527 Y121.653 E3.39459
G1 X109.347 Y121.473 E3.41156
G1 X109.233 Y121.248 E3.42843
G1 X109.194 Y121.000 E3.44520
G1 X109.233 Y120.752 E3.46197
G1 X109.347 Y120.527 E3.47884
G1 X109.531 Y120.343 E3.49623
G1 X109.781 Y120.228 E3.51461
G1 X110.000 Y120.194 E3.52939
G1 X110.248 Y120.233 E3.54616
G1 X110.473 Y120.347 E3.56303
G1 X110.653 Y120.527 E3.58000
G1 X110.767 Y120.751 E3.59681
G1 X110.807 Y121.000 E3.61366
G1 X110.767 Y121.249 E3.63050
G1 X110.653 Y121.473 E3.64731
G1 X110.473 Y121.653 E3.66428
G1 X110.316 Y121.733 E3.67608
G1 X110.197 Y122.013 F7800.000
G1 E1.67608 F2400.00000
G92 E0
G1 X110.000 Y100.392 F7800.000
G1 E2.00000 F2400.00000
G1 F1800
G1 X109.416 Y100.298 E2.03954
G1 X108.890 Y100.031 E2.07892
G1 X108.469 Y99.610 E2.11870
G1 X108.200 Y99.081 E2.15837
G1 X108.110 Y98.500 E2.19761
G1 X108.200 Y97.919 E2.23686
G1 X108.469 Y97.390 E2.27652
G1 X108.890 Y96.969 E2.31631
G1 X109.419 Y96.700 E2.35597
G1 X109.949 Y96.618 E2.39179
G1 X110.556 Y96.688 E2.43255
G1 X111.110 Y96.969 E2.47409
G1 X111.531 Y97.390 E2.51387
G1 X111.798 Y97.916 E2.55324
G1 X111.892 Y98.500 E2.59279
G1 X111.798 Y99.084 E2.63234
G1 X111.531 Y99.610 E2.67171
G1 X111.110 Y100.031 E2.71150
G1 X110.584 Y100.298 E2.75087
G1 X110.074 Y100.380 E2.78540
G1 X110.000 Y99.849 F7800.000
G1 F1800
G1 X109.583 Y99.782 E2.81360
G1 X109.208 Y99.592 E2.84169
G1 X108.908 Y99.292 E2.87006
G1 X108.717 Y98.914 E2.89833
G1 X108.652 Y98.500 E2.92634
G1 X108.717 Y98.086 E2.95435
G1 X108.908 Y97.708 E2.98262
G1 X109.208 Y97.408 E3.01100
G1 X109.586 Y97.217 E3.03926
G1 X109.960 Y97.159 E3.06457
G1 X110.399 Y97.209 E3.09409
G1 X110.792 Y97.408 E3.12350
G1 X111.092 Y97.708 E3.15187
G1 X111.282 Y98.083 E3.17996
G1 X111.349 Y98.500 E3.20816
G1 X111.282 Y98.917 E3.23636
G1 X111.092 Y99.292 E3.26445
G1 X110.792 Y99.592 E3.29283
G1 X110.417 Y99.782 E3.32091
G1 X110.074 Y99.837 E3.34410
G1 X110.249 Y99.267 F7800.000
G1 F1800
G1 X110.000 Y99.307 E3.36095
G1 X109.751 Y99.267 E3.37779
G1 X109.527 Y99.153 E3.39460
G1 X109.347 Y98.973 E3.41157
G1 X109.233 Y98.748 E3.42844
G1 X109.194 Y98.500 E3.44521
G1 X109.233 Y98.252 E3.46198
G1 X109.347 Y98.027 E3.47885
G1 X109.527 Y97.847 E3.49582
G1 X109.752 Y97.733 E3.51269
G1 X109.971 Y97.699 E3.52749
G1 X110.243 Y97.730 E3.54577
G1 X110.473 Y97.847 E3.56305
G1 X110.653 Y98.027 E3.58002
G1 X110.767 Y98.251 E3.59683
G1 X110.807 Y98.500 E3.61367
G1 X110.767 Y98.749 E3.63052
G1 X110.653 Y98.973 E3.64733
G1 X110.473 Y99.153 E3.66430
G1 X110.316 Y99.233 E3.67609
G1 X110.197 Y99.513 F7800.000
G1 E1.67609 F2400.00000
G92 E0
G1 X119.129 Y90.371 F7800.000
G1 E2.00000 F2400.00000
G1 F1800
G1 X119.129 Y129.629 E4.62261
G1 X100.871 Y129.629 E5.84232
G1 X100.871 Y90.371 E8.46493
G1 X119.054 Y90.371 E9.67962
G1 X119.664 Y89.836 F7800.000
G1 F1800
G1 X119.664 Y130.164 E12.37380
G1 X100.336 Y130.164 E13.66507
G1 X100.336 Y89.836 E16.35925
G1 X119.589 Y89.836 E17.64550
G1 X120.200 Y89.300 F7800.000
G1 F1800
G1 X120.200 Y130.700 E20.41125
G1 X99.800 Y130.700 E21.77408
G1 X99.800 Y89.300 E24.53982
G1 X120.125 Y89.300 E25.89764
G1 X120.124 Y89.794 F7800.000
G1 E23.89764 F2400.00000
G92 E0
G1 X118.570 Y90.612 F7800.000
G1 E2.00000 F2400.00000
G1 F1800
G1 X118.570 Y101.430 E2.72269
G1 X118.888 Y101.430 E2.74393
G1 X118.888 Y101.966 F7800.000
G1 F1800
G1 X118.034 Y101.966 E2.80094
G1 X118.034 Y90.612 E3.55941
G1 X117.939 Y90.699 F7800.000
G1 F1800
G1 X111.560 Y97.078 E4.16212
G1 X111.168 Y96.712 F7800.000
G1 F1800
G1 X117.182 Y90.699 E4.73024
G1 X116.424 Y90.699 F7800.000
G1 F1800
G1 X110.666 Y96.457 E5.27428
G1 X110.043 Y96.322 F7800.000
G1 F1800
G1 X115.667 Y90.699 E5.80558
G1 X114.909 Y90.699 F7800.000
G1 F1800
G1 X110.000 Y95.608 E6.26940
G1 X105.091 Y90.699 E6.73322
G1 X105.848 Y90.699 F7800.000
G1 F1800
G1 X110.000 Y94.850 E7.12548
G1 X114.152 Y90.699 E7.51774
G1 X113.394 Y90.699 F7800.000
G1 F1800
G1 X110.000 Y94.093 E7.83843
G1 X106.606 Y90.699 E8.15912
G1 X107.363 Y90.699 F7800.000
G1 F1800
G1 X110.000 Y93.335 E8.40825
G1 X112.637 Y90.699 E8.65738
G1 X111.879 Y90.699 F7800.000
G1 F1800
G1 X110.000 Y92.578 E8.83494
G1 X108.121 Y90.699 E9.01251
G1 X108.878 Y90.699 F7800.000
G1 F1800
G1 X110.000 Y91.820 E9.11851
G1 X111.122 Y90.699 E9.22450
G1 X110.364 Y90.699 F7800.000
G1 F1800
G1 X110.000 Y91.063 E9.25894
G1 X109.636 Y90.699 E9.29337
G1 E7.29337 F2400.00000
G92 E0
G1 X104.333 Y90.699 F7800.000
G1 E2.00000 F2400.00000
G1 F1800
G1 X109.951 Y96.317 E2.53077
G1 X109.334 Y96.457 F7800.000
G1 F1800
G1 X103.576 Y90.699 E3.07482
G1 X102.818 Y90.699 F7800.000
G1 F1800
G1 X108.832 Y96.712 E3.64294
G1 X108.440 Y97.078 F7800.000
G1 F1800
G1 X102.061 Y90.699 E4.24564
G1 X101.966 Y90.612 F7800.000
G1 F1800
G1 X101.966 Y101.966 E5.00411
G1 X101.112 Y101.966 E5.06113
G1 X101.112 Y101.430 F7800.000
G1 F1800
G1 X101.430 Y101.430 E5.08236
G1 X101.430 Y90.612 E5.80505
G1 E3.80505 F2400.00000
G92 E0
G1 X108.119 Y97.514 F7800.000
G1 E2.00000 F2400.00000
G1 F1800
G1 X102.501 Y91.897 E2.53075
G1 X102.501 Y102.501 E3.23921
G1 X101.112 Y102.501 E3.33200
G1 X101.112 Y103.037 F7800.000
G1 F1800
G1 X103.037 Y103.037 E3.46058
G1 X103.037 Y93.190 E4.11843
G1 X107.881 Y98.034 E4.57610
G1 X107.780 Y98.690 F7800.000
G1 F1800
G1 X103.573 Y94.483 E4.97357
G1 X103.573 Y103.573 E5.58081
G1 X101.112 Y103.573 E5.74518
G1 X101.112 Y104.108 F7800.000
G1 F1800
G1 X104.108 Y104.108 E5.94532
G1 X104.108 Y95.776 E6.50196
G1 X108.000 Y99.668 E6.86969
G1 X108.832 Y100.500 F7800.000
G1 F1800
G1 X110.000 Y101.668 E6.98006
G1 X111.168 Y100.500 E7.09043
G1 X112.000 Y99.668 F7800.000
G1 F1800
G1 X115.892 Y95.776 E7.45817
G1 X115.892 Y104.108 E8.01481
G1 X118.888 Y104.108 E8.21495
G1 X118.888 Y104.644 F7800.000
G1 F1800
G1 X115.356 Y104.644 E8.45088
G1 X115.356 Y97.069 E8.95692
G1 X110.000 Y102.425 E9.46296
G1 X104.644 Y97.069 E9.96899
G1 X104.644 Y104.644 E10.47503
G1 X101.112 Y104.644 E10.71096
G1 X101.112 Y105.179 F7800.000
G1 F1800
G1 X105.179 Y105.179 E10.98267
G1 X105.179 Y98.362 E11.43810
G1 X110.000 Y103.183 E11.89353
G1 X114.821 Y98.362 E12.34897
G1 X114.821 Y105.179 E12.80440
G1 X118.888 Y105.179 E13.07611
G1 X118.888 Y105.715 F7800.000
G1 F1800
G1 X114.285 Y105.715 E13.38360
G1 X114.285 Y99.655 E13.78843
G1 X110.000 Y103.940 E14.19326
G1 X105.715 Y99.655 E14.59809
G1 X105.715 Y105.715 E15.00292
G1 X101.112 Y105.715 E15.31042
G1 X101.112 Y106.251 F7800.000
G1 F1800
G1 X106.251 Y106.251 E15.65369
G1 X106.251 Y100.948 E16.00792
G1 X110.000 Y104.698 E16.36214
G1 X113.749 Y100.948 E16.71637
G1 X113.749 Y106.251 E17.07059
G1 X118.888 Y106.251 E17.41387
G1 X118.801 Y106.501 F7800.000
G1 F1800
G1 X115.302 Y110.000 E17.74445
G1 X118.801 Y113.499 E18.07504
G1 X118.888 Y113.749 F7800.000
G1 F1800
G1 X113.749 Y113.749 E18.41831
G1 X113.749 Y119.052 E18.77254
G1 X110.000 Y115.302 E19.12677
G1 X105.715 Y119.587 E19.53160
G1 X105.715 Y114.285 E19.88582
G1 X101.112 Y114.285 E20.19332
G1 X101.112 Y113.749 F7800.000
G1 F1800
G1 X106.251 Y113.749 E20.53659
G1 X106.251 Y118.294 E20.84021
G1 X110.000 Y114.545 E21.19444
G1 X113.214 Y117.759 E21.49806
G1 X113.214 Y113.214 E21.80168
G1 X117.759 Y113.214 E22.10531
G1 X114.545 Y110.000 E22.40893
G1 X117.759 Y106.786 E22.71255
G1 X113.214 Y106.786 E23.01617
G1 X113.214 Y102.241 E23.31980
G1 X110.000 Y105.455 E23.62342
G1 X106.786 Y102.241 E23.92704
G1 X106.786 Y106.786 E24.23066
G1 X102.241 Y106.786 E24.53429
G1 X105.455 Y110.000 E24.83791
G1 X102.241 Y113.214 E25.14153
G1 X106.786 Y113.214 E25.44515
G1 X106.786 Y117.001 E25.69817
G1 X110.000 Y113.787 E26.00179
G1 X112.678 Y116.465 E26.25481
G1 X112.678 Y112.678 E26.50783
G1 X116.465 Y112.678 E26.76085
G1 X113.787 Y110.000 E27.01387
G1 X116.465 Y107.322 E27.26689
G1 X112.678 Y107.322 E27.51991
G1 X112.678 Y103.535 E27.77292
G1 X110.000 Y106.213 E28.02594
G1 X107.322 Y103.535 E28.27896
G1 X107.322 Y107.322 E28.53198
G1 X103.535 Y107.322 E28.78500
G1 X106.213 Y110.000 E29.03802
G1 X103.535 Y112.678 E29.29104
G1 X107.322 Y112.678 E29.54406
G1 X107.322 Y115.708 E29.74647
G1 X110.000 Y113.030 E29.99949
G1 X112.142 Y115.172 E30.20190
G1 X112.142 Y112.142 E30.40432
G1 X115.172 Y112.142 E30.60673
G1 X113.030 Y110.000 E30.80915
G1 X115.172 Y107.858 E31.01156
G1 X112.142 Y107.858 E31.21398
G1 X112.142 Y104.828 E31.41639
G1 X110.000 Y106.970 E31.61881
G1 X107.858 Y104.828 E31.82122
G1 X107.858 Y107.858 E32.02364
G1 X104.828 Y107.858 E32.22605
G1 X106.970 Y110.000 E32.42847
G1 X104.828 Y112.142 E32.63088
G1 X107.858 Y112.142 E32.83330
G1 X107.858 Y114.415 E32.98511
G1 X110.000 Y112.272 E33.18752
G1 X111.607 Y113.879 E33.33934
G1 X111.607 Y111.607 E33.49115
G1 X113.879 Y111.607 E33.64296
G1 X112.272 Y110.000 E33.79477
G1 X113.879 Y108.393 E33.94658
G1 X111.607 Y108.393 E34.09839
G1 X111.607 Y106.121 E34.25020
G1 X110.000 Y107.728 E34.40201
G1 X108.393 Y106.121 E34.55383
G1 X108.393 Y108.393 E34.70564
G1 X106.121 Y108.393 E34.85745
G1 X107.728 Y110.000 E35.00926
G1 X106.121 Y111.607 E35.16107
G1 X108.393 Y111.607 E35.31288
G1 X108.393 Y113.122 E35.41409
G1 X110.000 Y111.515 E35.56590
G1 X111.071 Y112.586 E35.66711
G1 X111.071 Y111.071 E35.76832
G1 X112.586 Y111.071 E35.86952
G1 X111.515 Y110.000 E35.97073
G1 X112.586 Y108.929 E36.07194
G1 X111.071 Y108.929 E36.17314
G1 X111.071 Y107.414 E36.27435
G1 X110.000 Y108.485 E36.37556
G1 X108.929 Y107.414 E36.47677
G1 X108.929 Y108.929 E36.57797
G1 X107.414 Y108.929 E36.67918
G1 X108.485 Y110.000 E36.78039
G1 X107.414 Y111.071 E36.88160
G1 X108.929 Y111.071 E36.98280
G1 X108.929 Y111.829 E37.03341
G1 X110.000 Y110.757 E37.13462
G1 X110.536 Y111.293 E37.18522
G1 X110.536 Y110.536 E37.23582
G1 X111.293 Y110.536 E37.28643
G1 X110.757 Y110.000 E37.33703
G1 X111.293 Y109.464 E37.38763
G1 X110.536 Y109.464 E37.43824
G1 X110.536 Y108.707 E37.48884
G1 X110.000 Y109.243 E37.53945
G1 X109.464 Y108.707 E37.59005
G1 X109.464 Y109.464 E37.64065
G1 X108.707 Y109.464 E37.69126
G1 X109.243 Y110.000 E37.74186
G1 X108.707 Y110.536 E37.79246
G1 X109.464 Y110.536 E37.84307
G1 X110.208 Y109.792 E37.91335
G1 E35.91335 F2400.00000
G92 E0
G1 X118.801 Y109.531 F7800.000
G1 E2.00000 F2400.00000
G1 F1800
G1 X118.332 Y110.000 E2.04433
G1 X118.801 Y110.469 E2.08866
G1 X118.801 Y111.227 F7800.000
G1 F1800
G1 X117.575 Y110.000 E2.20455
G1 X118.801 Y108.773 E2.32044
G1 X118.801 Y108.016 F7800.000
G1 F1800
G1 X116.817 Y110.000 E2.50790
G1 X118.801 Y111.984 E2.69536
G1 X118.801 Y112.742 F7800.000
G1 F1800
G1 X116.060 Y110.000 E2.95438
G1 X118.801 Y107.258 E3.21340
G1 E1.21340 F2400.00000
G92 E0
G1 X118.888 Y103.573 F7800.000
G1 E2.00000 F2400.00000
G1 F1800
G1 X116.427 Y103.573 E2.16436
G1 X116.427 Y94.483 E2.77161
G1 X112.223 Y98.687 E3.16885
G1 X112.118 Y98.035 F7800.000
G1 F1800
G1 X116.963 Y93.190 E3.62663
G1 X116.963 Y103.037 E4.28448
G1 X118.888 Y103.037 E4.41306
G1 X118.888 Y102.501 F7800.000
G1 F1800
G1 X117.499 Y102.501 E4.50586
G1 X117.499 Y91.897 E5.21431
G1 X111.881 Y97.514 E5.74507
G1 E3.74507 F2400.00000
G92 E0
G1 X101.199 Y106.501 F7800.000
G1 E2.00000 F2400.00000
G1 F1800
G1 X104.698 Y110.000 E2.33059
G1 X101.199 Y113.499 E2.66117
G1 X101.199 Y112.742 F7800.000
G1 F1800
G1 X103.940 Y110.000 E2.92019
G1 X101.199 Y107.258 E3.17922
G1 X101.199 Y108.016 F7800.000
G1 F1800
G1 X103.183 Y110.000 E3.36667
G1 X101.199 Y111.984 E3.55413
G1 X101.199 Y111.227 F7800.000
G1 F1800
G1 X102.425 Y110.000 E3.67002
G1 X101.199 Y108.773 E3.78591
G1 X101.199 Y109.531 F7800.000
G1 F1800
G1 X101.668 Y110.000 E3.83024
G1 X101.199 Y110.469 E3.87457
G1 E1.87457 F2400.00000
G92 E0
G1 X101.112 Y114.821 F7800.000
G1 E2.00000 F2400.00000
G1 F1800
G1 X105.179 Y114.821 E2.27171
G1 X105.179 Y120.880 E2.67654
G1 X110.000 Y116.060 E3.13197
G1 X114.285 Y120.345 E3.53680
G1 X114.285 Y114.285 E3.94163
G1 X118.888 Y114.285 E4.24913
G1 X118.888 Y114.821 F7800.000
G1 F1800
G1 X114.821 Y114.821 E4.52084
G1 X114.821 Y121.638 E4.97627
G1 X110.000 Y116.817 E5.43170
G1 X104.644 Y122.174 E5.93774
G1 X104.644 Y115.356 E6.39317
G1 X101.112 Y115.356 E6.62910
G1 X101.112 Y115.892 F7800.000
G1 F1800
G1 X104.108 Y115.892 E6.82925
G1 X104.108 Y123.467 E7.33528
G1 X110.000 Y117.575 E7.89192
G1 X115.356 Y122.931 E8.39796
G1 X115.356 Y115.356 E8.90400
G1 X118.888 Y115.356 E9.13993
G1 X118.888 Y115.892 F7800.000
G1 F1800
G1 X115.892 Y115.892 E9.34007
G1 X115.892 Y124.224 E9.89671
G1 X112.181 Y120.514 E10.24727
G1 X112.153 Y121.243 F7800.000
G1 F1800
G1 X116.427 Y125.517 E10.65107
G1 X116.427 Y116.427 E11.25832
G1 X118.888 Y116.427 E11.42268
G1 X118.888 Y116.963 F7800.000
G1 F1800
G1 X116.963 Y116.963 E11.55126
G1 X116.963 Y126.810 E12.20911
G1 X111.967 Y121.815 E12.68107
G1 X111.689 Y122.293 F7800.000
G1 F1800
G1 X117.499 Y128.103 E13.22999
G1 X117.499 Y117.499 E13.93844
G1 X118.888 Y117.499 E14.03124
G1 X118.888 Y118.034 F7800.000
